;FLAVOR:Marlin
M117 Time Left 1h12m22s
;TIME:4342
;Filament used: 2.73177m
;Layer height: 0.16
;MINX:87.439
;MINY:94.5
;MINZ:0.2
;MAXX:150.82
;MAXY:144.939
;MAXZ:18.88
;POSTPROCESSED
;Generated with Cura_SteamEngine 4.8.0
M140 S60
M105
M190 S60
M104 S205
M105
M109 S205
M82 ;absolute extrusion mode
; Ender 3 Custom Start G-code
G92 E0 ; Reset Extruder
G28 ; Home all axes
; ***SET NEW E STEP *** (93 is factory value - 95 mine - start)
G90                          ; Force coordinates to be absolute relative to the origin
M92 E95 ;					 ; ***SET NEW E STEP *** (93 is factory value - 95 mine - end)
G90                          ; Force coordinates to be absolute relative to the origin
G28                          ; Home X/Y/Z axis
G92 E0 ; Reset Extruder
G28 ; Home all axes
G1 Z2.0 F3000 ; Move Z Axis up little to prevent scratching of Heat Bed
G1 X0.1 Y20 Z0.3 F5000.0 ; Move to start position
G1 X0.1 Y200.0 Z0.3 F1500.0 E15 ; Draw the first line
G1 X0.4 Y200.0 Z0.3 F5000.0 ; Move to side a little
G1 X0.4 Y20 Z0.3 F1500.0 E30 ; Draw the second line
G92 E0 ; Reset Extruder
G1 Z2.0 F3000 ; Move Z Axis up little to prevent scratching of Heat Bed
G1 X5 Y20 Z0.3 F5000.0 ; Move over to prevent blob squish
G92 E0
G92 E0
G1 F2700 E-5
;LAYER_COUNT:96
;LAYER:0
M107
G0 F6000 X91.715 Y104.78 Z0.2
;TYPE:SKIRT
G1 F2700 E0
G1 F1200 X92.198 Y104.379 E0.02088
G1 X92.516 Y104.135 E0.03421
G1 X93.007 Y103.772 E0.05452
G1 X93.546 Y103.39 E0.07649
G1 X94.344 Y102.875 E0.10808
G1 X95.621 Y102.127 E0.15731
G1 X95.814 Y102.016 E0.16471
G1 X98.602 Y100.304 E0.27353
G1 X98.964 Y100.073 E0.28781
G1 X99.775 Y99.603 E0.31899
G1 X100.624 Y99.203 E0.3502
G1 X101.503 Y98.877 E0.38138
G1 X102.067 Y98.712 E0.40093
G1 X102.465 Y98.607 E0.41462
G1 X105.026 Y97.896 E0.50302
G1 X107.417 Y97.158 E0.58625
G1 X109.808 Y96.347 E0.67022
G1 X112.154 Y95.476 E0.75345
G1 X112.753 Y95.245 E0.77481
G1 X113.641 Y94.945 E0.80598
G1 X114.552 Y94.722 E0.83718
G1 X115.479 Y94.578 E0.86838
G1 X116.401 Y94.513 E0.89912
G1 X116.722 Y94.504 E0.9098
G1 X117.03 Y94.5 E0.92005
G1 X117.493 Y94.5 E0.93544
G1 X118.354 Y94.511 E0.96408
G1 X119.29 Y94.564 E0.99527
G1 X120.219 Y94.697 E1.02648
G1 X121.111 Y94.903 E1.05693
G1 X121.584 Y95.033 E1.07324
G1 X124.154 Y95.702 E1.16157
G1 X126.606 Y96.265 E1.24525
G1 X129.024 Y96.75 E1.32727
G1 X131.564 Y97.184 E1.41298
G1 X131.913 Y97.235 E1.42471
G1 X133.114 Y97.424 E1.46514
G1 X134.033 Y97.609 E1.49632
G1 X134.934 Y97.872 E1.52754
G1 X135.503 Y98.082 E1.54771
G1 X136.879 Y98.635 E1.59704
G1 X138.084 Y99.128 E1.64034
G1 X138.423 Y99.272 E1.65259
G1 X139.268 Y99.68 E1.6838
G1 X140.258 Y100.281 E1.72232
G1 X140.487 Y100.437 E1.73154
G1 X140.831 Y100.68 E1.74555
G1 X141.015 Y100.815 E1.75314
G1 X141.598 Y101.253 E1.77739
G1 X142.323 Y101.848 E1.80858
G1 X142.995 Y102.503 E1.8398
G1 X143.609 Y103.212 E1.87099
G1 X144.16 Y103.971 E1.90219
G1 X144.772 Y105.015 E1.94244
G1 X145.074 Y105.602 E1.96439
G1 X146.32 Y107.945 E2.05265
G1 X147.569 Y110.145 E2.1368
G1 X148.356 Y111.458 E2.18771
G1 X148.857 Y112.278 E2.21967
G1 X149.312 Y113.099 E2.25089
G1 X149.802 Y114.234 E2.29201
G1 X149.951 Y114.648 E2.30664
G1 X150.053 Y114.948 E2.31718
G1 X150.149 Y115.245 E2.32756
G1 X150.341 Y115.867 E2.34922
G1 X150.579 Y116.774 E2.3804
G1 X150.739 Y117.698 E2.41159
G1 X150.82 Y118.632 E2.44277
G1 X150.82 Y119.57 E2.47397
G1 X150.741 Y120.505 E2.50518
G1 X150.583 Y121.429 E2.53636
G1 X150.266 Y122.59 E2.57639
G1 X150.215 Y122.743 E2.58175
G1 X149.994 Y123.363 E2.60364
G1 X149.896 Y123.624 E2.61292
G1 X149.632 Y124.302 E2.63712
G1 X149.255 Y125.161 E2.66832
G1 X148.806 Y125.984 E2.6995
G1 X148.289 Y126.766 E2.73068
G1 X147.706 Y127.502 E2.76191
G1 X147.063 Y128.185 E2.79311
G1 X146.39 Y128.789 E2.82318
G1 X145.87 Y129.218 E2.84561
G1 X144.576 Y130.257 E2.9008
G1 X142.636 Y131.906 E2.98549
G1 X140.781 Y133.577 E3.06853
G1 X138.979 Y135.293 E3.15129
G1 X138.007 Y136.27 E3.19713
G1 X136.949 Y137.305 E3.24635
G1 X136.27 Y137.952 E3.27755
G1 X135.651 Y138.524 E3.30558
G1 X134.935 Y139.13 E3.33678
G1 X134.17 Y139.673 E3.36798
G1 X133.404 Y140.125 E3.39756
G1 X132.2 Y140.772 E3.44302
G1 X131.968 Y140.905 E3.45192
G1 X131.219 Y141.289 E3.47991
G1 X130.163 Y141.762 E3.5184
G1 X128.568 Y142.378 E3.57527
G1 X126.917 Y143.033 E3.63434
G1 X125.966 Y143.426 E3.66857
G1 X125.794 Y143.489 E3.67466
G1 X124.628 Y143.966 E3.71656
G1 X123.746 Y144.284 E3.74775
G1 X122.84 Y144.526 E3.77894
G1 X121.916 Y144.689 E3.81014
G1 X120.652 Y144.784 E3.8523
G1 X119.801 Y144.799 E3.88061
G1 X116.724 Y144.903 E3.98301
G1 X116.557 Y144.911 E3.98857
G1 X116.219 Y144.922 E3.99982
G1 X115.324 Y144.938 E4.02959
G1 X114.977 Y144.939 E4.04113
G1 X114.536 Y144.933 E4.0558
G1 X113.6 Y144.88 E4.08698
G1 X112.519 Y144.718 E4.12334
G1 X111.608 Y144.495 E4.15453
G1 X110.654 Y144.17 E4.18805
G1 X110.185 Y143.986 E4.20481
G1 X108.635 Y143.362 E4.26039
G1 X106.43 Y142.439 E4.33989
G1 X106.348 Y142.407 E4.34282
G1 X105.476 Y142.044 E4.37423
G1 X104.361 Y141.589 E4.41429
G1 X103.693 Y141.321 E4.43823
G1 X102.839 Y140.936 E4.46938
G1 X102.09 Y140.521 E4.49786
G1 X100.174 Y139.362 E4.57234
G1 X99.87 Y139.187 E4.58401
G1 X98.857 Y138.593 E4.62307
G1 X98.324 Y138.272 E4.64376
G1 X97.675 Y137.871 E4.66913
G1 X96.899 Y137.344 E4.70033
G1 X96.432 Y136.977 E4.72009
G1 X96.091 Y136.689 E4.73493
G1 X95.678 Y136.324 E4.75327
G1 X95.364 Y136.04 E4.76735
G1 X94.903 Y135.613 E4.78825
G1 X94.248 Y134.953 E4.81917
G1 X93.703 Y134.355 E4.84609
G1 X93.474 Y134.096 E4.85758
G1 X93.03 Y133.577 E4.8803
G1 X92.452 Y132.839 E4.91148
G1 X91.938 Y132.054 E4.94269
G1 X91.391 Y131.012 E4.98183
G1 X91.21 Y130.614 E4.99637
G1 X90.351 Y128.65 E5.06767
G1 X89.269 Y126.352 E5.15215
G1 X89.118 Y126.045 E5.16353
G1 X88.873 Y125.533 E5.18241
G1 X88.387 Y124.345 E5.2251
G1 X88.178 Y123.734 E5.24658
G1 X88.072 Y123.407 E5.25801
G1 X87.917 Y122.903 E5.27555
G1 X87.68 Y121.996 E5.30673
G1 X87.521 Y121.072 E5.33791
G1 X87.441 Y120.137 E5.36912
G1 X87.439 Y119.245 E5.39879
G1 X87.485 Y118.088 E5.4373
G1 X87.484 Y117.999 E5.44026
G1 X87.566 Y114.481 E5.5573
G1 X87.568 Y114.206 E5.56645
G1 X87.613 Y113.269 E5.59765
G1 X87.738 Y112.34 E5.62883
G1 X88.032 Y111.105 E5.67105
G1 X88.137 Y110.763 E5.68295
G1 X88.292 Y110.285 E5.69967
G1 X88.377 Y110.034 E5.70848
G1 X88.601 Y109.396 E5.73097
G1 X88.949 Y108.525 E5.76217
G1 X89.37 Y107.687 E5.79336
G1 X89.861 Y106.888 E5.82455
G1 X90.418 Y106.134 E5.85573
G1 X91.038 Y105.429 E5.88695
G1 X91.715 Y104.78 E5.91815
G0 F6000 X92.056 Y105.014
G1 F1200 X92.445 Y104.694 E5.9349
G1 X92.755 Y104.455 E5.94792
G1 X93.037 Y104.245 E5.95961
G1 X93.239 Y104.099 E5.9679
G1 X93.778 Y103.717 E5.98988
G1 X94.546 Y103.22 E6.0203
G1 X95.822 Y102.473 E6.06948
G1 X96.012 Y102.363 E6.07678
G1 X98.804 Y100.649 E6.18575
G1 X99.179 Y100.41 E6.20054
G1 X99.976 Y99.949 E6.23116
G1 X100.81 Y99.559 E6.26178
G1 X101.674 Y99.243 E6.29238
G1 X102.169 Y99.099 E6.30953
G1 X102.598 Y98.986 E6.32428
G1 X105.113 Y98.288 E6.41109
G1 X107.526 Y97.543 E6.49509
G1 X109.959 Y96.717 E6.58055
G1 X112.263 Y95.862 E6.66228
G1 X112.896 Y95.618 E6.68485
G1 X113.769 Y95.325 E6.71548
G1 X114.664 Y95.108 E6.74611
G1 X115.574 Y94.97 E6.77672
G1 X116.412 Y94.913 E6.80465
G1 X116.733 Y94.904 E6.81534
G1 X117.03 Y94.9 E6.82521
G1 X117.493 Y94.9 E6.84061
G1 X118.348 Y94.911 E6.86905
G1 X119.267 Y94.964 E6.89967
G1 X120.179 Y95.097 E6.93032
G1 X121.005 Y95.288 E6.95852
G1 X121.508 Y95.426 E6.97587
G1 X124.037 Y96.084 E7.06279
G1 X126.551 Y96.662 E7.14858
G1 X128.977 Y97.148 E7.23088
G1 X131.482 Y97.577 E7.31541
G1 X131.851 Y97.63 E7.3278
G1 X133.052 Y97.819 E7.36824
G1 X133.954 Y98.001 E7.39885
G1 X134.837 Y98.261 E7.42946
G1 X135.354 Y98.453 E7.44781
G1 X136.728 Y99.005 E7.49705
G1 X137.933 Y99.498 E7.54036
G1 X138.265 Y99.639 E7.55235
G1 X139.093 Y100.041 E7.58297
G1 X140.033 Y100.612 E7.61955
G1 X140.262 Y100.768 E7.62876
G1 X140.598 Y101.005 E7.64244
G1 X140.775 Y101.135 E7.64974
G1 X141.358 Y101.573 E7.674
G1 X142.069 Y102.158 E7.70462
G1 X142.727 Y102.802 E7.73524
G1 X143.327 Y103.5 E7.76586
G1 X143.864 Y104.248 E7.79648
G1 X144.416 Y105.198 E7.83303
G1 X144.703 Y105.756 E7.8539
G1 X145.977 Y108.152 E7.94415
G1 X147.217 Y110.336 E8.02769
G1 X148.009 Y111.657 E8.07891
G1 X148.516 Y112.487 E8.11126
G1 X148.962 Y113.293 E8.1419
G1 X149.426 Y114.371 E8.18094
G1 X149.572 Y114.777 E8.19529
G1 X149.674 Y115.077 E8.20583
G1 X149.766 Y115.363 E8.21582
G1 X149.958 Y115.985 E8.23747
G1 X150.192 Y116.875 E8.26808
G1 X150.346 Y117.783 E8.29871
G1 X150.422 Y118.7 E8.32931
G1 X150.418 Y119.621 E8.35994
G1 X150.334 Y120.538 E8.39057
G1 X150.17 Y121.444 E8.4212
G1 X149.886 Y122.463 E8.45638
G1 X149.751 Y122.858 E8.47026
G1 X149.618 Y123.227 E8.48331
G1 X149.524 Y123.479 E8.49225
G1 X149.26 Y124.157 E8.51645
G1 X148.889 Y125 E8.54709
G1 X148.446 Y125.807 E8.57771
G1 X147.935 Y126.573 E8.60833
G1 X147.359 Y127.291 E8.63895
G1 X146.723 Y127.957 E8.66958
G1 X146.136 Y128.481 E8.69575
G1 X145.62 Y128.906 E8.71798
G1 X144.312 Y129.956 E8.77377
G1 X142.375 Y131.603 E8.85834
G1 X140.51 Y133.283 E8.94182
G1 X138.684 Y135.023 E9.02571
G1 X137.727 Y135.984 E9.07082
G1 X136.673 Y137.015 E9.11986
G1 X135.867 Y137.781 E9.15684
G1 X135.38 Y138.23 E9.17888
G1 X134.677 Y138.824 E9.20949
G1 X133.925 Y139.355 E9.24011
G1 X133.215 Y139.773 E9.26751
G1 X132.229 Y140.303 E9.30474
G1 X131.786 Y140.549 E9.32159
G1 X131.037 Y140.933 E9.34959
G1 X130.019 Y141.388 E9.38668
G1 X128.45 Y141.994 E9.44262
G1 X126.856 Y142.626 E9.49965
G1 X125.814 Y143.057 E9.53715
G1 X125.636 Y143.122 E9.54346
G1 X124.477 Y143.596 E9.58511
G1 X123.61 Y143.907 E9.61574
G1 X122.72 Y144.142 E9.64636
G1 X121.813 Y144.299 E9.67697
G1 X120.645 Y144.384 E9.71592
G1 X119.779 Y144.399 E9.74473
G1 X116.69 Y144.504 E9.84753
G1 X116.211 Y144.522 E9.86347
G1 X115.316 Y144.538 E9.89325
G1 X114.983 Y144.539 E9.90432
G1 X114.542 Y144.533 E9.91899
G1 X113.623 Y144.481 E9.94961
G1 X112.597 Y144.326 E9.98412
G1 X111.703 Y144.107 E10.01473
G1 X110.8 Y143.798 E10.04647
G1 X110.334 Y143.615 E10.06313
G1 X108.789 Y142.993 E10.11852
G1 X106.502 Y142.037 E10.20097
G1 X105.627 Y141.673 E10.23249
G1 X104.573 Y141.243 E10.27035
G1 X103.842 Y140.95 E10.29654
G1 X103.003 Y140.571 E10.32716
G1 X102.297 Y140.179 E10.35402
G1 X100.385 Y139.022 E10.42835
G1 X100.072 Y138.842 E10.44036
G1 X99.063 Y138.249 E10.47929
G1 X98.534 Y137.932 E10.4998
G1 X97.885 Y137.531 E10.52517
G1 X97.124 Y137.013 E10.55579
G1 X96.687 Y136.67 E10.57427
G1 X96.355 Y136.389 E10.58873
G1 X95.946 Y136.027 E10.6069
G1 X95.636 Y135.747 E10.62079
G1 X95.175 Y135.32 E10.64169
G1 X94.544 Y134.683 E10.67151
G1 X93.999 Y134.085 E10.69842
G1 X93.778 Y133.836 E10.7095
G1 X93.334 Y133.317 E10.73222
G1 X92.767 Y132.592 E10.76283
G1 X92.264 Y131.82 E10.79347
G1 X91.754 Y130.846 E10.83004
G1 X91.576 Y130.454 E10.84436
G1 X90.702 Y128.455 E10.91692
G1 X89.631 Y126.181 E11.00053
G1 X89.478 Y125.872 E11.01199
G1 X89.233 Y125.36 E11.03087
G1 X88.766 Y124.216 E11.07197
G1 X88.557 Y123.605 E11.09345
G1 X88.454 Y123.29 E11.10447
G1 X88.299 Y122.786 E11.12201
G1 X88.067 Y121.895 E11.15263
G1 X87.913 Y120.987 E11.18326
G1 X87.839 Y120.07 E11.21386
G1 X87.839 Y119.261 E11.24077
G1 X87.886 Y118.053 E11.28098
G1 X87.884 Y118.009 E11.28244
G1 X87.966 Y114.493 E11.39942
G1 X87.968 Y114.208 E11.4089
G1 X88.013 Y113.289 E11.4395
G1 X88.138 Y112.376 E11.47015
G1 X88.415 Y111.22 E11.50969
G1 X88.518 Y110.886 E11.52131
G1 X88.673 Y110.408 E11.53803
G1 X88.755 Y110.167 E11.54649
G1 X88.979 Y109.529 E11.56898
G1 X89.321 Y108.674 E11.59961
G1 X89.736 Y107.852 E11.63024
G1 X90.221 Y107.07 E11.66084
G1 X90.772 Y106.332 E11.69148
G1 X91.385 Y105.645 E11.7221
G1 X92.056 Y105.014 E11.75273
G0 F6000 X92.692 Y105.009
G1 F1200 X92.994 Y104.776 E11.76542
G1 X93.276 Y104.566 E11.77712
G1 X93.47 Y104.425 E11.78509
G1 X94.009 Y104.043 E11.80707
G1 X94.749 Y103.565 E11.83637
G1 X96.022 Y102.819 E11.88544
G1 X96.244 Y102.691 E11.89396
G1 X98.981 Y101.011 E12.00078
G1 X99.394 Y100.747 E12.01708
G1 X100.176 Y100.296 E12.04711
G1 X100.995 Y99.915 E12.07715
G1 X102.271 Y99.485 E12.12193
G1 X102.73 Y99.364 E12.13772
G1 X105.233 Y98.669 E12.22412
G1 X107.668 Y97.918 E12.30887
G1 X110.079 Y97.099 E12.39357
G1 X112.465 Y96.214 E12.47821
G1 X113.04 Y95.992 E12.49871
G1 X113.897 Y95.704 E12.52878
G1 X114.775 Y95.494 E12.5588
G1 X115.668 Y95.362 E12.58883
G1 X116.423 Y95.313 E12.61399
G1 X116.744 Y95.304 E12.62467
G1 X117.03 Y95.3 E12.63419
G1 X117.493 Y95.3 E12.64959
G1 X118.343 Y95.311 E12.67786
G1 X119.244 Y95.364 E12.70788
G1 X120.138 Y95.496 E12.73794
G1 X120.899 Y95.674 E12.76393
G1 X121.45 Y95.825 E12.78293
G1 X123.919 Y96.467 E12.86778
G1 X126.447 Y97.049 E12.95406
G1 X128.903 Y97.541 E13.03737
G1 X131.435 Y97.974 E13.12281
G1 X131.789 Y98.025 E13.13471
G1 X132.99 Y98.214 E13.17514
G1 X133.875 Y98.394 E13.20518
G1 X134.74 Y98.651 E13.23519
G1 X135.205 Y98.825 E13.25171
G1 X136.576 Y99.376 E13.30085
G1 X137.781 Y99.869 E13.34415
G1 X138.106 Y100.007 E13.3559
G1 X138.919 Y100.401 E13.38595
G1 X139.808 Y100.942 E13.42056
G1 X140.037 Y101.098 E13.42978
G1 X140.364 Y101.33 E13.44311
G1 X140.535 Y101.455 E13.45016
G1 X141.118 Y101.893 E13.47441
G1 X141.815 Y102.467 E13.50444
G1 X142.459 Y103.1 E13.53447
G1 X143.044 Y103.788 E13.56451
G1 X143.566 Y104.525 E13.59455
G1 X144.061 Y105.381 E13.62744
G1 X144.403 Y106.046 E13.65231
G1 X145.61 Y108.316 E13.73782
G1 X146.865 Y110.526 E13.82235
G1 X147.686 Y111.897 E13.8755
G1 X148.175 Y112.696 E13.90666
G1 X148.612 Y113.486 E13.93668
G1 X149.051 Y114.509 E13.97371
G1 X149.193 Y114.906 E13.98773
G1 X149.295 Y115.206 E13.99827
G1 X149.384 Y115.481 E14.00789
G1 X149.576 Y116.103 E14.02954
G1 X149.804 Y116.976 E14.05955
G1 X149.954 Y117.867 E14.0896
G1 X150.024 Y118.767 E14.11962
G1 X150.015 Y119.67 E14.14966
G1 X149.925 Y120.569 E14.17971
G1 X149.757 Y121.456 E14.20974
G1 X149.507 Y122.337 E14.24019
G1 X149.375 Y122.723 E14.25376
G1 X149.242 Y123.092 E14.26681
G1 X149.151 Y123.334 E14.27541
G1 X148.887 Y124.012 E14.29961
G1 X148.522 Y124.838 E14.32964
G1 X148.086 Y125.629 E14.35968
G1 X147.581 Y126.378 E14.38973
G1 X147.013 Y127.08 E14.41976
G1 X146.384 Y127.728 E14.4498
G1 X145.881 Y128.173 E14.47214
G1 X145.369 Y128.594 E14.49418
G1 X144.065 Y129.641 E14.54981
G1 X142.131 Y131.285 E14.63423
G1 X140.212 Y133.014 E14.72014
G1 X138.407 Y134.734 E14.80307
G1 X137.447 Y135.698 E14.84832
G1 X136.397 Y136.725 E14.89717
G1 X135.596 Y137.487 E14.93394
G1 X135.109 Y137.936 E14.95597
G1 X134.419 Y138.518 E14.98599
G1 X133.679 Y139.037 E15.01606
G1 X133.025 Y139.421 E15.04128
G1 X131.777 Y140.092 E15.08841
G1 X131.603 Y140.193 E15.0951
G1 X130.854 Y140.577 E15.1231
G1 X129.875 Y141.015 E15.15877
G1 X128.303 Y141.622 E15.21482
G1 X126.68 Y142.266 E15.27289
G1 X125.661 Y142.687 E15.30956
G1 X125.491 Y142.749 E15.31558
G1 X124.325 Y143.226 E15.35748
G1 X123.475 Y143.53 E15.38751
G1 X122.601 Y143.759 E15.41756
G1 X121.711 Y143.909 E15.44758
G1 X120.638 Y143.984 E15.48335
G1 X119.76 Y143.999 E15.51256
G1 X116.725 Y144.102 E15.61356
G1 X116.518 Y144.112 E15.62045
G1 X116.204 Y144.122 E15.6309
G1 X115.309 Y144.138 E15.66067
G1 X114.988 Y144.139 E15.67135
G1 X114.547 Y144.133 E15.68602
G1 X113.646 Y144.081 E15.71604
G1 X112.676 Y143.934 E15.74867
G1 X111.799 Y143.718 E15.77871
G1 X110.946 Y143.426 E15.8087
G1 X110.483 Y143.243 E15.82525
G1 X108.944 Y142.624 E15.88043
G1 X106.74 Y141.702 E15.95989
G1 X105.778 Y141.303 E15.99453
G1 X104.722 Y140.872 E16.03246
G1 X103.991 Y140.579 E16.05866
G1 X103.169 Y140.206 E16.08868
G1 X102.504 Y139.837 E16.11397
G1 X100.58 Y138.672 E16.18878
G1 X100.275 Y138.497 E16.20048
G1 X99.269 Y137.906 E16.23929
G1 X98.745 Y137.591 E16.25962
G1 X98.096 Y137.19 E16.28499
G1 X97.349 Y136.682 E16.31504
G1 X96.943 Y136.362 E16.33223
G1 X96.62 Y136.088 E16.34632
G1 X96.213 Y135.73 E16.36435
G1 X95.908 Y135.453 E16.37805
G1 X95.447 Y135.026 E16.39895
G1 X94.839 Y134.414 E16.42765
G1 X94.294 Y133.816 E16.45456
G1 X94.082 Y133.576 E16.46521
G1 X93.638 Y133.057 E16.48792
G1 X93.082 Y132.345 E16.51797
G1 X92.591 Y131.587 E16.54801
G1 X92.118 Y130.679 E16.58206
