;FLAVOR:Marlin
M117 Time Left 0h27m51s
;TIME:1671
;Filament used: 1.13055m
;Layer height: 0.16
;MINX:94.5
;MINY:94.5
;MINZ:0.2
;MAXX:140.5
;MAXY:140.5
;MAXZ:13.88
;POSTPROCESSED
;Generated with Cura_SteamEngine 4.8.0
M140 S60
M105
M190 S60
M104 S205
M105
M109 S205
M82 ;absolute extrusion mode
; Ender 3 Custom Start G-code
G92 E0 ; Reset Extruder
G28 ; Home all axes
; ***SET NEW E STEP *** (93 is factory value - 95 mine - start)
G90                          ; Force coordinates to be absolute relative to the origin
M92 E95 ;					 ; ***SET NEW E STEP *** (93 is factory value - 95 mine - end)
G90                          ; Force coordinates to be absolute relative to the origin
G28                          ; Home X/Y/Z axis
G92 E0 ; Reset Extruder
G28 ; Home all axes
G1 Z2.0 F3000 ; Move Z Axis up little to prevent scratching of Heat Bed
G1 X0.1 Y20 Z0.3 F5000.0 ; Move to start position
G1 X0.1 Y200.0 Z0.3 F1500.0 E15 ; Draw the first line
G1 X0.4 Y200.0 Z0.3 F5000.0 ; Move to side a little
G1 X0.4 Y20 Z0.3 F1500.0 E30 ; Draw the second line
G92 E0 ; Reset Extruder
G1 Z2.0 F3000 ; Move Z Axis up little to prevent scratching of Heat Bed
G1 X5 Y20 Z0.3 F5000.0 ; Move over to prevent blob squish
G92 E0
G92 E0
G1 F2700 E-5
;LAYER_COUNT:71
;LAYER:0
M107
G0 F6000 X100.947 Y101.525 Z0.2
;TYPE:SKIRT
G1 F2700 E0
G1 F1200 X101.408 Y101.067 E0.02161
G1 X101.884 Y100.605 E0.04368
G1 X102.584 Y99.981 E0.07487
G1 X103.335 Y99.419 E0.10606
G1 X103.793 Y99.122 E0.12422
G1 X104.612 Y98.665 E0.15541
G1 X105.523 Y98.257 E0.18861
G1 X106.293 Y97.954 E0.21614
G1 X107.574 Y97.469 E0.26169
G1 X109.941 Y96.497 E0.3468
G1 X111.642 Y95.748 E0.40862
G1 X112.19 Y95.499 E0.42864
G1 X113.06 Y95.148 E0.45984
G1 X114.094 Y94.837 E0.49575
G1 X115.013 Y94.649 E0.52695
G1 X115.944 Y94.539 E0.55813
G1 X116.451 Y94.513 E0.57502
G1 X116.769 Y94.504 E0.5856
G1 X117.08 Y94.5 E0.59594
G1 X117.543 Y94.5 E0.61134
G1 X118.403 Y94.511 E0.63995
G1 X119.34 Y94.564 E0.67116
G1 X120.268 Y94.697 E0.70234
G1 X121.182 Y94.909 E0.73355
G1 X122.074 Y95.197 E0.76473
G1 X122.626 Y95.419 E0.78451
G1 X123.38 Y95.748 E0.81188
G1 X124.608 Y96.302 E0.85668
G1 X126.955 Y97.284 E0.9413
G1 X128.771 Y97.99 E1.00611
G1 X129.314 Y98.194 E1.0254
G1 X130.178 Y98.561 E1.05662
G1 X131.006 Y99 E1.08779
G1 X131.795 Y99.507 E1.11899
G1 X132.537 Y100.08 E1.15017
G1 X132.966 Y100.462 E1.16927
G1 X133.2 Y100.681 E1.17993
G1 X133.473 Y100.945 E1.19256
G1 X133.934 Y101.408 E1.21429
G1 X134.406 Y101.895 E1.23685
G1 X135.029 Y102.596 E1.26804
G1 X135.591 Y103.347 E1.29924
G1 X136.086 Y104.144 E1.33045
G1 X136.512 Y104.979 E1.36162
G1 X136.739 Y105.513 E1.38092
G1 X137.046 Y106.293 E1.4088
G1 X137.531 Y107.574 E1.45436
G1 X138.502 Y109.939 E1.53939
G1 X139.269 Y111.681 E1.6027
G1 X139.51 Y112.214 E1.62216
G1 X139.86 Y113.085 E1.65338
G1 X140.228 Y114.371 E1.69787
G1 X140.392 Y115.294 E1.72905
G1 X140.485 Y116.417 E1.76652
G1 X140.495 Y116.74 E1.77727
G1 X140.5 Y117.08 E1.78858
G1 X140.499 Y117.676 E1.80841
G1 X140.489 Y118.4 E1.83249
G1 X140.436 Y119.336 E1.86367
G1 X140.304 Y120.265 E1.89488
G1 X140.092 Y121.179 E1.92609
G1 X139.804 Y122.071 E1.95726
G1 X139.578 Y122.634 E1.97744
G1 X139.245 Y123.397 E2.00513
G1 X138.692 Y124.622 E2.04983
G1 X137.724 Y126.938 E2.13332
G1 X136.982 Y128.846 E2.20141
G1 X136.8 Y129.33 E2.21861
G1 X136.432 Y130.192 E2.24978
G1 X135.992 Y131.021 E2.281
G1 X135.483 Y131.808 E2.31217
G1 X134.909 Y132.55 E2.34337
G1 X134.538 Y132.966 E2.36191
G1 X134.319 Y133.2 E2.37257
G1 X134.066 Y133.462 E2.38468
G1 X133.62 Y133.906 E2.40562
G1 X133.123 Y134.389 E2.42867
G1 X132.423 Y135.014 E2.45988
G1 X131.673 Y135.576 E2.49105
G1 X131.101 Y135.942 E2.51364
G1 X130.277 Y136.39 E2.54483
G1 X129.477 Y136.743 E2.57391
G1 X128.707 Y137.046 E2.60144
G1 X127.426 Y137.531 E2.64699
G1 X125.059 Y138.503 E2.7321
G1 X123.376 Y139.244 E2.79326
G1 X122.81 Y139.501 E2.81394
G1 X121.94 Y139.852 E2.84514
G1 X120.906 Y140.163 E2.88105
G1 X119.987 Y140.351 E2.91225
G1 X119.056 Y140.461 E2.94343
G1 X118.549 Y140.487 E2.96032
G1 X118.231 Y140.496 E2.9709
G1 X117.92 Y140.5 E2.98124
G1 X117.301 Y140.499 E3.00183
G1 X116.597 Y140.489 E3.02525
G1 X115.66 Y140.436 E3.05646
G1 X114.732 Y140.303 E3.08764
G1 X113.818 Y140.091 E3.11885
G1 X112.926 Y139.803 E3.15003
G1 X112.373 Y139.58 E3.16986
G1 X111.603 Y139.245 E3.19779
G1 X110.378 Y138.692 E3.24249
G1 X108.045 Y137.716 E3.3266
G1 X106.229 Y137.01 E3.39141
G1 X105.686 Y136.806 E3.4107
G1 X104.822 Y136.439 E3.44192
G1 X103.994 Y136 E3.47309
G1 X103.205 Y135.493 E3.50429
G1 X102.463 Y134.92 E3.53547
G1 X102.039 Y134.544 E3.55432
G1 X101.81 Y134.33 E3.56474
G1 X101.532 Y134.061 E3.57761
G1 X101.167 Y133.695 E3.5948
G1 X100.604 Y133.115 E3.62168
G1 X99.98 Y132.415 E3.65287
G1 X99.418 Y131.664 E3.68407
G1 X99.057 Y131.099 E3.70637
G1 X98.609 Y130.275 E3.73757
G1 X98.255 Y129.472 E3.76675
G1 X97.954 Y128.707 E3.7941
G1 X97.469 Y127.426 E3.83965
G1 X96.498 Y125.061 E3.92469
G1 X95.728 Y123.313 E3.98822
G1 X95.489 Y122.784 E4.00752
G1 X95.139 Y121.914 E4.03871
G1 X94.864 Y121.017 E4.06992
G1 X94.667 Y120.1 E4.10111
G1 X94.549 Y119.17 E4.13229
G1 X94.515 Y118.583 E4.15185
G1 X94.505 Y118.255 E4.16276
G1 X94.5 Y117.92 E4.17391
G1 X94.501 Y117.286 E4.19499
G1 X94.512 Y116.577 E4.21858
G1 X94.567 Y115.641 E4.24976
G1 X94.701 Y114.713 E4.28095
G1 X94.914 Y113.799 E4.31216
G1 X95.203 Y112.907 E4.34335
G1 X95.428 Y112.352 E4.36327
G1 X95.755 Y111.603 E4.39045
G1 X96.308 Y110.378 E4.43515
G1 X97.284 Y108.045 E4.51927
G1 X97.999 Y106.207 E4.58486
G1 X98.199 Y105.675 E4.60377
G1 X98.566 Y104.812 E4.63496
G1 X99.006 Y103.984 E4.66614
G1 X99.514 Y103.196 E4.69733
G1 X100.088 Y102.454 E4.72853
G1 X100.464 Y102.031 E4.74735
G1 X100.684 Y101.796 E4.75806
G1 X100.947 Y101.525 E4.77062
G0 F6000 X101.229 Y101.808
G1 F1200 X101.686 Y101.354 E4.79204
G1 X102.162 Y100.892 E4.81411
G1 X102.85 Y100.28 E4.84473
G1 X103.589 Y99.73 E4.87537
G1 X104.003 Y99.462 E4.89177
G1 X104.807 Y99.014 E4.92239
G1 X105.67 Y98.629 E4.95382
G1 X106.435 Y98.328 E4.98116
G1 X107.719 Y97.842 E5.02682
G1 X110.092 Y96.868 E5.11214
G1 X111.821 Y96.106 E5.17498
G1 X112.356 Y95.863 E5.19453
G1 X113.21 Y95.519 E5.22515
G1 X114.191 Y95.225 E5.25921
G1 X115.093 Y95.041 E5.28983
G1 X116.462 Y94.913 E5.33556
G1 X116.78 Y94.904 E5.34614
G1 X117.08 Y94.9 E5.35612
G1 X117.543 Y94.9 E5.37152
G1 X118.398 Y94.911 E5.39996
G1 X119.317 Y94.964 E5.43058
G1 X120.228 Y95.097 E5.4612
G1 X121.124 Y95.308 E5.49181
G1 X121.998 Y95.596 E5.52242
G1 X122.467 Y95.786 E5.53925
G1 X123.215 Y96.112 E5.56639
G1 X124.455 Y96.672 E5.61164
G1 X126.818 Y97.66 E5.69683
G1 X128.635 Y98.367 E5.76168
G1 X129.174 Y98.569 E5.78082
G1 X130.021 Y98.929 E5.81143
G1 X130.834 Y99.362 E5.84207
G1 X131.606 Y99.863 E5.87268
G1 X132.331 Y100.43 E5.90329
G1 X132.693 Y100.754 E5.91945
G1 X132.927 Y100.973 E5.93011
G1 X133.19 Y101.227 E5.94227
G1 X133.647 Y101.687 E5.96384
G1 X134.119 Y102.174 E5.98639
G1 X134.73 Y102.862 E6.017
G1 X135.279 Y103.601 E6.04762
G1 X135.763 Y104.385 E6.07826
G1 X136.176 Y105.207 E6.10886
G1 X136.367 Y105.66 E6.12521
G1 X136.672 Y106.435 E6.15291
G1 X137.158 Y107.719 E6.19857
G1 X138.131 Y110.089 E6.28379
G1 X138.885 Y111.802 E6.34603
G1 X139.146 Y112.379 E6.3671
G1 X139.489 Y113.234 E6.39774
G1 X139.838 Y114.458 E6.44007
G1 X139.998 Y115.364 E6.47067
G1 X140.085 Y116.429 E6.50621
G1 X140.095 Y116.752 E6.51696
G1 X140.1 Y117.08 E6.52787
G1 X140.099 Y117.67 E6.54749
G1 X140.089 Y118.394 E6.57158
G1 X140.036 Y119.314 E6.60223
G1 X139.904 Y120.225 E6.63284
G1 X139.693 Y121.121 E6.66346
G1 X139.406 Y121.995 E6.69406
G1 X139.211 Y122.474 E6.71126
G1 X138.88 Y123.233 E6.7388
G1 X138.329 Y124.453 E6.78332
G1 X137.347 Y126.801 E6.86797
G1 X136.64 Y128.622 E6.93294
G1 X136.426 Y129.189 E6.9531
G1 X136.064 Y130.035 E6.9837
G1 X135.63 Y130.847 E7.01433
G1 X135.127 Y131.618 E7.04495
G1 X134.56 Y132.343 E7.07556
G1 X134.246 Y132.693 E7.0912
G1 X134.027 Y132.927 E7.10186
G1 X133.783 Y133.179 E7.11352
G1 X133.342 Y133.62 E7.13427
G1 X132.845 Y134.103 E7.15732
G1 X132.157 Y134.715 E7.18794
G1 X131.419 Y135.265 E7.21856
G1 X130.896 Y135.599 E7.2392
G1 X130.086 Y136.038 E7.26984
G1 X129.33 Y136.371 E7.29732
G1 X128.565 Y136.672 E7.32466
G1 X127.281 Y137.158 E7.37032
G1 X124.908 Y138.132 E7.45564
G1 X123.179 Y138.894 E7.51848
G1 X122.644 Y139.137 E7.53802
G1 X121.79 Y139.481 E7.56865
G1 X120.809 Y139.775 E7.60271
G1 X119.907 Y139.959 E7.63333
G1 X118.538 Y140.087 E7.67906
G1 X118.22 Y140.096 E7.68964
G1 X117.92 Y140.1 E7.69962
G1 X117.306 Y140.099 E7.72004
G1 X116.602 Y140.089 E7.74346
G1 X115.683 Y140.036 E7.77407
G1 X114.772 Y139.903 E7.8047
G1 X113.876 Y139.692 E7.83531
G1 X113.002 Y139.404 E7.86592
G1 X112.532 Y139.213 E7.88279
G1 X111.767 Y138.88 E7.91054
G1 X110.547 Y138.329 E7.95507
G1 X108.182 Y137.34 E8.04033
G1 X106.365 Y136.633 E8.10518
G1 X105.826 Y136.431 E8.12432
G1 X104.979 Y136.071 E8.15493
G1 X104.166 Y135.638 E8.18557
G1 X103.394 Y135.137 E8.21618
G1 X102.669 Y134.57 E8.24679
G1 X102.313 Y134.252 E8.26267
G1 X102.084 Y134.038 E8.27309
G1 X101.815 Y133.778 E8.28553
G1 X101.349 Y133.309 E8.30752
G1 X100.891 Y132.837 E8.3294
G1 X100.279 Y132.149 E8.36002
G1 X99.729 Y131.41 E8.39066
G1 X99.4 Y130.894 E8.41102
G1 X98.961 Y130.084 E8.44166
G1 X98.627 Y129.325 E8.46924
G1 X98.328 Y128.565 E8.4964
G1 X97.842 Y127.281 E8.54207
G1 X96.869 Y124.911 E8.62728
G1 X96.116 Y123.2 E8.68945
G1 X95.853 Y122.619 E8.71067
G1 X95.51 Y121.765 E8.74128
G1 X95.243 Y120.884 E8.77189
G1 X95.053 Y119.983 E8.80252
G1 X94.942 Y119.069 E8.83314
G1 X94.915 Y118.571 E8.84973
G1 X94.905 Y118.243 E8.86065
G1 X94.9 Y117.92 E8.87139
G1 X94.901 Y117.293 E8.89224
G1 X94.912 Y116.584 E8.91583
G1 X94.967 Y115.665 E8.94645
G1 X95.1 Y114.754 E8.97707
G1 X95.313 Y113.858 E9.0077
G1 X95.602 Y112.984 E9.03832
G1 X95.794 Y112.512 E9.05527
G1 X96.12 Y111.767 E9.08231
G1 X96.671 Y110.547 E9.12684
G1 X97.66 Y108.182 E9.2121
G1 X98.357 Y106.391 E9.27602
G1 X98.573 Y105.816 E9.29645
G1 X98.934 Y104.969 E9.32707
G1 X99.368 Y104.157 E9.3577
G1 X99.87 Y103.385 E9.38832
G1 X100.437 Y102.66 E9.41894
G1 X100.756 Y102.305 E9.43481
G1 X100.976 Y102.07 E9.44552
G1 X101.229 Y101.808 E9.45763
G0 F6000 X101.512 Y102.091
G1 F1200 X101.965 Y101.641 E9.47887
G1 X102.441 Y101.179 E9.50093
G1 X103.116 Y100.579 E9.53097
G1 X104.212 Y99.803 E9.57563
G1 X105.002 Y99.364 E9.60569
G1 X105.817 Y99.001 E9.63537
G1 X106.576 Y98.702 E9.6625
G1 X107.876 Y98.21 E9.70873
G1 X110.243 Y97.238 E9.79384
G1 X112.059 Y96.438 E9.85984
G1 X112.521 Y96.228 E9.87672
G1 X113.359 Y95.891 E9.90676
G1 X114.288 Y95.614 E9.939
G1 X115.173 Y95.434 E9.96904
G1 X116.473 Y95.313 E10.01247
G1 X116.791 Y95.304 E10.02305
G1 X117.08 Y95.3 E10.03266
G1 X117.543 Y95.3 E10.04806
G1 X118.392 Y95.311 E10.0763
G1 X119.293 Y95.364 E10.10632
G1 X120.187 Y95.496 E10.13638
G1 X121.065 Y95.707 E10.16641
G1 X122.308 Y96.153 E10.21033
G1 X123.051 Y96.477 E10.23729
G1 X124.286 Y97.034 E10.28235
G1 X126.647 Y98.022 E10.36748
G1 X128.526 Y98.753 E10.43454
G1 X129.033 Y98.943 E10.45254
G1 X129.864 Y99.297 E10.48259
G1 X130.66 Y99.724 E10.51263
G1 X131.415 Y100.219 E10.54266
G1 X132.42 Y101.046 E10.58595
G1 X132.654 Y101.265 E10.59661
G1 X132.907 Y101.51 E10.60832
G1 X133.359 Y101.965 E10.62965
G1 X133.831 Y102.452 E10.65221
G1 X134.431 Y103.128 E10.68227
G1 X134.968 Y103.854 E10.71231
G1 X135.438 Y104.625 E10.74234
G1 X135.995 Y105.807 E10.7858
G1 X136.298 Y106.576 E10.81329
G1 X136.79 Y107.876 E10.85952
G1 X137.761 Y110.24 E10.94452
G1 X138.56 Y112.054 E11.01045
G1 X138.781 Y112.544 E11.02833
G1 X139.117 Y113.383 E11.05839
G1 X139.447 Y114.544 E11.09853
G1 X139.604 Y115.434 E11.12859
G1 X139.685 Y116.441 E11.16219
G1 X139.695 Y116.764 E11.17294
G1 X139.7 Y117.08 E11.18345
G1 X139.699 Y117.665 E11.20291
G1 X139.689 Y118.389 E11.22699
G1 X139.637 Y119.29 E11.25701
G1 X139.505 Y120.184 E11.28707
G1 X139.294 Y121.062 E11.3171
G1 X138.844 Y122.315 E11.36138
G1 X138.516 Y123.068 E11.3887
G1 X137.96 Y124.3 E11.43365
G1 X136.971 Y126.664 E11.51888
G1 X136.274 Y128.458 E11.5829
G1 X136.052 Y129.047 E11.60383
G1 X135.696 Y129.878 E11.6339
G1 X135.268 Y130.673 E11.66393
G1 X134.772 Y131.428 E11.69398
G1 X133.954 Y132.42 E11.73674
G1 X133.735 Y132.654 E11.7474
G1 X133.5 Y132.896 E11.75862
G1 X133.063 Y133.333 E11.77918
G1 X132.566 Y133.816 E11.80223
G1 X131.891 Y134.416 E11.83227
G1 X131.166 Y134.954 E11.86229
G1 X130.69 Y135.256 E11.88104
G1 X129.896 Y135.686 E11.91108
G1 X129.183 Y135.999 E11.93697
G1 X128.424 Y136.298 E11.96411
G1 X127.124 Y136.79 E12.01034
G1 X124.757 Y137.762 E12.09544
G1 X122.941 Y138.562 E12.16145
G1 X122.479 Y138.772 E12.17832
G1 X121.641 Y139.109 E12.20837
G1 X120.712 Y139.386 E12.24061
G1 X119.827 Y139.566 E12.27065
G1 X118.527 Y139.687 E12.31407
G1 X118.209 Y139.696 E12.32465
G1 X117.92 Y139.7 E12.33427
G1 X117.312 Y139.699 E12.35449
G1 X116.608 Y139.689 E12.37791
G1 X115.707 Y139.636 E12.40792
G1 X114.813 Y139.504 E12.43798
G1 X113.935 Y139.293 E12.46802
G1 X112.691 Y138.847 E12.51197
G1 X111.932 Y138.516 E12.53951
G1 X110.7 Y137.96 E12.58447
G1 X108.353 Y136.978 E12.66909
G1 X106.474 Y136.247 E12.73614
G1 X105.967 Y136.057 E12.75415
G1 X105.136 Y135.703 E12.78419
G1 X104.34 Y135.276 E12.81424
G1 X103.585 Y134.781 E12.84427
G1 X102.586 Y133.959 E12.88729
G1 X102.357 Y133.745 E12.89772
G1 X102.099 Y133.496 E12.90965
G1 X101.636 Y133.03 E12.93149
G1 X101.178 Y132.558 E12.95337
G1 X100.578 Y131.883 E12.98341
G1 X100.041 Y131.157 E13.01344
G1 X99.743 Y130.688 E13.03192
G1 X99.313 Y129.894 E13.06196
G1 X98.999 Y129.179 E13.08793
G1 X98.702 Y128.424 E13.11491
G1 X98.21 Y127.124 E13.16114
G1 X97.239 Y124.76 E13.24615
G1 X96.438 Y122.94 E13.31228
G1 X96.218 Y122.454 E13.33003
G1 X95.882 Y121.616 E13.36005
G1 X95.622 Y120.751 E13.3901
G1 X95.439 Y119.867 E13.42012
G1 X95.315 Y118.559 E13.46382
G1 X95.305 Y118.231 E13.47474
G1 X95.3 Y117.92 E13.48508
G1 X95.301 Y117.299 E13.50573
G1 X95.312 Y116.59 E13.52932
G1 X95.366 Y115.688 E13.55937
G1 X95.5 Y114.795 E13.58941
G1 X95.712 Y113.917 E13.61945
G1 X96.161 Y112.672 E13.66347
G1 X96.484 Y111.932 E13.69032
G1 X97.04 Y110.7 E13.73528
G1 X98.022 Y108.353 E13.8199
G1 X98.744 Y106.497 E13.88614
G1 X98.947 Y105.957 E13.90532
G1 X99.303 Y105.127 E13.93536
G1 X99.73 Y104.331 E13.96541
G1 X100.226 Y103.576 E13.99545
G1 X101.048 Y102.578 E14.03845
G1 X101.268 Y102.343 E14.04916
G1 X101.512 Y102.091 E14.06083
G1 F2700 E9.06083
;MESH:base_para_rosca_microfono.stl
G0 F6000 X116.306 Y116.924
G0 X114.703 Y115.977
G0 X115.304 Y118.562
G0 X115.712 Y119.142
G0 X115.949 Y119.377
G0 X118.028 Y120.451
;TYPE:WALL-INNER
G1 F2700 E14.06083
G1 F1200 X118.879 Y120.156 E14.09078
G1 X119.26 Y119.927 E14.10557
G1 X119.859 Y119.343 E14.13339
G1 X120.1 Y118.994 E14.1475
G1 X120.404 Y118.229 E14.17488
G1 X120.479 Y117.821 E14.18868
G1 X120.459 Y117.019 E14.21536
G1 X120.358 Y116.609 E14.2294
G1 X119.996 Y115.841 E14.25764
G1 X119.738 Y115.508 E14.27165
G1 X119.132 Y114.987 E14.29823
G1 X118.755 Y114.781 E14.31252
G1 X117.941 Y114.539 E14.34077
G1 X117.496 Y114.503 E14.35562
G1 X116.688 Y114.616 E14.38275
G1 X116.28 Y114.764 E14.39719
G1 X115.606 Y115.178 E14.4235
G1 X115.305 Y115.461 E14.43724
G1 X114.867 Y116.074 E14.4623
G1 X114.683 Y116.458 E14.47646
G1 X114.543 Y117.128 E14.49922
G1 X114.485 Y117.53 E14.51273
G1 X114.653 Y118.345 E14.54041
G1 X114.793 Y118.81 E14.55656
G1 X115.281 Y119.505 E14.58481
G1 X115.604 Y119.824 E14.59991
G1 X116.344 Y120.261 E14.62849
G1 X116.757 Y120.404 E14.64303
G1 X117.586 Y120.493 E14.67076
G1 X118.028 Y120.451 E14.68553
G0 F6000 X117.942 Y120.057
G1 F1200 X118.709 Y119.792 E14.71252
G1 X119.014 Y119.608 E14.72436
G1 X119.552 Y119.084 E14.74934
G1 X119.745 Y118.804 E14.76065
G1 X120.018 Y118.118 E14.78521
G1 X120.078 Y117.79 E14.7963
G1 X120.06 Y117.072 E14.82019
G1 X119.979 Y116.743 E14.83146
G1 X119.653 Y116.051 E14.8569
G1 X119.447 Y115.785 E14.86809
G1 X118.903 Y115.318 E14.89194
G1 X118.6 Y115.152 E14.90343
G1 X117.867 Y114.934 E14.92886
G1 X117.508 Y114.905 E14.94084
G1 X116.785 Y115.006 E14.96512
G1 X116.455 Y115.126 E14.9768
G1 X115.85 Y115.497 E15.00041
