;FLAVOR:Marlin
M117 Time Left 0h29m09s
;TIME:1749
;Filament used: 1.04537m
;Layer height: 0.16
;MINX:94.802
;MINY:94.802
;MINZ:0.2
;MAXX:140.198
;MAXY:140.198
;MAXZ:13.88
;POSTPROCESSED
;Generated with Cura_SteamEngine 4.8.0
M140 S60
M105
M190 S60
M104 S205
M105
M109 S205
M82 ;absolute extrusion mode
; Ender 3 Custom Start G-code
G92 E0 ; Reset Extruder
G28 ; Home all axes
; ***SET NEW E STEP *** (93 is factory value - 95 mine - start)
G90                          ; Force coordinates to be absolute relative to the origin
M92 E95 ;					 ; ***SET NEW E STEP *** (93 is factory value - 95 mine - end)
G90                          ; Force coordinates to be absolute relative to the origin
G28                          ; Home X/Y/Z axis
G92 E0 ; Reset Extruder
G28 ; Home all axes
G1 Z2.0 F3000 ; Move Z Axis up little to prevent scratching of Heat Bed
G1 X0.1 Y20 Z0.3 F5000.0 ; Move to start position
G1 X0.1 Y200.0 Z0.3 F1500.0 E15 ; Draw the first line
G1 X0.4 Y200.0 Z0.3 F5000.0 ; Move to side a little
G1 X0.4 Y20 Z0.3 F1500.0 E30 ; Draw the second line
G92 E0 ; Reset Extruder
G1 Z2.0 F3000 ; Move Z Axis up little to prevent scratching of Heat Bed
G1 X5 Y20 Z0.3 F5000.0 ; Move over to prevent blob squish
G92 E0
G92 E0
G1 F2700 E-5
;LAYER_COUNT:71
;LAYER:0
M107
G0 F6000 X101.454 Y101.445 Z0.2
;TYPE:SKIRT
G1 F2700 E0
G1 F1200 X101.894 Y101.019 E0.02037
G1 X102.595 Y100.396 E0.05156
G1 X103.346 Y99.835 E0.08274
G1 X103.793 Y99.546 E0.10044
G1 X104.612 Y99.089 E0.13164
G1 X105.512 Y98.685 E0.16445
G1 X106.172 Y98.425 E0.18804
G1 X107.677 Y97.857 E0.24155
G1 X110.028 Y96.893 E0.32606
G1 X111.837 Y96.097 E0.39179
G1 X112.49 Y95.8 E0.41565
G1 X113.36 Y95.448 E0.44687
G1 X114.285 Y95.165 E0.47904
G1 X115.202 Y94.967 E0.51024
G1 X116.132 Y94.848 E0.54143
G1 X116.741 Y94.814 E0.56172
G1 X117.015 Y94.806 E0.57083
G1 X117.498 Y94.802 E0.5869
G1 X118.109 Y94.811 E0.60722
G1 X119.045 Y94.865 E0.63841
G1 X119.974 Y94.998 E0.66962
G1 X120.887 Y95.21 E0.70079
G1 X121.78 Y95.499 E0.73201
G1 X122.324 Y95.718 E0.75152
G1 X122.938 Y95.986 E0.7738
G1 X124.46 Y96.673 E0.82934
G1 X126.801 Y97.65 E0.91371
G1 X128.541 Y98.327 E0.97581
G1 X129.31 Y98.616 E1.00313
G1 X130.173 Y98.983 E1.03432
G1 X131.034 Y99.442 E1.06677
G1 X131.822 Y99.951 E1.09798
G1 X132.563 Y100.526 E1.12917
G1 X132.994 Y100.91 E1.14837
G1 X133.196 Y101.1 E1.15759
G1 X133.562 Y101.462 E1.17472
G1 X133.986 Y101.9 E1.19499
G1 X134.609 Y102.601 E1.22618
G1 X135.17 Y103.353 E1.25739
G1 X135.665 Y104.149 E1.28857
G1 X136.091 Y104.985 E1.31977
G1 X136.31 Y105.501 E1.33842
G1 X136.575 Y106.172 E1.36241
G1 X137.143 Y107.677 E1.41591
G1 X138.107 Y110.028 E1.50043
G1 X138.903 Y111.835 E1.5661
G1 X139.209 Y112.512 E1.59081
G1 X139.559 Y113.382 E1.622
G1 X139.928 Y114.671 E1.6666
G1 X140.092 Y115.594 E1.69778
G1 X140.184 Y116.702 E1.73476
G1 X140.193 Y116.981 E1.74404
G1 X140.198 Y117.498 E1.76124
G1 X140.189 Y118.11 E1.78159
G1 X140.135 Y119.046 E1.81278
G1 X140.002 Y119.974 E1.84396
G1 X139.79 Y120.888 E1.87516
G1 X139.501 Y121.78 E1.90635
G1 X139.278 Y122.332 E1.92615
G1 X139.022 Y122.921 E1.94751
G1 X138.321 Y124.476 E2.00424
G1 X137.35 Y126.801 E2.08805
G1 X136.675 Y128.536 E2.14997
G1 X136.383 Y129.314 E2.17761
G1 X136.016 Y130.177 E2.2088
G1 X135.577 Y131.006 E2.24
G1 X135.069 Y131.795 E2.27121
G1 X134.496 Y132.537 E2.30239
G1 X134.087 Y132.995 E2.32281
G1 X133.889 Y133.205 E2.33241
G1 X133.563 Y133.537 E2.34789
G1 X133.13 Y133.959 E2.368
G1 X132.432 Y134.584 E2.39916
G1 X131.682 Y135.148 E2.43037
G1 X130.887 Y135.645 E2.46155
G1 X130.052 Y136.073 E2.49276
G1 X129.511 Y136.305 E2.51234
G1 X128.828 Y136.575 E2.53677
G1 X127.323 Y137.143 E2.59027
G1 X124.972 Y138.107 E2.67478
G1 X123.163 Y138.903 E2.74052
G1 X122.51 Y139.2 E2.76438
G1 X121.64 Y139.552 E2.79559
G1 X120.715 Y139.835 E2.82777
G1 X119.798 Y140.033 E2.85897
G1 X118.868 Y140.152 E2.89015
G1 X118.259 Y140.186 E2.91044
G1 X117.985 Y140.194 E2.91956
G1 X117.5 Y140.198 E2.93569
G1 X116.895 Y140.189 E2.95581
G1 X115.959 Y140.135 E2.987
G1 X114.887 Y139.973 E3.02306
G1 X113.976 Y139.75 E3.05425
G1 X113.087 Y139.451 E3.08545
G1 X112.65 Y139.271 E3.10117
G1 X112.058 Y139.012 E3.12266
G1 X110.602 Y138.355 E3.17579
G1 X108.25 Y137.37 E3.2606
G1 X106.311 Y136.614 E3.32982
G1 X105.715 Y136.392 E3.35097
G1 X104.85 Y136.028 E3.38219
G1 X104.02 Y135.591 E3.41338
G1 X103.23 Y135.086 E3.44457
G1 X102.487 Y134.515 E3.47574
G1 X102.055 Y134.134 E3.49489
G1 X101.852 Y133.945 E3.50412
G1 X101.455 Y133.555 E3.52263
G1 X101.025 Y133.112 E3.54316
G1 X100.401 Y132.412 E3.57435
G1 X99.839 Y131.661 E3.60555
G1 X99.343 Y130.866 E3.63672
G1 X98.916 Y130.03 E3.66794
G1 X98.69 Y129.498 E3.68716
G1 X98.424 Y128.823 E3.71129
G1 X97.865 Y127.342 E3.76395
G1 X96.893 Y124.972 E3.84914
G1 X96.075 Y123.114 E3.91666
G1 X95.785 Y122.473 E3.94007
G1 X95.435 Y121.603 E3.97126
G1 X95.161 Y120.706 E4.00245
G1 X94.965 Y119.789 E4.03364
G1 X94.847 Y118.858 E4.06485
G1 X94.813 Y118.258 E4.08484
G1 X94.805 Y117.978 E4.09416
G1 X94.802 Y117.485 E4.11055
G1 X94.812 Y116.869 E4.13105
G1 X94.868 Y115.933 E4.16223
G1 X95.002 Y115.005 E4.19342
G1 X95.216 Y114.092 E4.22461
G1 X95.506 Y113.2 E4.2558
G1 X95.727 Y112.653 E4.27543
G1 X95.99 Y112.051 E4.29728
G1 X96.657 Y110.575 E4.35115
G1 X97.63 Y108.25 E4.43498
G1 X98.367 Y106.361 E4.50242
G1 X98.605 Y105.72 E4.52516
G1 X98.969 Y104.856 E4.55634
G1 X99.406 Y104.025 E4.58757
G1 X100.128 Y102.937 E4.631
G1 X100.899 Y102.018 E4.6709
G1 X101.076 Y101.829 E4.67951
G1 X101.454 Y101.445 E4.69743
G0 F6000 X101.732 Y101.732
G1 F1200 X102.172 Y101.306 E4.7178
G1 X102.86 Y100.695 E4.74841
G1 X103.599 Y100.146 E4.77903
G1 X104.003 Y99.886 E4.795
G1 X104.807 Y99.438 E4.82562
G1 X105.659 Y99.057 E4.85666
G1 X106.157 Y98.86 E4.87447
G1 X107.792 Y98.242 E4.93261
G1 X110.179 Y97.264 E5.0184
G1 X112.017 Y96.454 E5.08521
G1 X112.656 Y96.164 E5.10855
G1 X113.51 Y95.82 E5.13917
G1 X114.386 Y95.552 E5.16964
G1 X115.286 Y95.359 E5.20025
G1 X116.2 Y95.244 E5.23089
G1 X116.753 Y95.214 E5.24931
G1 X117.027 Y95.206 E5.25843
G1 X117.492 Y95.202 E5.2739
G1 X118.103 Y95.211 E5.29422
G1 X119.022 Y95.265 E5.32484
G1 X119.933 Y95.398 E5.35546
G1 X120.829 Y95.609 E5.38608
G1 X121.703 Y95.898 E5.4167
G1 X122.165 Y96.085 E5.43327
G1 X122.773 Y96.35 E5.45533
G1 X124.308 Y97.042 E5.51133
G1 X126.629 Y98.012 E5.595
G1 X128.502 Y98.74 E5.66184
G1 X129.169 Y98.991 E5.68554
G1 X130.016 Y99.352 E5.71616
G1 X130.831 Y99.786 E5.74688
G1 X131.604 Y100.287 E5.77751
G1 X132.33 Y100.853 E5.80813
G1 X132.719 Y101.202 E5.82551
G1 X132.921 Y101.392 E5.83474
G1 X133.275 Y101.74 E5.85125
G1 X133.699 Y102.178 E5.87152
G1 X134.31 Y102.867 E5.90215
G1 X134.859 Y103.606 E5.93277
G1 X135.342 Y104.39 E5.9634
G1 X135.755 Y105.213 E5.99403
G1 X135.938 Y105.648 E6.00972
G1 X136.2 Y106.314 E6.03353
G1 X136.758 Y107.792 E6.08607
G1 X137.736 Y110.179 E6.17187
G1 X138.515 Y111.948 E6.23616
G1 X138.845 Y112.677 E6.26277
G1 X139.188 Y113.531 E6.29338
G1 X139.538 Y114.758 E6.33582
G1 X139.698 Y115.664 E6.36642
G1 X139.784 Y116.715 E6.40149
G1 X139.793 Y116.994 E6.41078
G1 X139.798 Y117.492 E6.42734
G1 X139.789 Y118.104 E6.4477
G1 X139.735 Y119.023 E6.47832
G1 X139.602 Y119.934 E6.50894
G1 X139.391 Y120.83 E6.53956
G1 X139.102 Y121.704 E6.57017
G1 X138.912 Y122.173 E6.587
G1 X138.657 Y122.756 E6.60817
G1 X137.964 Y124.294 E6.66427
G1 X136.988 Y126.629 E6.74845
G1 X136.275 Y128.462 E6.81386
G1 X136.008 Y129.174 E6.83916
G1 X135.647 Y130.021 E6.86978
G1 X135.215 Y130.833 E6.90037
G1 X134.713 Y131.605 E6.931
G1 X134.146 Y132.331 E6.96164
G1 X133.796 Y132.721 E6.97907
G1 X133.598 Y132.931 E6.98867
G1 X133.284 Y133.25 E7.00355
G1 X132.851 Y133.672 E7.02366
G1 X132.165 Y134.285 E7.05426
G1 X131.427 Y134.837 E7.08491
G1 X130.645 Y135.322 E7.11552
G1 X129.824 Y135.738 E7.14613
G1 X129.363 Y135.933 E7.16278
G1 X128.686 Y136.2 E7.18699
G1 X127.208 Y136.758 E7.23953
G1 X124.821 Y137.736 E7.32533
G1 X122.983 Y138.546 E7.39213
G1 X122.344 Y138.836 E7.41547
G1 X121.49 Y139.18 E7.44609
G1 X120.614 Y139.448 E7.47656
G1 X119.714 Y139.641 E7.50718
G1 X118.8 Y139.756 E7.53782
G1 X118.247 Y139.786 E7.55624
G1 X117.973 Y139.794 E7.56535
G1 X117.506 Y139.798 E7.58089
G1 X116.901 Y139.789 E7.60101
G1 X115.982 Y139.735 E7.63163
G1 X114.965 Y139.581 E7.66584
G1 X114.071 Y139.362 E7.69646
G1 X112.81 Y138.905 E7.74107
G1 X112.222 Y138.648 E7.76241
G1 X110.742 Y137.98 E7.81642
G1 X108.387 Y136.994 E7.90133
G1 X106.469 Y136.246 E7.9698
G1 X105.854 Y136.017 E7.99163
G1 X105.006 Y135.659 E8.02225
G1 X104.192 Y135.229 E8.05287
G1 X103.419 Y134.729 E8.08349
G1 X102.692 Y134.164 E8.11411
G1 X102.328 Y133.841 E8.1303
G1 X102.125 Y133.652 E8.13952
G1 X101.742 Y133.277 E8.15735
G1 X101.312 Y132.834 E8.17788
G1 X100.7 Y132.146 E8.20851
G1 X100.15 Y131.408 E8.23912
G1 X99.666 Y130.624 E8.26977
G1 X99.252 Y129.802 E8.30038
G1 X99.062 Y129.351 E8.31666
G1 X98.798 Y128.682 E8.34058
G1 X98.233 Y127.186 E8.39376
G1 X97.264 Y124.821 E8.47877
G1 X96.482 Y123.046 E8.54328
G1 X96.149 Y122.309 E8.57018
G1 X95.807 Y121.454 E8.60081
G1 X95.54 Y120.573 E8.63143
G1 X95.351 Y119.672 E8.66205
G1 X95.24 Y118.758 E8.69267
G1 X95.213 Y118.247 E8.70969
G1 X95.205 Y117.967 E8.71901
G1 X95.202 Y117.492 E8.73481
G1 X95.212 Y116.876 E8.7553
G1 X95.267 Y115.957 E8.78592
G1 X95.402 Y115.046 E8.81655
G1 X95.615 Y114.15 E8.84718
G1 X95.905 Y113.277 E8.87778
G1 X96.094 Y112.812 E8.89447
G1 X96.355 Y112.216 E8.91611
G1 X97.014 Y110.758 E8.96933
G1 X98.006 Y108.387 E9.05481
G1 X98.735 Y106.519 E9.1215
G1 X98.98 Y105.859 E9.14492
G1 X99.338 Y105.011 E9.17554
G1 X99.769 Y104.197 E9.20617
G1 X100.448 Y103.177 E9.24692
G1 X101.191 Y102.291 E9.28538
G1 X101.368 Y102.102 E9.294
G1 X101.732 Y101.732 E9.31126
G0 F6000 X102.01 Y102.02
G1 F1200 X102.45 Y101.594 E9.33163
G1 X103.126 Y100.995 E9.36167
G1 X104.212 Y100.227 E9.40591
G1 X105.002 Y99.788 E9.43597
G1 X105.806 Y99.429 E9.46526
G1 X106.455 Y99.174 E9.48845
G1 X107.948 Y98.61 E9.54153
G1 X110.33 Y97.634 E9.62715
G1 X112.165 Y96.826 E9.69384
G1 X112.821 Y96.528 E9.7178
G1 X113.659 Y96.191 E9.74784
G1 X114.487 Y95.939 E9.77663
G1 X115.37 Y95.75 E9.80666
G1 X116.267 Y95.64 E9.83672
G1 X116.764 Y95.613 E9.85327
G1 X117.038 Y95.605 E9.86239
G1 X117.486 Y95.602 E9.87729
G1 X118.097 Y95.611 E9.89762
G1 X118.999 Y95.664 E9.92767
G1 X119.892 Y95.797 E9.9577
G1 X120.77 Y96.008 E9.98773
G1 X122.006 Y96.452 E10.03141
G1 X122.609 Y96.715 E10.05329
G1 X124.138 Y97.405 E10.10909
G1 X126.493 Y98.388 E10.19396
G1 X128.319 Y99.099 E10.25914
G1 X129.028 Y99.365 E10.28432
G1 X129.859 Y99.72 E10.31438
G1 X130.629 Y100.131 E10.34341
G1 X131.386 Y100.623 E10.37344
G1 X132.097 Y101.18 E10.40348
G1 X132.445 Y101.493 E10.41905
G1 X132.647 Y101.683 E10.42827
G1 X132.988 Y102.019 E10.44419
G1 X133.412 Y102.457 E10.46447
G1 X134.01 Y103.133 E10.49449
G1 X134.547 Y103.859 E10.52452
G1 X135.017 Y104.63 E10.55455
G1 X135.566 Y105.795 E10.59739
G1 X135.826 Y106.455 E10.62098
G1 X136.39 Y107.948 E10.67407
G1 X137.366 Y110.33 E10.75968
G1 X138.193 Y112.208 E10.82793
G1 X138.48 Y112.842 E10.85108
G1 X138.816 Y113.68 E10.88111
G1 X139.147 Y114.844 E10.92136
G1 X139.304 Y115.734 E10.95142
G1 X139.385 Y116.728 E10.98459
G1 X139.394 Y117.007 E10.99387
G1 X139.398 Y117.486 E11.00981
G1 X139.389 Y118.098 E11.03016
G1 X139.336 Y119 E11.06021
G1 X139.203 Y119.893 E11.09024
G1 X138.992 Y120.771 E11.12028
G1 X138.545 Y122.013 E11.16418
G1 X138.292 Y122.592 E11.1852
G1 X137.601 Y124.124 E11.24109
G1 X136.612 Y126.493 E11.32648
G1 X135.926 Y128.255 E11.38937
G1 X135.634 Y129.033 E11.41701
G1 X135.279 Y129.864 E11.44706
G1 X134.853 Y130.66 E11.47709
G1 X134.357 Y131.415 E11.50714
G1 X133.505 Y132.446 E11.55162
G1 X133.307 Y132.656 E11.56122
G1 X133.005 Y132.964 E11.57557
G1 X132.572 Y133.386 E11.59568
G1 X131.898 Y133.987 E11.62571
G1 X131.174 Y134.526 E11.65573
G1 X130.404 Y134.999 E11.68579
G1 X129.215 Y135.562 E11.72955
G1 X128.545 Y135.826 E11.7535
G1 X127.052 Y136.39 E11.80658
G1 X124.67 Y137.366 E11.8922
G1 X122.835 Y138.174 E11.95888
G1 X122.179 Y138.472 E11.98285
G1 X121.341 Y138.809 E12.01289
G1 X120.513 Y139.061 E12.04168
G1 X119.63 Y139.25 E12.07171
G1 X118.733 Y139.36 E12.10177
G1 X118.236 Y139.387 E12.11832
G1 X117.962 Y139.395 E12.12744
G1 X117.512 Y139.398 E12.14241
G1 X116.907 Y139.389 E12.16253
G1 X116.006 Y139.335 E12.19255
G1 X115.044 Y139.189 E12.22492
G1 X114.167 Y138.973 E12.25496
G1 X112.97 Y138.538 E12.29732
G1 X112.387 Y138.283 E12.31848
G1 X110.912 Y137.617 E12.37231
G1 X108.56 Y136.633 E12.45711
G1 X106.628 Y135.879 E12.52609
G1 X105.994 Y135.643 E12.54859
G1 X105.162 Y135.29 E12.57865
G1 X104.365 Y134.866 E12.60867
G1 X103.608 Y134.373 E12.63872
G1 X102.601 Y133.548 E12.68202
G1 X102.398 Y133.359 E12.69124
G1 X102.029 Y132.998 E12.70841
G1 X101.599 Y132.555 E12.72895
G1 X100.999 Y131.88 E12.75898
G1 X100.462 Y131.154 E12.78902
G1 X99.99 Y130.384 E12.81906
G1 X99.434 Y129.204 E12.86244
G1 X99.172 Y128.541 E12.88615
G1 X98.601 Y127.029 E12.93991
G1 X97.634 Y124.67 E13.02471
G1 X96.807 Y122.792 E13.09296
G1 X96.514 Y122.144 E13.11661
G1 X96.179 Y121.305 E13.14666
G1 X95.919 Y120.44 E13.1767
G1 X95.737 Y119.556 E13.20672
G1 X95.613 Y118.235 E13.25085
G1 X95.605 Y117.955 E13.26016
G1 X95.602 Y117.498 E13.27536
G1 X95.612 Y116.882 E13.29586
G1 X95.667 Y115.981 E13.32588
G1 X95.801 Y115.088 E13.35591
G1 X96.014 Y114.21 E13.38596
G1 X96.461 Y112.972 E13.42974
G1 X96.72 Y112.381 E13.4512
G1 X97.376 Y110.928 E13.50423
G1 X98.367 Y108.56 E13.5896
G1 X99.123 Y106.623 E13.65876
G1 X99.355 Y105.999 E13.6809
G1 X99.707 Y105.167 E13.71095
G1 X100.131 Y104.37 E13.74098
G1 X100.768 Y103.417 E13.7791
G1 X101.483 Y102.565 E13.8161
G1 X101.66 Y102.376 E13.82471
G1 X102.01 Y102.02 E13.84131
G1 F2700 E8.84131
;MESH:base_para_rosca_microfono.stl
G0 F6000 X116.048 Y116.769
G0 X114.443 Y115.824
G0 X114.906 Y118.28
G0 X115.031 Y118.693
G0 X115.482 Y119.337
G0 X115.765 Y119.616
G0 X116.155 Y119.846
G0 X118.092 Y120.744
;TYPE:WALL-INNER
G1 F2700 E13.84131
G1 F1200 X119.006 Y120.43 E13.87346
G1 X119.445 Y120.166 E13.8905
G1 X120.092 Y119.537 E13.92051
G1 X120.366 Y119.134 E13.93672
G1 X120.694 Y118.312 E13.96615
G1 X120.78 Y117.844 E13.98198
G1 X120.758 Y116.977 E14.01083
G1 X120.642 Y116.507 E14.02693
G1 X120.253 Y115.685 E14.05717
G1 X119.959 Y115.3 E14.07329
G1 X119.301 Y114.738 E14.10207
G1 X118.871 Y114.503 E14.11836
G1 X117.997 Y114.243 E14.14869
G1 X117.491 Y114.201 E14.16558
G1 X116.615 Y114.323 E14.195
G1 X116.149 Y114.492 E14.21148
G1 X115.423 Y114.938 E14.23982
G1 X115.077 Y115.263 E14.25561
G1 X114.608 Y115.921 E14.28249
G1 X114.42 Y116.317 E14.29707
G1 X114.399 Y116.36 E14.29866
G1 X114.39 Y116.406 E14.30022
G1 X114.251 Y117.062 E14.32252
G1 X114.247 Y117.077 E14.32304
G1 X114.181 Y117.541 E14.33863
G1 X114.362 Y118.418 E14.36841
G1 X114.52 Y118.942 E14.38661
G1 X115.052 Y119.702 E14.41747
G1 X115.42 Y120.063 E14.43461
G1 X116.216 Y120.535 E14.46539
G1 X116.691 Y120.699 E14.48211
G1 X117.586 Y120.795 E14.51205
G1 X118.092 Y120.744 E14.52896
G0 F6000 X118.006 Y120.351
G1 F1200 X118.836 Y120.065 E14.55816
G1 X119.199 Y119.847 E14.57224
G1 X119.784 Y119.278 E14.59939
G1 X120.011 Y118.945 E14.61279
G1 X120.308 Y118.201 E14.63943
G1 X120.379 Y117.813 E14.65255
G1 X120.359 Y117.031 E14.67857
G1 X120.263 Y116.642 E14.6919
G1 X119.91 Y115.894 E14.71941
G1 X119.667 Y115.577 E14.73269
G1 X119.073 Y115.069 E14.75869
G1 X118.716 Y114.874 E14.77222
G1 X117.923 Y114.638 E14.79974
G1 X117.502 Y114.603 E14.81379
G1 X116.712 Y114.713 E14.84032
G1 X116.324 Y114.854 E14.85405
G1 X115.667 Y115.257 E14.87968
G1 X115.38 Y115.527 E14.89279
G1 X114.954 Y116.125 E14.91721
G1 X114.78 Y116.489 E14.93063
G1 X114.641 Y117.146 E14.95296
G1 X114.587 Y117.528 E14.9658
G1 X114.75 Y118.32 E14.99269
G1 X114.884 Y118.765 E15.00815
G1 X115.359 Y119.442 E15.03565
G1 X115.666 Y119.744 E15.04998
G1 X116.385 Y120.17 E15.07777
G1 X116.779 Y120.306 E15.09164
G1 X117.587 Y120.393 E15.11867
G1 X118.006 Y120.351 E15.13267
G0 F6000 X117.92 Y119.958
;TYPE:WALL-OUTER
G1 F1200 X118.666 Y119.701 E15.15891
G1 X118.953 Y119.528 E15.17006
G1 X119.476 Y119.019 E15.19433
