;FLAVOR:Marlin
M117 Time Left 1h37m28s
;TIME:5848
;Filament used: 3.17887m
;Layer height: 0.2
;MINX:89
;MINY:76.5
;MINZ:0.2
;MAXX:145.976
;MAXY:158.5
;MAXZ:15
;POSTPROCESSED
;Generated with Cura_SteamEngine 4.8.0
M140 S60
M105
M190 S60
M104 S205
M105
M109 S205
M82 ;absolute extrusion mode
; Ender 3 Custom Start G-code
G92 E0 ; Reset Extruder
G28 ; Home all axes
; ***SET NEW E STEP *** (93 is factory value - 95 mine - start)
G90                          ; Force coordinates to be absolute relative to the origin
M92 E95 ;					 ; ***SET NEW E STEP *** (93 is factory value - 95 mine - end)
G90                          ; Force coordinates to be absolute relative to the origin
G28                          ; Home X/Y/Z axis
G92 E0 ; Reset Extruder
G28 ; Home all axes
G1 Z2.0 F3000 ; Move Z Axis up little to prevent scratching of Heat Bed
G1 X0.1 Y20 Z0.3 F5000.0 ; Move to start position
G1 X0.1 Y200.0 Z0.3 F1500.0 E15 ; Draw the first line
G1 X0.4 Y200.0 Z0.3 F5000.0 ; Move to side a little
G1 X0.4 Y20 Z0.3 F1500.0 E30 ; Draw the second line
G92 E0 ; Reset Extruder
G1 Z2.0 F3000 ; Move Z Axis up little to prevent scratching of Heat Bed
G1 X5 Y20 Z0.3 F5000.0 ; Move over to prevent blob squish
G92 E0
G92 E0
G1 F2700 E-5
;LAYER_COUNT:75
;LAYER:0
M107
G0 F6000 X97.737 Y81.911 Z0.2
;TYPE:SKIRT
G1 F2700 E0
G1 F1200 X97.952 Y81.656 E0.01109
G1 X98.304 Y81.259 E0.02874
G1 X98.554 Y80.99 E0.04095
G1 X98.729 Y80.806 E0.0494
G1 X99.076 Y80.449 E0.06596
G1 X99.362 Y80.149 E0.07975
G1 X100.038 Y79.498 E0.11096
G1 X100.766 Y78.908 E0.14213
G1 X101.723 Y78.272 E0.18034
G1 X102.034 Y78.088 E0.19236
G1 X102.861 Y77.645 E0.22357
G1 X103.722 Y77.274 E0.25475
G1 X104.612 Y76.979 E0.28593
G1 X105.827 Y76.705 E0.32736
G1 X106.091 Y76.661 E0.33626
G1 X107.462 Y76.52 E0.3821
G1 X107.663 Y76.512 E0.38879
G1 X107.999 Y76.503 E0.39997
G1 X108.325 Y76.5 E0.41082
G1 X121.393 Y76.5 E0.84546
G1 X122.273 Y76.512 E0.87473
G1 X123.21 Y76.567 E0.90595
G1 X123.831 Y76.648 E0.92678
G1 X123.919 Y76.662 E0.92974
G1 X124.384 Y76.746 E0.94546
G1 X124.615 Y76.793 E0.9533
G1 X125.525 Y77.019 E0.98449
G1 X126.413 Y77.322 E1.01569
G1 X127.272 Y77.699 E1.04689
G1 X127.893 Y78.029 E1.07028
G1 X128.125 Y78.162 E1.07918
G1 X128.918 Y78.663 E1.11038
G1 X129.665 Y79.229 E1.14155
G1 X130.501 Y79.996 E1.17928
G1 X130.946 Y80.449 E1.2004
G1 X131.159 Y80.673 E1.21068
G1 X131.823 Y81.388 E1.24314
G1 X132.432 Y82.101 E1.27433
G1 X132.977 Y82.864 E1.30551
G1 X133.308 Y83.406 E1.32663
G1 X133.434 Y83.626 E1.33507
G1 X133.637 Y83.997 E1.34913
G1 X133.683 Y84.085 E1.35244
G1 X134.082 Y84.934 E1.38364
G1 X134.269 Y85.411 E1.40068
G1 X134.538 Y86.151 E1.42687
G1 X135.018 Y87.527 E1.47534
G1 X135.908 Y89.863 E1.55848
G1 X136.858 Y92.164 E1.64128
G1 X137.893 Y94.477 E1.72556
G1 X138.991 Y96.758 E1.80976
G1 X140.127 Y98.958 E1.89211
G1 X141.394 Y101.248 E1.97915
G1 X141.746 Y101.853 E2.00244
G1 X141.996 Y102.294 E2.0193
G1 X142.33 Y102.898 E2.04225
G1 X142.583 Y103.383 E2.06045
G1 X142.939 Y104.11 E2.08737
G1 X143.111 Y104.478 E2.10088
G1 X143.453 Y105.247 E2.12887
G1 X143.622 Y105.648 E2.14335
G1 X143.999 Y106.595 E2.17725
G1 X144.134 Y106.952 E2.18994
G1 X144.291 Y107.39 E2.20542
G1 X144.463 Y107.912 E2.2237
G1 X144.776 Y108.945 E2.2596
G1 X144.874 Y109.286 E2.2714
G1 X145.003 Y109.767 E2.28796
G1 X145.13 Y110.293 E2.30596
G1 X145.369 Y111.399 E2.34359
G1 X145.461 Y111.876 E2.35975
G1 X145.659 Y113.039 E2.39899
G1 X145.742 Y113.622 E2.41858
G1 X145.79 Y114.047 E2.4328
G1 X145.822 Y114.376 E2.4438
G1 X145.923 Y115.552 E2.48305
G1 X145.956 Y116.107 E2.50155
G1 X145.967 Y116.42 E2.51196
G1 X145.974 Y116.788 E2.5242
G1 X145.976 Y118.03 E2.56551
G1 X145.968 Y118.47 E2.58015
G1 X145.942 Y119.148 E2.60272
G1 X145.923 Y119.492 E2.61418
G1 X145.89 Y119.965 E2.62995
G1 X145.84 Y120.497 E2.64772
G1 X145.711 Y121.583 E2.68409
G1 X145.664 Y121.934 E2.69587
G1 X145.57 Y122.554 E2.71673
G1 X145.475 Y123.091 E2.73487
G1 X145.258 Y124.161 E2.77118
G1 X145.177 Y124.526 E2.78362
G1 X145.023 Y125.172 E2.8057
G1 X144.874 Y125.732 E2.82498
G1 X144.631 Y126.556 E2.85355
G1 X144.541 Y126.845 E2.86362
G1 X144.334 Y127.482 E2.8859
G1 X144.14 Y128.03 E2.90523
G1 X143.762 Y129.013 E2.94026
G1 X143.637 Y129.324 E2.95141
G1 X143.393 Y129.905 E2.97237
G1 X143.15 Y130.443 E2.992
G1 X142.631 Y131.514 E3.03158
G1 X142.466 Y131.839 E3.04371
G1 X142.175 Y132.392 E3.06449
G1 X141.972 Y132.762 E3.07853
G1 X140.911 Y134.603 E3.1492
G1 X139.707 Y136.835 E3.23355
G1 X138.587 Y139.061 E3.31643
G1 X137.503 Y141.375 E3.40142
G1 X136.516 Y143.65 E3.4839
G1 X135.559 Y146.034 E3.56934
G1 X134.676 Y148.435 E3.65443
G1 X134.376 Y149.284 E3.68438
G1 X134.128 Y149.923 E3.70718
G1 X133.953 Y150.335 E3.72207
G1 X133.549 Y151.182 E3.75328
G1 X133.076 Y151.992 E3.78447
G1 X132.278 Y153.077 E3.82927
G1 X132.223 Y153.143 E3.83213
G1 X131.883 Y153.532 E3.84931
G1 X131.095 Y154.392 E3.88811
G1 X130.935 Y154.563 E3.8959
G1 X130.673 Y154.837 E3.90851
G1 X129.997 Y155.487 E3.9397
G1 X129.267 Y156.076 E3.97089
G1 X128.681 Y156.482 E3.99461
G1 X128.397 Y156.665 E4.00584
G1 X127.588 Y157.139 E4.03703
G1 X126.741 Y157.542 E4.06823
G1 X125.863 Y157.871 E4.09941
G1 X125.318 Y158.035 E4.11834
G1 X125.2 Y158.067 E4.12241
G1 X124.28 Y158.274 E4.15377
G1 X124.059 Y158.314 E4.16124
G1 X123.13 Y158.442 E4.19243
G1 X122.451 Y158.484 E4.21506
G1 X122.15 Y158.492 E4.22507
G1 X121.472 Y158.5 E4.24763
G1 X108.438 Y158.499 E4.68114
G1 X107.72 Y158.488 E4.70502
G1 X106.784 Y158.433 E4.73621
G1 X106.004 Y158.326 E4.76239
G1 X105.774 Y158.286 E4.77016
G1 X104.858 Y158.086 E4.80134
G1 X103.962 Y157.809 E4.83254
G1 X103.093 Y157.457 E4.86372
G1 X102.464 Y157.145 E4.88707
G1 X102.115 Y156.958 E4.90024
G1 X101.308 Y156.48 E4.93144
G1 X100.544 Y155.935 E4.96265
G1 X99.83 Y155.327 E4.99384
G1 X99.391 Y154.896 E5.0143
G1 X98.951 Y154.44 E5.03538
G1 X98.44 Y153.897 E5.06018
G1 X97.958 Y153.348 E5.08448
G1 X97.665 Y152.992 E5.09981
G1 X97.1 Y152.243 E5.13102
G1 X96.601 Y151.449 E5.16221
G1 X96.009 Y150.244 E5.20686
G1 X95.879 Y149.933 E5.21807
G1 X95.555 Y149.054 E5.24923
G1 X95.265 Y148.147 E5.2809
G1 X94.972 Y147.189 E5.31422
G1 X94.16 Y144.783 E5.39868
G1 X93.287 Y142.418 E5.48253
G1 X92.356 Y140.101 E5.56558
G1 X91.345 Y137.777 E5.64988
G1 X90.383 Y135.718 E5.72547
G1 X90.236 Y135.413 E5.73673
G1 X89.864 Y134.552 E5.76792
G1 X89.619 Y133.836 E5.79309
G1 X89.547 Y133.6 E5.8013
G1 X89.312 Y132.692 E5.83249
G1 X89.218 Y132.198 E5.84922
G1 X89.184 Y131.994 E5.8561
G1 X89.096 Y131.348 E5.87778
G1 X89.079 Y131.188 E5.88313
G1 X89.019 Y130.225 E5.91523
G1 X89 Y129.088 E5.95305
G1 X89.001 Y105.555 E6.73576
G1 X89.01 Y104.963 E6.75545
G1 X89.039 Y104.324 E6.77673
G1 X89.065 Y103.97 E6.78853
G1 X89.23 Y102.716 E6.8306
G1 X89.275 Y102.48 E6.83859
G1 X89.566 Y101.305 E6.87885
G1 X89.626 Y101.11 E6.88564
G1 X90.1 Y99.85 E6.93041
G1 X90.284 Y99.447 E6.94515
G1 X91.165 Y97.596 E7.01333
G1 X92.194 Y95.264 E7.09811
G1 X93.134 Y92.96 E7.18087
G1 X94.02 Y90.599 E7.26475
G1 X94.844 Y88.197 E7.34921
G1 X95.361 Y86.57 E7.40599
G1 X95.534 Y86.004 E7.42567
G1 X95.92 Y84.944 E7.46319
G1 X96.016 Y84.717 E7.47139
G1 X96.418 Y83.87 E7.50257
G1 X96.89 Y83.06 E7.53375
G1 X97.43 Y82.293 E7.56495
G1 X97.737 Y81.911 E7.58125
G0 F6000 X98.043 Y82.169
G1 F1200 X98.258 Y81.914 E7.59235
G1 X98.597 Y81.531 E7.60936
G1 X98.847 Y81.262 E7.62157
G1 X99.016 Y81.085 E7.62971
G1 X99.348 Y80.744 E7.64554
G1 X99.652 Y80.425 E7.6602
G1 X100.315 Y79.787 E7.6908
G1 X101.032 Y79.209 E7.72143
G1 X101.927 Y78.616 E7.75714
G1 X102.238 Y78.432 E7.76916
G1 X103.049 Y77.998 E7.79975
G1 X103.896 Y77.636 E7.83039
G1 X104.771 Y77.349 E7.86102
G1 X105.892 Y77.099 E7.89922
G1 X106.156 Y77.055 E7.90812
G1 X107.477 Y76.919 E7.95229
G1 X107.678 Y76.911 E7.95898
G1 X108.002 Y76.903 E7.96976
G1 X108.328 Y76.9 E7.9806
G1 X121.393 Y76.9 E8.41515
G1 X122.267 Y76.912 E8.44422
G1 X123.186 Y76.966 E8.47484
G1 X123.768 Y77.043 E8.49436
G1 X123.856 Y77.057 E8.49733
G1 X124.304 Y77.138 E8.51247
G1 X124.535 Y77.185 E8.52031
G1 X125.429 Y77.407 E8.55095
G1 X126.299 Y77.707 E8.58156
G1 X127.141 Y78.08 E8.61219
G1 X127.694 Y78.376 E8.63305
G1 X127.926 Y78.509 E8.64194
G1 X128.704 Y79.001 E8.67256
G1 X129.436 Y79.559 E8.70317
G1 X130.216 Y80.277 E8.73843
G1 X130.661 Y80.73 E8.75955
G1 X130.866 Y80.945 E8.76943
G1 X131.53 Y81.66 E8.80189
G1 X132.127 Y82.361 E8.83251
G1 X132.66 Y83.111 E8.86312
G1 X132.961 Y83.605 E8.88236
G1 X133.087 Y83.825 E8.89079
G1 X133.283 Y84.183 E8.90436
G1 X133.329 Y84.271 E8.90767
G1 X133.72 Y85.104 E8.93827
G1 X133.893 Y85.548 E8.95412
G1 X134.16 Y86.283 E8.98013
G1 X134.631 Y87.634 E9.02772
G1 X135.531 Y89.998 E9.11185
G1 X136.506 Y92.356 E9.19672
G1 X137.526 Y94.636 E9.27979
G1 X138.633 Y96.937 E9.36472
G1 X139.794 Y99.184 E9.44884
G1 X141.007 Y101.378 E9.53222
G1 X141.398 Y102.051 E9.55811
G1 X141.646 Y102.487 E9.5748
G1 X141.98 Y103.091 E9.59775
G1 X142.224 Y103.559 E9.61531
G1 X142.58 Y104.286 E9.64223
G1 X142.745 Y104.641 E9.65525
G1 X143.087 Y105.41 E9.68324
G1 X143.25 Y105.796 E9.69718
G1 X143.627 Y106.743 E9.73108
G1 X143.757 Y107.087 E9.74331
G1 X143.914 Y107.525 E9.75879
G1 X144.081 Y108.028 E9.77641
G1 X144.394 Y109.061 E9.81231
G1 X144.487 Y109.389 E9.82365
G1 X144.616 Y109.87 E9.84022
G1 X144.739 Y110.377 E9.85757
G1 X144.978 Y111.483 E9.8952
G1 X145.067 Y111.943 E9.91079
G1 X145.265 Y113.106 E9.95003
G1 X145.345 Y113.668 E9.96891
G1 X145.392 Y114.087 E9.98293
G1 X145.423 Y114.41 E9.99372
G1 X145.524 Y115.586 E10.03298
G1 X145.556 Y116.121 E10.05081
G1 X145.567 Y116.434 E10.06122
G1 X145.574 Y116.789 E10.07303
G1 X145.576 Y118.031 E10.11434
G1 X145.568 Y118.454 E10.12841
G1 X145.542 Y119.132 E10.15098
G1 X145.524 Y119.464 E10.16204
G1 X145.491 Y119.937 E10.17781
G1 X145.443 Y120.449 E10.19491
G1 X145.314 Y121.535 E10.23129
G1 X145.268 Y121.874 E10.24267
G1 X145.174 Y122.494 E10.26352
G1 X145.083 Y123.012 E10.28102
G1 X144.866 Y124.082 E10.31733
G1 X144.788 Y124.433 E10.32929
G1 X144.634 Y125.079 E10.35138
G1 X144.49 Y125.619 E10.36996
G1 X144.247 Y126.443 E10.39854
G1 X144.161 Y126.721 E10.40822
G1 X143.954 Y127.358 E10.43049
G1 X143.767 Y127.887 E10.44915
G1 X143.389 Y128.87 E10.48418
G1 X143.268 Y129.169 E10.49491
G1 X143.024 Y129.75 E10.51587
G1 X142.79 Y130.269 E10.53481
G1 X142.271 Y131.34 E10.57439
G1 X142.113 Y131.653 E10.58605
G1 X141.822 Y132.206 E10.60684
G1 X141.625 Y132.562 E10.62037
G1 X140.57 Y134.393 E10.69065
G1 X139.345 Y136.664 E10.77647
G1 X138.225 Y138.89 E10.85936
G1 X137.138 Y141.212 E10.94463
G1 X136.136 Y143.522 E11.02838
G1 X135.199 Y145.854 E11.11197
G1 X134.295 Y148.312 E11.19907
G1 X133.999 Y149.151 E11.22866
G1 X133.759 Y149.767 E11.25065
G1 X133.584 Y150.179 E11.26554
G1 X133.188 Y151.01 E11.29616
G1 X132.721 Y151.803 E11.32677
G1 X131.971 Y152.821 E11.36882
G1 X131.916 Y152.887 E11.37168
G1 X131.588 Y153.262 E11.38825
G1 X130.8 Y154.122 E11.42705
G1 X130.646 Y154.287 E11.43455
G1 X130.384 Y154.561 E11.44716
G1 X129.72 Y155.198 E11.47777
G1 X129.002 Y155.775 E11.5084
G1 X128.465 Y156.145 E11.53009
G1 X128.181 Y156.328 E11.54133
G1 X127.386 Y156.793 E11.57196
G1 X126.554 Y157.187 E11.60258
G1 X125.69 Y157.507 E11.63322
G1 X125.213 Y157.648 E11.64977
G1 X125.095 Y157.68 E11.65383
G1 X124.209 Y157.881 E11.68405
G1 X123.988 Y157.921 E11.69152
G1 X123.076 Y158.045 E11.72213
G1 X122.438 Y158.085 E11.7434
G1 X122.145 Y158.092 E11.75314
G1 X121.472 Y158.1 E11.77553
G1 X108.445 Y158.099 E12.20881
G1 X107.727 Y158.088 E12.23269
G1 X106.808 Y158.034 E12.26331
G1 X106.073 Y157.932 E12.28799
G1 X105.843 Y157.892 E12.29576
G1 X104.943 Y157.695 E12.3264
G1 X104.065 Y157.421 E12.35699
G1 X103.213 Y157.071 E12.38763
G1 X102.653 Y156.792 E12.40844
G1 X102.304 Y156.605 E12.4216
G1 X101.512 Y156.136 E12.45222
G1 X100.764 Y155.599 E12.48284
G1 X100.065 Y155 E12.51346
G1 X99.679 Y154.619 E12.5315
G1 X99.243 Y154.165 E12.55244
G1 X98.732 Y153.622 E12.57724
G1 X98.267 Y153.094 E12.60064
G1 X97.974 Y152.738 E12.61597
G1 X97.42 Y152.002 E12.64661
G1 X96.932 Y151.222 E12.67721
G1 X96.378 Y150.09 E12.71913
G1 X96.248 Y149.779 E12.73034
G1 X95.936 Y148.932 E12.76036
G1 X95.647 Y148.03 E12.79187
G1 X95.347 Y147.049 E12.82599
G1 X94.542 Y144.664 E12.90971
G1 X93.657 Y142.267 E12.99469
G1 X92.718 Y139.929 E13.07849
G1 X91.716 Y137.627 E13.162
G1 X90.747 Y135.552 E13.23817
G1 X90.596 Y135.239 E13.24973
G1 X90.232 Y134.393 E13.28036
G1 X90.001 Y133.719 E13.30405
G1 X89.929 Y133.483 E13.31226
G1 X89.699 Y132.592 E13.34287
G1 X89.612 Y132.133 E13.35841
G1 X89.578 Y131.929 E13.36528
G1 X89.493 Y131.306 E13.3862
G1 X89.476 Y131.146 E13.39155
G1 X89.419 Y130.218 E13.42247
G1 X89.4 Y129.088 E13.46006
G1 X89.401 Y105.561 E14.24257
G1 X89.41 Y104.969 E14.26227
G1 X89.437 Y104.354 E14.28274
G1 X89.463 Y104 E14.29455
G1 X89.623 Y102.791 E14.33511
G1 X89.668 Y102.555 E14.3431
G1 X89.949 Y101.423 E14.38189
G1 X90.009 Y101.228 E14.38868
G1 X90.465 Y100.014 E14.43181
G1 X90.645 Y99.619 E14.44625
G1 X91.534 Y97.751 E14.51505
G1 X92.553 Y95.441 E14.59903
G1 X93.515 Y93.084 E14.6837
G1 X94.398 Y90.732 E14.76726
G1 X95.216 Y88.347 E14.85112
G1 X95.763 Y86.623 E14.91128
G1 X95.917 Y86.121 E14.92874
G1 X96.288 Y85.1 E14.96487
G1 X96.384 Y84.873 E14.97307
G1 X96.779 Y84.042 E15.00367
G1 X97.245 Y83.248 E15.0343
G1 X98.043 Y82.169 E15.07893
G0 F6000 X98.349 Y82.427
G1 F1200 X98.564 Y82.172 E15.09003
G1 X98.89 Y81.803 E15.1064
G1 X99.14 Y81.534 E15.11862
G1 X99.594 Y81.065 E15.14033
G1 X99.941 Y80.701 E15.15705
G1 X100.593 Y80.076 E15.18709
G1 X101.297 Y79.51 E15.21714
G1 X102.13 Y78.96 E15.25034
G1 X102.441 Y78.776 E15.26236
G1 X103.238 Y78.351 E15.2924
G1 X104.069 Y77.999 E15.32241
G1 X104.929 Y77.721 E15.35247
G1 X105.958 Y77.494 E15.38752
G1 X106.222 Y77.45 E15.39642
G1 X107.493 Y77.319 E15.43892
G1 X107.694 Y77.311 E15.44561
G1 X108.006 Y77.303 E15.45599
G1 X108.332 Y77.3 E15.46684
G1 X121.393 Y77.3 E15.90125
G1 X122.261 Y77.312 E15.93012
G1 X123.163 Y77.366 E15.96017
G1 X123.706 Y77.438 E15.97839
G1 X123.794 Y77.452 E15.98136
G1 X124.225 Y77.53 E15.99592
G1 X124.456 Y77.577 E16.00376
G1 X125.332 Y77.796 E16.0338
G1 X126.185 Y78.092 E16.06383
G1 X127.009 Y78.462 E16.09387
G1 X127.495 Y78.723 E16.11222
G1 X127.727 Y78.856 E16.12111
G1 X128.49 Y79.339 E16.15115
G1 X129.207 Y79.888 E16.18118
G1 X129.93 Y80.557 E16.21394
G1 X130.375 Y81.01 E16.23507
G1 X130.573 Y81.217 E16.24459
G1 X131.237 Y81.932 E16.27705
G1 X131.822 Y82.62 E16.30708
G1 X132.343 Y83.358 E16.33713
G1 X132.614 Y83.804 E16.35449
G1 X132.74 Y84.024 E16.36292
G1 X132.928 Y84.368 E16.37596
G1 X132.974 Y84.456 E16.37926
G1 X133.517 Y85.685 E16.42395
G1 X133.782 Y86.415 E16.44978
G1 X134.251 Y87.76 E16.49716
G1 X135.164 Y90.157 E16.58247
G1 X136.129 Y92.493 E16.66653
G1 X137.171 Y94.823 E16.75143
G1 X138.268 Y97.101 E16.83552
G1 X139.447 Y99.383 E16.92095
G1 X140.669 Y101.594 E17.00497
G1 X141.051 Y102.249 E17.03019
G1 X141.296 Y102.681 E17.04671
G1 X141.63 Y103.285 E17.06967
G1 X141.865 Y103.735 E17.08655
G1 X142.221 Y104.462 E17.11348
G1 X142.38 Y104.803 E17.12599
G1 X142.722 Y105.572 E17.15398
G1 X142.879 Y105.944 E17.16741
G1 X143.256 Y106.891 E17.20131
G1 X143.381 Y107.222 E17.21308
G1 X143.538 Y107.66 E17.22856
G1 X143.698 Y108.144 E17.24551
G1 X144.011 Y109.177 E17.28141
G1 X144.101 Y109.493 E17.29234
G1 X144.23 Y109.974 E17.3089
G1 X144.348 Y110.462 E17.3256
G1 X144.587 Y111.568 E17.36324
G1 X144.672 Y112.01 E17.37821
G1 X144.87 Y113.173 E17.41745
G1 X144.948 Y113.714 E17.43563
G1 X144.994 Y114.127 E17.44945
G1 X145.025 Y114.444 E17.46004
G1 X145.126 Y115.62 E17.4993
G1 X145.157 Y116.135 E17.51646
G1 X145.168 Y116.448 E17.52687
G1 X145.174 Y116.79 E17.53825
G1 X145.176 Y118.032 E17.57956
G1 X145.169 Y118.439 E17.5931
G1 X145.143 Y119.117 E17.61567
G1 X145.125 Y119.436 E17.62629
G1 X145.092 Y119.909 E17.64206
G1 X145.046 Y120.402 E17.65853
G1 X144.917 Y121.488 E17.69491
G1 X144.873 Y121.814 E17.70585
G1 X144.779 Y122.434 E17.7267
G1 X144.69 Y122.932 E17.74353
G1 X144.473 Y124.002 E17.77984
G1 X144.399 Y124.34 E17.79135
G1 X144.245 Y124.986 E17.81344
G1 X144.106 Y125.506 E17.83134
G1 X143.863 Y126.33 E17.85992
G1 X143.781 Y126.597 E17.86921
