;FLAVOR:Marlin
M117 Time Left 0h56m23s
;TIME:3383
;Filament used: 1.65802m
;Layer height: 0.16
;MINX:92.374
;MINY:77.895
;MINZ:0.2
;MAXX:138.466
;MAXY:157.049
;MAXZ:7.24
;POSTPROCESSED
;Generated with Cura_SteamEngine 4.8.0
M140 S60
M105
M190 S60
M104 S205
M105
M109 S205
M82 ;absolute extrusion mode
; Ender 3 Custom Start G-code
G92 E0 ; Reset Extruder
G28 ; Home all axes
; ***SET NEW E STEP *** (93 is factory value - 95 mine - start)
G90                          ; Force coordinates to be absolute relative to the origin
M92 E95 ;					 ; ***SET NEW E STEP *** (93 is factory value - 95 mine - end)
G90                          ; Force coordinates to be absolute relative to the origin
G28                          ; Home X/Y/Z axis
G92 E0 ; Reset Extruder
G28 ; Home all axes
G1 Z2.0 F3000 ; Move Z Axis up little to prevent scratching of Heat Bed
G1 X0.1 Y20 Z0.3 F5000.0 ; Move to start position
G1 X0.1 Y200.0 Z0.3 F1500.0 E15 ; Draw the first line
G1 X0.4 Y200.0 Z0.3 F5000.0 ; Move to side a little
G1 X0.4 Y20 Z0.3 F1500.0 E30 ; Draw the second line
G92 E0 ; Reset Extruder
G1 Z2.0 F3000 ; Move Z Axis up little to prevent scratching of Heat Bed
G1 X5 Y20 Z0.3 F5000.0 ; Move over to prevent blob squish
G92 E0
G92 E0
G1 F2700 E-5
;LAYER_COUNT:39
;LAYER:0
M107
G0 F6000 X96.364 Y86.288 Z0.2
;TYPE:SKIRT
G1 F2700 E0
G1 F1200 X96.446 Y86.202 E0.00395
G1 X96.823 Y85.825 E0.02169
G1 X96.989 Y85.667 E0.02931
G1 X97.626 Y85.107 E0.05752
G1 X99.552 Y83.538 E0.14014
G1 X100.324 Y82.876 E0.17397
G1 X100.525 Y82.708 E0.18268
G1 X101.006 Y82.315 E0.20334
G1 X101.317 Y82.07 E0.21651
G1 X101.657 Y81.812 E0.2307
G1 X101.935 Y81.608 E0.24217
G1 X102.194 Y81.424 E0.25274
G1 X102.574 Y81.165 E0.26803
G1 X103.142 Y80.809 E0.29033
G1 X103.693 Y80.487 E0.31156
G1 X103.958 Y80.337 E0.32168
G1 X104.146 Y80.234 E0.32881
G1 X104.481 Y80.058 E0.3414
G1 X104.868 Y79.867 E0.35575
G1 X105.167 Y79.726 E0.36675
G1 X105.582 Y79.541 E0.38186
G1 X105.736 Y79.476 E0.38742
G1 X106.136 Y79.316 E0.40175
G1 X106.906 Y79.026 E0.42912
G1 X107.741 Y78.749 E0.45838
G1 X108.026 Y78.667 E0.46824
G1 X108.412 Y78.563 E0.48154
G1 X109.047 Y78.405 E0.5033
G1 X109.766 Y78.252 E0.52775
G1 X110.23 Y78.169 E0.54343
G1 X110.574 Y78.113 E0.55502
G1 X110.779 Y78.083 E0.56191
G1 X111.132 Y78.037 E0.57375
G1 X111.652 Y77.978 E0.59116
G1 X112.608 Y77.912 E0.62303
G1 X113.112 Y77.899 E0.6398
G1 X113.396 Y77.895 E0.64924
G1 X113.677 Y77.895 E0.65859
G1 X114.068 Y77.902 E0.6716
G1 X114.742 Y77.926 E0.69403
G1 X115.752 Y78.009 E0.72774
G1 X116.227 Y78.07 E0.74366
G1 X116.535 Y78.114 E0.75401
G1 X117.101 Y78.203 E0.77307
G1 X117.788 Y78.333 E0.79632
G1 X118.021 Y78.385 E0.80426
G1 X118.519 Y78.509 E0.82133
G1 X118.934 Y78.628 E0.83569
G1 X119.962 Y78.944 E0.87146
G1 X121.153 Y79.386 E0.91372
G1 X121.868 Y79.7 E0.93969
G1 X122.516 Y80.011 E0.96359
G1 X122.901 Y80.211 E0.97802
G1 X123.291 Y80.423 E0.99279
G1 X123.896 Y80.769 E1.01597
G1 X124.736 Y81.301 E1.04904
G1 X125.068 Y81.533 E1.06251
G1 X125.39 Y81.767 E1.07575
G1 X125.764 Y82.049 E1.09133
G1 X126.063 Y82.283 E1.10396
G1 X126.758 Y82.848 E1.13375
G1 X128.219 Y84.075 E1.1972
G1 X128.637 Y84.407 E1.21496
G1 X129.471 Y85.091 E1.25083
G1 X129.977 Y85.533 E1.27318
G1 X130.178 Y85.72 E1.28231
G1 X130.888 Y86.445 E1.31606
G1 X131.064 Y86.642 E1.32485
G1 X131.651 Y87.358 E1.35564
G1 X131.815 Y87.576 E1.36472
G1 X132.254 Y88.203 E1.39017
G1 X132.302 Y88.277 E1.39311
G1 X132.621 Y88.801 E1.41351
G1 X132.756 Y89.037 E1.42255
G1 X133.116 Y89.722 E1.44829
G1 X133.197 Y89.89 E1.4545
G1 X133.568 Y90.751 E1.48568
G1 X133.778 Y91.354 E1.50692
G1 X133.959 Y91.927 E1.5269
G1 X134.203 Y92.832 E1.55808
G1 X134.385 Y93.876 E1.59332
G1 X134.45 Y94.396 E1.61075
G1 X134.489 Y94.755 E1.62276
G1 X134.51 Y94.981 E1.63031
G1 X134.787 Y97.62 E1.71857
G1 X135.115 Y100.061 E1.80049
G1 X135.528 Y102.593 E1.88581
G1 X135.998 Y105.039 E1.96866
G1 X136.525 Y107.418 E2.0497
G1 X137.391 Y110.804 E2.16594
G1 X137.784 Y112.227 E2.21505
G1 X137.847 Y112.465 E2.22323
G1 X137.932 Y112.802 E2.23479
G1 X138.083 Y113.45 E2.25692
G1 X138.287 Y114.621 E2.29646
G1 X138.316 Y114.866 E2.30466
G1 X138.356 Y115.272 E2.31823
G1 X138.422 Y116.105 E2.34603
G1 X138.46 Y116.693 E2.36562
G1 X138.466 Y118.008 E2.40936
G1 X138.419 Y118.86 E2.43774
G1 X138.386 Y119.297 E2.45232
G1 X138.308 Y120.116 E2.47968
G1 X138.103 Y121.428 E2.52385
G1 X137.92 Y122.263 E2.55228
G1 X137.842 Y122.594 E2.56359
G1 X137.699 Y123.162 E2.58307
G1 X137.615 Y123.477 E2.59391
G1 X137.251 Y124.761 E2.6383
G1 X136.586 Y127.238 E2.72361
G1 X135.992 Y129.726 E2.80868
G1 X135.488 Y132.152 E2.89109
G1 X135.045 Y134.623 E2.97459
G1 X134.673 Y137.101 E3.05793
G1 X134.263 Y140.631 E3.17613
G1 X134.24 Y140.841 E3.18316
G1 X134.098 Y141.768 E3.21435
G1 X133.93 Y142.489 E3.23897
G1 X133.84 Y142.825 E3.25054
G1 X133.558 Y143.723 E3.28185
G1 X133.499 Y143.886 E3.28761
G1 X133.127 Y144.787 E3.32003
G1 X132.97 Y145.124 E3.3324
G1 X132.504 Y146.016 E3.36587
G1 X132.384 Y146.222 E3.3738
G1 X131.814 Y147.101 E3.40865
G1 X131.628 Y147.36 E3.41925
G1 X130.883 Y148.288 E3.45883
G1 X130.666 Y148.53 E3.46964
G1 X129.903 Y149.3 E3.5057
G1 X129.702 Y149.484 E3.51476
G1 X129.242 Y149.883 E3.53501
G1 X127.213 Y151.544 E3.62223
G1 X126.97 Y151.752 E3.63287
G1 X126.17 Y152.418 E3.66749
G1 X125.884 Y152.648 E3.67969
G1 X125.43 Y153.001 E3.69882
G1 X125.163 Y153.202 E3.70994
G1 X124.989 Y153.329 E3.7171
G1 X124.736 Y153.508 E3.72741
G1 X124.512 Y153.662 E3.73645
G1 X124.018 Y153.983 E3.75605
G1 X123.686 Y154.186 E3.76899
G1 X123.406 Y154.352 E3.77982
G1 X123.154 Y154.496 E3.78947
G1 X122.685 Y154.749 E3.80719
G1 X122.235 Y154.978 E3.82399
G1 X121.782 Y155.195 E3.84069
G1 X121.444 Y155.348 E3.85303
G1 X121.028 Y155.526 E3.86808
G1 X120.674 Y155.669 E3.88078
G1 X120.196 Y155.85 E3.89778
G1 X119.72 Y156.017 E3.91456
G1 X119.041 Y156.23 E3.93823
G1 X118.755 Y156.31 E3.94811
G1 X118.349 Y156.416 E3.96206
G1 X117.985 Y156.503 E3.97451
G1 X117.711 Y156.565 E3.98385
G1 X117.348 Y156.642 E3.99619
G1 X116.996 Y156.71 E4.00812
G1 X116.553 Y156.789 E4.02309
G1 X115.553 Y156.921 E4.05663
G1 X114.823 Y156.983 E4.081
G1 X114.474 Y157.007 E4.09264
G1 X113.983 Y157.033 E4.10899
G1 X113.452 Y157.048 E4.12666
G1 X113.238 Y157.049 E4.13378
G1 X112.336 Y157.016 E4.1638
G1 X111.64 Y156.962 E4.18702
G1 X111.323 Y156.933 E4.1976
G1 X111.145 Y156.914 E4.20356
G1 X110.757 Y156.865 E4.21656
G1 X110.085 Y156.769 E4.23914
G1 X109.071 Y156.576 E4.27347
G1 X108.634 Y156.471 E4.28842
G1 X108.354 Y156.399 E4.29804
G1 X107.75 Y156.237 E4.31884
G1 X106.941 Y155.986 E4.34701
G1 X106.615 Y155.871 E4.35851
G1 X105.938 Y155.607 E4.38268
G1 X105.038 Y155.221 E4.41525
G1 X104.579 Y155.012 E4.43202
G1 X104.515 Y154.981 E4.43439
G1 X103.891 Y154.654 E4.45782
G1 X103.202 Y154.264 E4.48415
G1 X102.658 Y153.934 E4.50531
G1 X102.565 Y153.874 E4.50899
G1 X102.219 Y153.642 E4.52285
G1 X101.642 Y153.238 E4.54628
G1 X101.323 Y153.006 E4.5594
G1 X101.172 Y152.892 E4.56569
G1 X100.857 Y152.645 E4.579
G1 X100.164 Y152.081 E4.60872
G1 X99.992 Y151.938 E4.61616
G1 X99.024 Y151.117 E4.65838
G1 X98.606 Y150.782 E4.67619
G1 X97.482 Y149.86 E4.72455
G1 X97.02 Y149.459 E4.74489
G1 X96.862 Y149.314 E4.75203
G1 X96.187 Y148.638 E4.7838
G1 X95.927 Y148.354 E4.79661
G1 X95.323 Y147.636 E4.82781
G1 X95.017 Y147.217 E4.84507
G1 X94.819 Y146.933 E4.85658
G1 X94.209 Y145.952 E4.89501
G1 X94.026 Y145.62 E4.90762
G1 X93.498 Y144.523 E4.94811
G1 X93.447 Y144.4 E4.95254
G1 X93.136 Y143.554 E4.98252
G1 X92.991 Y143.103 E4.99827
G1 X92.742 Y142.199 E5.02946
G1 X92.538 Y141.02 E5.06926
G1 X92.459 Y140.348 E5.09176
G1 X92.387 Y139.338 E5.12544
G1 X92.377 Y138.937 E5.13878
G1 X92.374 Y138.663 E5.14789
G1 X92.375 Y135.574 E5.25063
G1 X92.385 Y134.908 E5.27279
G1 X92.412 Y134.295 E5.2932
G1 X92.422 Y134.154 E5.2979
G1 X92.465 Y133.68 E5.31373
G1 X92.491 Y133.453 E5.32133
G1 X92.534 Y133.129 E5.3322
G1 X92.566 Y132.908 E5.33962
G1 X92.619 Y132.575 E5.35084
G1 X92.651 Y132.392 E5.35702
G1 X93.06 Y129.852 E5.44259
G1 X93.385 Y127.386 E5.52532
G1 X93.651 Y124.81 E5.61145
G1 X93.835 Y122.348 E5.69356
G1 X93.952 Y119.83 E5.7774
G1 X93.997 Y117.307 E5.86133
G1 X93.972 Y114.81 E5.94439
G1 X93.874 Y112.264 E6.02913
G1 X93.709 Y109.8 E6.11127
G1 X93.465 Y107.234 E6.197
G1 X93.164 Y104.805 E6.2784
G1 X92.804 Y102.48 E6.35666
G1 X92.751 Y102.09 E6.36975
G1 X92.641 Y101.161 E6.40086
G1 X92.568 Y100.142 E6.43484
G1 X92.558 Y99.741 E6.44818
G1 X92.555 Y99.467 E6.4573
G1 X92.556 Y96.394 E6.5595
G1 X92.566 Y95.715 E6.58209
G1 X92.593 Y95.099 E6.6026
G1 X92.603 Y94.958 E6.6073
G1 X92.646 Y94.484 E6.62313
G1 X92.672 Y94.257 E6.63073
G1 X92.72 Y93.898 E6.64278
G1 X92.765 Y93.594 E6.653
G1 X92.941 Y92.673 E6.68418
G1 X93.113 Y92.035 E6.70616
G1 X93.24 Y91.613 E6.72082
G1 X93.721 Y90.315 E6.76686
G1 X93.789 Y90.162 E6.77243
G1 X94.198 Y89.338 E6.80302
G1 X94.44 Y88.897 E6.81976
G1 X94.925 Y88.095 E6.85093
G1 X95.412 Y87.42 E6.87861
G1 X95.654 Y87.11 E6.89169
G1 X96.364 Y86.288 E6.92782
G0 F6000 X96.653 Y86.564
G1 F1200 X96.735 Y86.478 E6.93177
G1 X97.099 Y86.115 E6.94887
G1 X97.265 Y85.957 E6.95649
G1 X97.878 Y85.417 E6.98366
G1 X99.824 Y83.831 E7.06716
G1 X100.584 Y83.18 E7.10044
G1 X100.778 Y83.017 E7.10887
G1 X101.259 Y82.624 E7.12953
G1 X101.558 Y82.389 E7.14218
G1 X101.898 Y82.131 E7.15637
G1 X102.167 Y81.934 E7.16746
G1 X102.426 Y81.75 E7.17803
G1 X102.669 Y81.582 E7.18786
G1 X102.796 Y81.497 E7.19294
G1 X103.344 Y81.154 E7.21444
G1 X103.895 Y80.832 E7.23567
G1 X104.15 Y80.688 E7.24541
G1 X104.338 Y80.585 E7.25254
G1 X104.661 Y80.415 E7.26468
G1 X105.039 Y80.229 E7.27869
G1 X105.338 Y80.088 E7.28969
G1 X105.737 Y79.909 E7.30423
G1 X105.891 Y79.844 E7.30979
G1 X106.277 Y79.69 E7.32361
G1 X107.047 Y79.4 E7.35098
G1 X107.852 Y79.133 E7.37919
G1 X108.137 Y79.051 E7.38905
G1 X108.509 Y78.952 E7.40186
G1 X109.144 Y78.794 E7.42362
G1 X109.837 Y78.646 E7.44719
G1 X110.301 Y78.563 E7.46287
G1 X110.632 Y78.509 E7.47402
G1 X110.837 Y78.479 E7.48091
G1 X111.177 Y78.435 E7.49231
G1 X111.697 Y78.376 E7.50972
G1 X112.619 Y78.312 E7.54046
G1 X113.123 Y78.299 E7.55723
G1 X113.396 Y78.295 E7.56631
G1 X113.677 Y78.295 E7.57566
G1 X114.054 Y78.302 E7.5882
G1 X114.728 Y78.326 E7.61063
G1 X115.701 Y78.405 E7.6431
G1 X116.176 Y78.466 E7.65903
G1 X116.473 Y78.509 E7.66901
G1 X117.039 Y78.598 E7.68806
G1 X117.701 Y78.724 E7.71048
G1 X117.934 Y78.776 E7.71842
G1 X118.414 Y78.895 E7.73487
G1 X118.817 Y79.01 E7.7488
G1 X119.845 Y79.326 E7.78457
G1 X120.992 Y79.753 E7.82528
G1 X121.707 Y80.067 E7.85126
G1 X122.331 Y80.366 E7.87427
G1 X122.716 Y80.566 E7.8887
G1 X123.092 Y80.77 E7.90293
G1 X123.697 Y81.116 E7.92611
G1 X124.507 Y81.629 E7.958
G1 X124.839 Y81.861 E7.97147
G1 X125.149 Y82.086 E7.98421
G1 X125.523 Y82.368 E7.99979
G1 X125.811 Y82.594 E8.01196
G1 X126.352 Y83.032 E8.03512
G1 X126.501 Y83.155 E8.04154
G1 X127.976 Y84.394 E8.10561
G1 X128.536 Y84.84 E8.12942
G1 X129.217 Y85.4 E8.15875
G1 X129.704 Y85.826 E8.18027
G1 X129.905 Y86.013 E8.1894
G1 X130.59 Y86.712 E8.22195
G1 X130.766 Y86.909 E8.23074
G1 X131.332 Y87.599 E8.26042
G1 X131.496 Y87.817 E8.26949
G1 X131.918 Y88.421 E8.294
G1 X131.966 Y88.495 E8.29693
G1 X132.274 Y89 E8.31661
G1 X132.409 Y89.236 E8.32565
G1 X132.756 Y89.895 E8.35042
G1 X132.837 Y90.063 E8.35662
G1 X133.201 Y90.909 E8.38726
G1 X133.397 Y91.474 E8.40715
G1 X133.578 Y92.047 E8.42713
G1 X133.817 Y92.936 E8.45775
G1 X133.988 Y93.925 E8.49113
G1 X134.053 Y94.445 E8.50856
G1 X134.091 Y94.792 E8.52017
G1 X134.115 Y95.057 E8.52902
G1 X134.388 Y97.644 E8.61555
G1 X134.721 Y100.132 E8.69903
G1 X135.133 Y102.661 E8.78426
G1 X135.603 Y105.103 E8.86697
G1 X136.147 Y107.556 E8.95054
G1 X136.993 Y110.864 E9.0641
G1 X137.399 Y112.334 E9.11483
G1 X137.544 Y112.9 E9.13426
G1 X137.597 Y113.117 E9.14169
G1 X137.694 Y113.539 E9.15609
G1 X137.89 Y114.668 E9.1942
G1 X137.919 Y114.913 E9.20241
G1 X137.957 Y115.304 E9.21548
G1 X138.023 Y116.13 E9.24304
G1 X138.061 Y116.718 E9.26263
G1 X138.067 Y117.986 E9.30481
G1 X138.02 Y118.838 E9.33319
G1 X137.988 Y119.259 E9.34723
G1 X137.91 Y120.078 E9.3746
G1 X137.712 Y121.342 E9.41715
G1 X137.529 Y122.177 E9.44558
G1 X137.454 Y122.496 E9.45648
G1 X137.311 Y123.064 E9.47596
G1 X137.23 Y123.368 E9.48643
G1 X136.872 Y124.629 E9.53002
G1 X136.197 Y127.147 E9.61673
G1 X135.607 Y129.618 E9.70123
G1 X135.096 Y132.078 E9.78479
G1 X134.645 Y134.593 E9.86978
G1 X134.279 Y137.027 E9.95164
G1 X133.842 Y140.797 E10.07787
G1 X133.702 Y141.707 E10.10849
G1 X133.544 Y142.386 E10.13168
G1 X133.454 Y142.722 E10.14325
G1 X133.182 Y143.587 E10.17341
G1 X133.123 Y143.75 E10.17917
G1 X132.764 Y144.618 E10.21042
G1 X132.607 Y144.955 E10.22278
G1 X132.158 Y145.815 E10.25505
G1 X132.038 Y146.021 E10.26298
G1 X131.489 Y146.868 E10.29655
G1 X131.303 Y147.127 E10.30716
G1 X130.585 Y148.021 E10.34529
G1 X130.368 Y148.263 E10.3561
G1 X129.633 Y149.005 E10.39084
G1 X129.432 Y149.189 E10.3999
G1 X128.988 Y149.573 E10.41943
G1 X126.981 Y151.216 E10.5057
G1 X126.714 Y151.444 E10.51737
G1 X125.914 Y152.11 E10.552
G1 X125.638 Y152.332 E10.56378
G1 X125.184 Y152.685 E10.5829
G1 X124.927 Y152.879 E10.59361
G1 X124.753 Y153.006 E10.60078
G1 X124.509 Y153.179 E10.61073
G1 X124.285 Y153.333 E10.61977
G1 X123.81 Y153.641 E10.6386
G1 X123.478 Y153.844 E10.65154
G1 X123.207 Y154.004 E10.66201
G1 X122.955 Y154.148 E10.67166
G1 X122.504 Y154.392 E10.68872
G1 X122.054 Y154.621 E10.70551
G1 X121.617 Y154.831 E10.72164
G1 X121.279 Y154.984 E10.73398
G1 X120.878 Y155.155 E10.74848
G1 X120.524 Y155.298 E10.76117
G1 X120.063 Y155.472 E10.77756
G1 X119.587 Y155.639 E10.79434
G1 X118.933 Y155.845 E10.81715
G1 X118.647 Y155.925 E10.82702
G1 X118.256 Y156.027 E10.84046
G1 X117.892 Y156.114 E10.85291
G1 X117.628 Y156.173 E10.86191
G1 X117.265 Y156.25 E10.87425
G1 X116.926 Y156.316 E10.88574
G1 X116.483 Y156.395 E10.9007
G1 X115.519 Y156.522 E10.93304
G1 X114.789 Y156.584 E10.95741
G1 X114.453 Y156.607 E10.96861
G1 X113.962 Y156.633 E10.98497
G1 X113.451 Y156.648 E11.00197
G1 X113.237 Y156.649 E11.00909
G1 X112.367 Y156.617 E11.03804
G1 X111.671 Y156.563 E11.06126
G1 X111.366 Y156.535 E11.07145
G1 X111.188 Y156.516 E11.0774
G1 X110.814 Y156.469 E11.08994
G1 X110.142 Y156.373 E11.11252
G1 X109.165 Y156.187 E11.1456
G1 X108.728 Y156.082 E11.16055
G1 X108.458 Y156.013 E11.16981
G1 X107.854 Y155.851 E11.19061
G1 X107.074 Y155.609 E11.21778
G1 X106.748 Y155.494 E11.22927
G1 X106.096 Y155.24 E11.25255
G1 X105.196 Y154.854 E11.28512
G1 X104.753 Y154.652 E11.30131
G1 X104.689 Y154.621 E11.30368
G1 X104.088 Y154.306 E11.32625
G1 X103.399 Y153.916 E11.35258
G1 X102.874 Y153.598 E11.37299
G1 X102.781 Y153.538 E11.37667
G1 X102.448 Y153.314 E11.39002
G1 X101.871 Y152.91 E11.41345
G1 X101.564 Y152.687 E11.42607
G1 X101.413 Y152.573 E11.43236
G1 X101.109 Y152.334 E11.44522
G1 X100.25 Y151.633 E11.4821
G1 X99.269 Y150.801 E11.52488
G1 X98.859 Y150.472 E11.54237
G1 X97.735 Y149.55 E11.59072
G1 X97.291 Y149.165 E11.61027
G1 X97.133 Y149.02 E11.6174
G1 X96.482 Y148.368 E11.64804
G1 X96.222 Y148.084 E11.66085
G1 X95.63 Y147.378 E11.6915
G1 X95.345 Y146.988 E11.70756
G1 X95.147 Y146.704 E11.71908
G1 X94.559 Y145.759 E11.75609
G1 X94.376 Y145.427 E11.7687
G1 X93.867 Y144.37 E11.80772
G1 X93.816 Y144.247 E11.81215
G1 X93.517 Y143.431 E11.84106
G1 X93.372 Y142.98 E11.85681
G1 X93.128 Y142.093 E11.88741
G1 X92.935 Y140.974 E11.92518
G1 X92.856 Y140.302 E11.94768
G1 X92.787 Y139.328 E11.98016
G1 X92.777 Y138.927 E11.9935
G1 X92.774 Y138.663 E12.00228
G1 X92.775 Y135.58 E12.10482
G1 X92.785 Y134.914 E12.12698
G1 X92.811 Y134.323 E12.14665
G1 X92.821 Y134.182 E12.15135
G1 X92.863 Y133.726 E12.16659
G1 X92.889 Y133.499 E12.17418
G1 X92.929 Y133.186 E12.18468
G1 X92.961 Y132.965 E12.19211
G1 X93.036 Y132.514 E12.20731
G1 X93.456 Y129.902 E12.2953
G1 X93.785 Y127.407 E12.37901
G1 X94.048 Y124.866 E12.46397
G1 X94.233 Y122.398 E12.54629
G1 X94.352 Y119.82 E12.63213
G1 X94.397 Y117.31 E12.71562
G1 X94.372 Y114.791 E12.79941
G1 X94.275 Y112.256 E12.88378
G1 X94.106 Y109.736 E12.96779
G1 X93.866 Y107.218 E13.05192
G1 X93.557 Y104.728 E13.13537
G1 X93.2 Y102.419 E13.21308
