;FLAVOR:Marlin
M117 Time Left 3h26m33s
;TIME:12393
;Filament used: 8.13166m
;Layer height: 0.16
;MINX:46.5
;MINY:86.5
;MINZ:0.2
;MAXX:188.5
;MAXY:148.493
;MAXZ:19.88
;POSTPROCESSED
;Generated with Cura_SteamEngine 4.8.0
M140 S60
M105
M190 S60
M104 S205
M105
M109 S205
M82 ;absolute extrusion mode
; Ender 3 Custom Start G-code
G92 E0 ; Reset Extruder
G28 ; Home all axes
; ***SET NEW E STEP *** (93 is factory value - 95 mine - start)
G90                          ; Force coordinates to be absolute relative to the origin
M92 E95 ;					 ; ***SET NEW E STEP *** (93 is factory value - 95 mine - end)
G90                          ; Force coordinates to be absolute relative to the origin
G28                          ; Home X/Y/Z axis
G92 E0 ; Reset Extruder
G28 ; Home all axes
G1 Z2.0 F3000 ; Move Z Axis up little to prevent scratching of Heat Bed
G1 X0.1 Y20 Z0.3 F5000.0 ; Move to start position
G1 X0.1 Y200.0 Z0.3 F1500.0 E15 ; Draw the first line
G1 X0.4 Y200.0 Z0.3 F5000.0 ; Move to side a little
G1 X0.4 Y20 Z0.3 F1500.0 E30 ; Draw the second line
G92 E0 ; Reset Extruder
G1 Z2.0 F3000 ; Move Z Axis up little to prevent scratching of Heat Bed
G1 X5 Y20 Z0.3 F5000.0 ; Move over to prevent blob squish
G92 E0
G92 E0
G1 F2700 E-5
;LAYER_COUNT:105
;LAYER:0
M107
G0 F6000 X52.734 Y98.599 Z0.2
;TYPE:SKIRT
G1 F2700 E0
G1 F1200 X53.596 Y98.229 E0.0312
G1 X54.486 Y97.933 E0.0624
G1 X55.398 Y97.714 E0.09359
G1 X56.325 Y97.573 E0.12478
G1 X57.201 Y97.513 E0.15398
G1 X57.522 Y97.504 E0.16466
G1 X57.83 Y97.5 E0.17491
G1 X91.833 Y97.5 E1.30585
G1 X94.441 Y97.463 E1.3926
G1 X96.962 Y97.356 E1.47653
G1 X99.457 Y97.179 E1.55972
G1 X101.957 Y96.931 E1.64328
G1 X104.45 Y96.612 E1.72687
G1 X106.943 Y96.221 E1.8108
G1 X109.433 Y95.758 E1.89504
G1 X111.897 Y95.228 E1.97887
G1 X114.299 Y94.639 E2.06113
G1 X116.755 Y93.963 E2.14585
G1 X119.165 Y93.225 E2.22968
G1 X121.557 Y92.418 E2.31365
G1 X123.897 Y91.555 E2.3966
G1 X126.253 Y90.609 E2.48104
G1 X128.551 Y89.609 E2.5644
G1 X130.83 Y88.541 E2.64811
G1 X131.826 Y88.04 E2.68519
G1 X132.676 Y87.625 E2.71665
G1 X133.535 Y87.25 E2.74782
G1 X134.424 Y86.949 E2.77904
G1 X135.335 Y86.726 E2.81023
G1 X136.261 Y86.58 E2.84141
G1 X137.167 Y86.515 E2.87162
G1 X137.495 Y86.505 E2.88254
G1 X137.83 Y86.5 E2.89368
G1 X174.793 Y86.5 E4.12308
G1 X175.562 Y86.51 E4.14866
G1 X176.537 Y86.568 E4.18114
G1 X176.864 Y86.602 E4.19208
G1 X177.633 Y86.71 E4.2179
G1 X178.008 Y86.776 E4.23057
G1 X178.924 Y86.977 E4.26176
G1 X180.088 Y87.357 E4.30249
G1 X180.268 Y87.427 E4.30891
G1 X181.397 Y87.941 E4.35017
G1 X181.692 Y88.096 E4.36125
G1 X182.503 Y88.568 E4.39246
G1 X183.168 Y89.028 E4.41936
G1 X183.347 Y89.162 E4.42679
G1 X184.073 Y89.756 E4.45799
G1 X184.74 Y90.403 E4.4889
G1 X185.082 Y90.764 E4.50544
G1 X185.698 Y91.472 E4.53665
G1 X186.183 Y92.128 E4.56379
G1 X186.284 Y92.276 E4.56975
G1 X186.779 Y93.073 E4.60095
G1 X187.201 Y93.902 E4.63189
G1 X187.394 Y94.324 E4.64732
G1 X187.748 Y95.193 E4.67853
G1 X188.133 Y96.531 E4.72484
G1 X188.2 Y96.835 E4.73519
G1 X188.397 Y98.042 E4.77587
G1 X188.423 Y98.287 E4.78407
G1 X188.482 Y99.248 E4.81609
G1 X188.5 Y100.329 E4.85205
G1 X188.499 Y124.913 E5.66971
G1 X188.489 Y125.639 E5.69386
G1 X188.453 Y126.391 E5.7189
G1 X188.445 Y126.488 E5.72214
G1 X188.313 Y127.504 E5.75622
G1 X188.218 Y128.04 E5.77432
G1 X188.015 Y128.955 E5.8055
G1 X187.6 Y130.205 E5.8493
G1 X187.55 Y130.33 E5.85378
G1 X187.164 Y131.189 E5.8851
G1 X187.001 Y131.513 E5.89717
G1 X186.544 Y132.332 E5.92836
G1 X185.884 Y133.288 E5.967
G1 X185.695 Y133.533 E5.97729
G1 X184.935 Y134.416 E6.01604
G1 X184.782 Y134.576 E6.0234
G1 X183.809 Y135.478 E6.06753
G1 X183.731 Y135.542 E6.07089
G1 X183.321 Y135.863 E6.08821
G1 X183.149 Y135.991 E6.09534
G1 X182.137 Y136.66 E6.13569
G1 X182.043 Y136.715 E6.13931
G1 X180.848 Y137.32 E6.18386
G1 X180.438 Y137.497 E6.19871
G1 X179.562 Y137.832 E6.2299
G1 X178.313 Y138.168 E6.27292
G1 X178.154 Y138.201 E6.27832
G1 X177.561 Y138.308 E6.29837
G1 X177.263 Y138.353 E6.30839
G1 X176.89 Y138.403 E6.32091
G1 X175.521 Y138.561 E6.36674
G1 X173.085 Y138.872 E6.44842
G1 X170.586 Y139.261 E6.53254
G1 X168.122 Y139.717 E6.61588
G1 X165.695 Y140.237 E6.69844
G1 X163.212 Y140.843 E6.78345
G1 X160.796 Y141.507 E6.86678
G1 X158.366 Y142.248 E6.95128
G1 X156.001 Y143.043 E7.03426
G1 X153.639 Y143.913 E7.11799
G1 X151.277 Y144.859 E7.20261
G1 X149.026 Y145.835 E7.28422
G1 X146.08 Y147.223 E7.39253
G1 X145.66 Y147.41 E7.40782
G1 X145.451 Y147.498 E7.41536
G1 X144.448 Y147.864 E7.45088
G1 X144.255 Y147.924 E7.4576
G1 X143.348 Y148.164 E7.4888
G1 X142.576 Y148.305 E7.5149
G1 X142.185 Y148.362 E7.52805
G1 X140.825 Y148.475 E7.57344
G1 X140.002 Y148.492 E7.60082
G1 X139.594 Y148.493 E7.61439
G1 X139.412 Y148.49 E7.62044
G1 X138.485 Y148.435 E7.65133
G1 X138.169 Y148.403 E7.66189
G1 X137.39 Y148.296 E7.68804
G1 X137.011 Y148.23 E7.70084
G1 X136.095 Y148.03 E7.73202
G1 X135.357 Y147.808 E7.75765
G1 X135.307 Y147.791 E7.75941
G1 X134.594 Y147.52 E7.78478
G1 X134.377 Y147.429 E7.79261
G1 X133.872 Y147.202 E7.81102
G1 X133.399 Y146.975 E7.82847
G1 X133.2 Y146.877 E7.83585
G1 X132.441 Y146.494 E7.86413
G1 X130.14 Y145.414 E7.94867
G1 X127.816 Y144.401 E8.03299
G1 X125.514 Y143.475 E8.11552
G1 X123.148 Y142.6 E8.19942
G1 X120.744 Y141.788 E8.28381
G1 X118.35 Y141.054 E8.3671
G1 X115.908 Y140.379 E8.45136
G1 X113.474 Y139.78 E8.53474
G1 X111.003 Y139.248 E8.6188
G1 X108.542 Y138.789 E8.70207
G1 X106.058 Y138.398 E8.7857
G1 X103.575 Y138.078 E8.86897
G1 X101.033 Y137.824 E8.95394
G1 X98.561 Y137.648 E9.03637
G1 X96.026 Y137.539 E9.12076
G1 X93.365 Y137.5 E9.20927
G1 X58.034 Y137.499 E10.38439
G1 X57.336 Y137.488 E10.40761
G1 X56.399 Y137.433 E10.43883
G1 X55.471 Y137.299 E10.47001
G1 X54.558 Y137.086 E10.50119
G1 X53.666 Y136.796 E10.53239
G1 X52.802 Y136.431 E10.56359
G1 X51.972 Y135.994 E10.59478
G1 X51.183 Y135.488 E10.62596
G1 X50.439 Y134.916 E10.65717
G1 X49.747 Y134.283 E10.68837
G1 X49.111 Y133.594 E10.71955
G1 X48.536 Y132.852 E10.75077
G1 X48.027 Y132.065 E10.78195
G1 X47.586 Y131.237 E10.81315
G1 X47.218 Y130.375 E10.84432
G1 X46.925 Y129.484 E10.87552
G1 X46.708 Y128.571 E10.90673
G1 X46.57 Y127.644 E10.9379
G1 X46.513 Y126.788 E10.96644
G1 X46.504 Y126.457 E10.97745
G1 X46.5 Y126.158 E10.9874
G1 X46.501 Y109.054 E11.55628
G1 X46.51 Y108.365 E11.5792
G1 X46.562 Y107.429 E11.61037
G1 X46.694 Y106.5 E11.64158
G1 X46.904 Y105.586 E11.67278
G1 X47.192 Y104.694 E11.70395
G1 X47.554 Y103.829 E11.73514
G1 X47.989 Y102.998 E11.76634
G1 X48.493 Y102.207 E11.79753
G1 X49.063 Y101.462 E11.82873
G1 X49.694 Y100.768 E11.85993
G1 X50.382 Y100.13 E11.89114
G1 X51.121 Y99.554 E11.9223
G1 X51.907 Y99.042 E11.9535
G1 X52.734 Y98.599 E11.9847
G0 F6000 X53.107 Y98.866
G1 F1200 X53.96 Y98.521 E12.01531
G1 X54.84 Y98.25 E12.04593
G1 X55.74 Y98.058 E12.07654
G1 X56.654 Y97.944 E12.10718
G1 X57.212 Y97.913 E12.12576
G1 X57.533 Y97.904 E12.13644
G1 X57.83 Y97.9 E12.14632
G1 X91.839 Y97.9 E13.27747
G1 X94.464 Y97.863 E13.36478
G1 X96.972 Y97.756 E13.44828
G1 X99.492 Y97.578 E13.5323
G1 X102.007 Y97.329 E13.61636
G1 X104.496 Y97.01 E13.69982
G1 X107.048 Y96.609 E13.78574
G1 X109.479 Y96.157 E13.86798
G1 X111.971 Y95.621 E13.95276
G1 X114.428 Y95.019 E14.0369
G1 X116.873 Y94.346 E14.12124
G1 X119.273 Y93.611 E14.20473
G1 X121.687 Y92.797 E14.28946
G1 X124.037 Y91.93 E14.37277
G1 X126.425 Y90.971 E14.45836
G1 X128.702 Y89.98 E14.54096
G1 X131.015 Y88.896 E14.62592
G1 X132.001 Y88.4 E14.66263
G1 X132.851 Y87.985 E14.69409
G1 X133.695 Y87.617 E14.72471
G1 X134.568 Y87.324 E14.75534
G1 X135.463 Y87.108 E14.78596
G1 X136.373 Y86.97 E14.81658
G1 X137.179 Y86.915 E14.84345
G1 X137.507 Y86.905 E14.85436
G1 X137.83 Y86.9 E14.8651
G1 X174.793 Y86.9 E16.0945
G1 X175.556 Y86.91 E16.11988
G1 X176.495 Y86.966 E16.15116
G1 X176.822 Y87 E16.1621
G1 X177.563 Y87.103 E16.18698
G1 X177.938 Y87.169 E16.19965
G1 X178.837 Y87.368 E16.23027
G1 X179.943 Y87.73 E16.26898
G1 X180.123 Y87.8 E16.2754
G1 X181.211 Y88.295 E16.31516
G1 X181.506 Y88.45 E16.32624
G1 X182.302 Y88.914 E16.35689
G1 X182.928 Y89.348 E16.38222
G1 X183.107 Y89.482 E16.38966
G1 X183.82 Y90.066 E16.42031
G1 X184.45 Y90.678 E16.44952
G1 X184.792 Y91.039 E16.46606
G1 X185.396 Y91.734 E16.49669
G1 X185.853 Y92.354 E16.52231
G1 X185.954 Y92.502 E16.52827
G1 X186.439 Y93.284 E16.55887
G1 X186.838 Y94.068 E16.58813
G1 X187.031 Y94.49 E16.60356
G1 X187.377 Y95.343 E16.63418
G1 X187.743 Y96.618 E16.6783
G1 X187.81 Y96.922 E16.68865
G1 X187.999 Y98.084 E16.72781
G1 X188.025 Y98.329 E16.736
G1 X188.082 Y99.256 E16.76689
G1 X188.1 Y100.329 E16.80259
G1 X188.099 Y124.907 E17.62006
G1 X188.089 Y125.633 E17.6442
G1 X188.054 Y126.358 E17.66835
G1 X188.046 Y126.455 E17.67158
G1 X187.919 Y127.434 E17.70442
G1 X187.824 Y127.97 E17.72252
G1 X187.624 Y128.869 E17.75316
G1 X187.229 Y130.057 E17.7948
G1 X187.179 Y130.182 E17.79927
G1 X186.806 Y131.009 E17.82945
G1 X186.643 Y131.333 E17.84151
G1 X186.194 Y132.137 E17.87214
G1 X185.567 Y133.044 E17.90881
G1 X185.378 Y133.289 E17.9191
G1 X184.646 Y134.14 E17.95644
G1 X184.493 Y134.3 E17.9638
G1 X183.556 Y135.169 E18.00631
G1 X183.478 Y135.233 E18.00966
G1 X183.082 Y135.542 E18.02637
G1 X182.91 Y135.67 E18.0335
G1 X181.935 Y136.315 E18.07238
G1 X181.841 Y136.37 E18.076
G1 X180.689 Y136.953 E18.11895
G1 X180.279 Y137.13 E18.1338
G1 X179.419 Y137.458 E18.16441
G1 X178.232 Y137.777 E18.20529
G1 X178.073 Y137.81 E18.2107
G1 X177.502 Y137.912 E18.22999
G1 X177.204 Y137.957 E18.24001
G1 X176.844 Y138.005 E18.25209
G1 X175.417 Y138.171 E18.29987
G1 X173.044 Y138.473 E18.37944
G1 X170.522 Y138.866 E18.46433
G1 X168.044 Y139.325 E18.54815
G1 X165.581 Y139.852 E18.63193
G1 X163.117 Y140.454 E18.71629
G1 X160.678 Y141.124 E18.80042
G1 X158.258 Y141.862 E18.88456
G1 X155.883 Y142.661 E18.96791
G1 X153.488 Y143.542 E19.05278
G1 X151.118 Y144.492 E19.13771
G1 X148.849 Y145.475 E19.21995
G1 X145.909 Y146.861 E19.32806
G1 X145.504 Y147.041 E19.3428
G1 X145.295 Y147.129 E19.35034
G1 X144.329 Y147.482 E19.38455
G1 X144.136 Y147.542 E19.39127
G1 X143.246 Y147.777 E19.42189
G1 X142.518 Y147.909 E19.4465
G1 X142.127 Y147.966 E19.45964
G1 X140.817 Y148.075 E19.50336
G1 X139.994 Y148.092 E19.53074
G1 X139.6 Y148.093 E19.54384
G1 X139.418 Y148.09 E19.5499
G1 X138.525 Y148.037 E19.57965
G1 X138.209 Y148.005 E19.59021
G1 X137.458 Y147.902 E19.61543
G1 X137.079 Y147.836 E19.62822
G1 X136.18 Y147.639 E19.65883
G1 X135.486 Y147.429 E19.68295
G1 X135.436 Y147.412 E19.6847
G1 X134.749 Y147.151 E19.70915
G1 X134.532 Y147.06 E19.71697
G1 X134.045 Y146.841 E19.73473
G1 X133.572 Y146.614 E19.75218
G1 X133.381 Y146.52 E19.75926
G1 X132.627 Y146.139 E19.78736
G1 X130.291 Y145.043 E19.87319
G1 X127.976 Y144.035 E19.95716
G1 X125.677 Y143.11 E20.03959
G1 X123.267 Y142.218 E20.12506
G1 X120.852 Y141.402 E20.20984
G1 X118.459 Y140.668 E20.29309
G1 X116.039 Y140 E20.37659
G1 X113.557 Y139.389 E20.46161
G1 X111.082 Y138.856 E20.54582
G1 X108.612 Y138.395 E20.62939
G1 X106.1 Y137.999 E20.71397
G1 X103.63 Y137.682 E20.79679
G1 X101.068 Y137.426 E20.88243
G1 X98.57 Y137.248 E20.96573
G1 X96.049 Y137.139 E21.04965
G1 X93.371 Y137.1 E21.13873
G1 X58.04 Y137.099 E22.31385
G1 X57.342 Y137.088 E22.33707
G1 X56.423 Y137.033 E22.36769
G1 X55.512 Y136.899 E22.39831
G1 X54.616 Y136.687 E22.42894
G1 X53.742 Y136.397 E22.45956
G1 X52.897 Y136.033 E22.49017
G1 X52.086 Y135.597 E22.52079
G1 X51.316 Y135.092 E22.55142
G1 X50.593 Y134.522 E22.58204
G1 X49.922 Y133.892 E22.61265
G1 X49.308 Y133.205 E22.6433
G1 X48.757 Y132.468 E22.6739
G1 X48.271 Y131.686 E22.70453
G1 X47.855 Y130.865 E22.73514
G1 X47.511 Y130.011 E22.76576
G1 X47.243 Y129.13 E22.79639
G1 X47.053 Y128.229 E22.82701
G1 X46.941 Y127.316 E22.85761
G1 X46.913 Y126.777 E22.87556
G1 X46.904 Y126.446 E22.88657
G1 X46.9 Y126.158 E22.89615
G1 X46.901 Y109.06 E23.46484
G1 X46.91 Y108.371 E23.48775
G1 X46.962 Y107.451 E23.5184
G1 X47.093 Y106.54 E23.54901
G1 X47.304 Y105.644 E23.57963
G1 X47.591 Y104.769 E23.61026
G1 X47.953 Y103.923 E23.64086
G1 X48.387 Y103.111 E23.67149
G1 X48.889 Y102.339 E23.70211
G1 X49.457 Y101.615 E23.73272
G1 X50.086 Y100.942 E23.76336
G1 X50.771 Y100.327 E23.79398
G1 X51.506 Y99.773 E23.82459
G1 X52.287 Y99.285 E23.85522
G1 X53.107 Y98.866 E23.88585
G0 F6000 X53.477 Y99.14
G1 F1200 X54.322 Y98.82 E23.9159
G1 X55.192 Y98.576 E23.94595
G1 X56.079 Y98.41 E23.97597
G1 X57.223 Y98.313 E24.01415
G1 X57.544 Y98.304 E24.02483
G1 X57.83 Y98.3 E24.03435
G1 X91.845 Y98.3 E25.16569
G1 X94.451 Y98.263 E25.25238
G1 X97.016 Y98.154 E25.33776
G1 X99.523 Y97.976 E25.42136
G1 X102.064 Y97.725 E25.50628
G1 X104.572 Y97.404 E25.59038
G1 X107.077 Y97.01 E25.67472
G1 X109.564 Y96.548 E25.75885
G1 X112.078 Y96.007 E25.84438
G1 X114.524 Y95.408 E25.92814
G1 X116.968 Y94.735 E26.01246
G1 X119.403 Y93.99 E26.09715
G1 X121.805 Y93.179 E26.18147
G1 X124.218 Y92.289 E26.26701
G1 X126.525 Y91.363 E26.34969
G1 X128.896 Y90.331 E26.4357
G1 X131.186 Y89.257 E26.51983
G1 X132.177 Y88.759 E26.55672
G1 X133.027 Y88.344 E26.58818
G1 X133.855 Y87.984 E26.61821
G1 X134.712 Y87.699 E26.64825
G1 X135.591 Y87.491 E26.67829
G1 X136.485 Y87.361 E26.70834
G1 X137.191 Y87.315 E26.73187
G1 X137.519 Y87.305 E26.74278
G1 X137.83 Y87.3 E26.75313
G1 X174.944 Y87.301 E27.98754
G1 X175.55 Y87.31 E28.0077
G1 X176.454 Y87.364 E28.03782
G1 X176.781 Y87.398 E28.04876
G1 X177.494 Y87.497 E28.0727
G1 X177.869 Y87.563 E28.08536
G1 X178.751 Y87.759 E28.11541
G1 X179.798 Y88.103 E28.15207
G1 X179.978 Y88.173 E28.15849
G1 X181.025 Y88.65 E28.19676
G1 X181.32 Y88.805 E28.20784
G1 X182.1 Y89.26 E28.23788
G1 X182.689 Y89.669 E28.26173
G1 X182.868 Y89.803 E28.26916
G1 X183.566 Y90.375 E28.29918
G1 X184.16 Y90.953 E28.32675
G1 X184.502 Y91.314 E28.34328
G1 X185.093 Y91.996 E28.3733
G1 X185.522 Y92.579 E28.39738
G1 X185.623 Y92.727 E28.40333
G1 X186.099 Y93.495 E28.43339
G1 X186.474 Y94.235 E28.46098
G1 X186.667 Y94.657 E28.47641
G1 X187.006 Y95.494 E28.50645
G1 X187.352 Y96.704 E28.54831
G1 X187.419 Y97.008 E28.55866
G1 X187.601 Y98.127 E28.59637
G1 X187.627 Y98.372 E28.60456
G1 X187.682 Y99.263 E28.63425
G1 X187.7 Y100.329 E28.66971
G1 X187.699 Y124.901 E29.48698
G1 X187.689 Y125.627 E29.51113
G1 X187.655 Y126.325 E29.53437
G1 X187.647 Y126.422 E29.53761
G1 X187.525 Y127.364 E29.5692
G1 X187.43 Y127.9 E29.58731
G1 X187.234 Y128.781 E29.61733
G1 X186.857 Y129.908 E29.65685
G1 X186.807 Y130.033 E29.66133
G1 X186.449 Y130.829 E29.69036
G1 X186.286 Y131.153 E29.70242
G1 X185.845 Y131.941 E29.73246
G1 X185.25 Y132.799 E29.76719
G1 X185.061 Y133.044 E29.77748
G1 X184.357 Y133.863 E29.8134
G1 X184.204 Y134.023 E29.82076
G1 X183.302 Y134.859 E29.86167
G1 X183.224 Y134.923 E29.86502
G1 X182.844 Y135.221 E29.88108
G1 X182.672 Y135.349 E29.88821
G1 X181.733 Y135.97 E29.92566
G1 X181.639 Y136.025 E29.92928
G1 X180.531 Y136.586 E29.97059
G1 X180.121 Y136.763 E29.98544
G1 X179.277 Y137.084 E30.01547
G1 X178.151 Y137.385 E30.05424
G1 X177.992 Y137.418 E30.05964
G1 X177.442 Y137.517 E30.07823
G1 X177.144 Y137.562 E30.08825
G1 X176.798 Y137.608 E30.09986
G1 X175.347 Y137.777 E30.14845
G1 X172.969 Y138.079 E30.22817
G1 X170.488 Y138.466 E30.31169
G1 X167.959 Y138.934 E30.39723
G1 X165.507 Y139.459 E30.48064
G1 X162.988 Y140.074 E30.56688
G1 X160.604 Y140.729 E30.64911
G1 X158.12 Y141.486 E30.73548
G1 X155.723 Y142.293 E30.8196
G1 X153.338 Y143.171 E30.90413
G1 X150.989 Y144.112 E30.98829
G1 X148.685 Y145.111 E31.07182
G1 X145.739 Y146.499 E31.18013
G1 X145.349 Y146.673 E31.19434
G1 X145.14 Y146.761 E31.20188
G1 X144.21 Y147.1 E31.2348
G1 X144.017 Y147.16 E31.24153
G1 X143.144 Y147.39 E31.27155
G1 X142.46 Y147.513 E31.29467
G1 X142.069 Y147.57 E31.30781
G1 X140.809 Y147.675 E31.34986
G1 X139.986 Y147.692 E31.37724
G1 X139.607 Y147.693 E31.38985
G1 X139.425 Y147.69 E31.3959
G1 X138.565 Y147.639 E31.42456
G1 X138.249 Y147.607 E31.43512
G1 X137.527 Y147.508 E31.45936
G1 X137.148 Y147.442 E31.47215
G1 X136.266 Y147.248 E31.50219
G1 X135.615 Y147.05 E31.52482
G1 X135.565 Y147.033 E31.52658
G1 X134.903 Y146.782 E31.55013
G1 X134.686 Y146.691 E31.55795
G1 X134.218 Y146.481 E31.57501
