;FLAVOR:Marlin
M117 Time Left 1h04m00s
;TIME:3840
;Filament used: 1.82788m
;Layer height: 0.12
;MINX:97
;MINY:77.75
;MINZ:0.2
;MAXX:138
;MAXY:157.249
;MAXZ:8.2
;POSTPROCESSED
;Generated with Cura_SteamEngine 4.7.1
M140 S60
M105
M190 S60
M104 S205
M105
M109 S205
M82 ;absolute extrusion mode
; Ender 3 Custom Start G-code
G92 E0 ; Reset Extruder
G28 ; Home all axes
; ***SET NEW E STEP *** (93 is factory value - 95 mine - start)
G90                          ; Force coordinates to be absolute relative to the origin
M92 E95 ;					 ; ***SET NEW E STEP *** (93 is factory value - 95 mine - end)
G90                          ; Force coordinates to be absolute relative to the origin
G28                          ; Home X/Y/Z axis
G92 E0 ; Reset Extruder								
G28 ; Home all axes		
G1 Z2.0 F3000 ; Move Z Axis up little to prevent scratching of Heat Bed
G1 X0.1 Y20 Z0.3 F5000.0 ; Move to start position
G1 X0.1 Y200.0 Z0.3 F1500.0 E15 ; Draw the first line
G1 X0.4 Y200.0 Z0.3 F5000.0 ; Move to side a little
G1 X0.4 Y20 Z0.3 F1500.0 E30 ; Draw the second line
G92 E0 ; Reset Extruder
G1 Z2.0 F3000 ; Move Z Axis up little to prevent scratching of Heat Bed
G1 X5 Y20 Z0.3 F5000.0 ; Move over to prevent blob squish
G92 E0
G92 E0
G1 F3000 E-4
;LAYER_COUNT:66
;LAYER:0
M107
M204 S500
M205 X8 Y8
G1 F300 Z0.4
G0 F7500 X100.922 Y83.91 Z0.4
;TYPE:SKIRT
G1 F300 Z0.2
G1 F3000 E0
G1 F1500 X100.97 Y83.853 E0.00235
G1 X101.59 Y83.176 E0.03136
G1 X102.08 Y82.684 E0.0533
G1 X102.295 Y82.474 E0.0628
G1 X102.62 Y82.165 E0.07697
G1 X103.21 Y81.642 E0.10188
G1 X103.351 Y81.526 E0.10765
G1 X104.379 Y80.776 E0.14786
G1 X105.097 Y80.313 E0.17485
G1 X105.451 Y80.094 E0.188
G1 X105.77 Y79.905 E0.19972
G1 X106.55 Y79.485 E0.22771
G1 X106.636 Y79.443 E0.23074
G1 X107.438 Y79.09 E0.25842
G1 X107.672 Y78.998 E0.26637
G1 X107.916 Y78.905 E0.27462
G1 X108.069 Y78.849 E0.27977
G1 X108.336 Y78.755 E0.28871
G1 X109.045 Y78.516 E0.31235
G1 X109.81 Y78.289 E0.33756
G1 X109.903 Y78.265 E0.3406
G1 X111.222 Y78.009 E0.38305
G1 X111.695 Y77.947 E0.39813
G1 X112.189 Y77.889 E0.41384
G1 X112.821 Y77.823 E0.43392
G1 X113.786 Y77.765 E0.46447
G1 X114.65 Y77.751 E0.49177
G1 X120.293 Y77.75 E0.67007
G1 X121.021 Y77.759 E0.69308
G1 X121.693 Y77.789 E0.71433
G1 X122.358 Y77.839 E0.7354
G1 X122.778 Y77.879 E0.74873
G1 X123.375 Y77.947 E0.76772
G1 X124.301 Y78.092 E0.79733
G1 X125.023 Y78.263 E0.82078
G1 X125.764 Y78.465 E0.84505
G1 X126.117 Y78.568 E0.85667
G1 X126.444 Y78.669 E0.86748
G1 X127.531 Y79.068 E0.90407
G1 X127.566 Y79.083 E0.90527
G1 X128.139 Y79.348 E0.92522
G1 X128.709 Y79.632 E0.94534
G1 X129.029 Y79.799 E0.95674
G1 X129.442 Y80.022 E0.97158
G1 X130.304 Y80.54 E1.00335
G1 X130.462 Y80.645 E1.00935
G1 X131.129 Y81.125 E1.03531
G1 X131.458 Y81.381 E1.04848
G1 X131.714 Y81.586 E1.05885
G1 X132.067 Y81.878 E1.07332
G1 X132.541 Y82.293 E1.09323
G1 X132.709 Y82.449 E1.10047
G1 X133.365 Y83.113 E1.12996
G1 X133.524 Y83.288 E1.13743
G1 X133.696 Y83.481 E1.1456
G1 X133.774 Y83.571 E1.14937
G1 X133.958 Y83.789 E1.15838
G1 X134.277 Y84.177 E1.17425
G1 X134.7 Y84.727 E1.19617
G1 X134.928 Y85.043 E1.20849
G1 X135.511 Y85.939 E1.24226
G1 X135.655 Y86.186 E1.2513
G1 X135.854 Y86.542 E1.26418
G1 X136.103 Y87.008 E1.28088
G1 X136.417 Y87.645 E1.30332
G1 X136.575 Y87.993 E1.31539
G1 X136.932 Y88.879 E1.34558
G1 X137.052 Y89.235 E1.35745
G1 X137.16 Y89.574 E1.36869
G1 X137.239 Y89.834 E1.37728
G1 X137.418 Y90.448 E1.39748
G1 X137.7 Y91.67 E1.43711
G1 X137.737 Y91.886 E1.44403
G1 X137.829 Y92.542 E1.46496
G1 X137.878 Y92.988 E1.47914
G1 X137.907 Y93.286 E1.4886
G1 X137.941 Y93.699 E1.5017
G1 X137.976 Y94.39 E1.52356
G1 X137.998 Y95.53 E1.55959
G1 X138 Y95.742 E1.56628
G1 X137.999 Y139.667 E2.95419
G1 X137.992 Y140.194 E2.97084
G1 X137.96 Y140.901 E2.9932
G1 X137.883 Y141.891 E3.02458
G1 X137.845 Y142.289 E3.03721
G1 X137.803 Y142.656 E3.04888
G1 X137.756 Y143.01 E3.06017
G1 X137.584 Y143.932 E3.0898
G1 X137.432 Y144.518 E3.10893
G1 X137.26 Y145.111 E3.12844
G1 X137.166 Y145.418 E3.13858
G1 X137.025 Y145.856 E3.15312
G1 X136.7 Y146.735 E3.18274
G1 X136.346 Y147.497 E3.20928
G1 X135.936 Y148.298 E3.23772
G1 X135.742 Y148.661 E3.25072
G1 X135.7 Y148.736 E3.25344
G1 X135.352 Y149.314 E3.27475
G1 X135.157 Y149.617 E3.28614
G1 X134.547 Y150.472 E3.31933
G1 X134.168 Y150.953 E3.33868
G1 X133.938 Y151.235 E3.35017
G1 X133.707 Y151.509 E3.3615
G1 X133.246 Y152.022 E3.38329
G1 X133.18 Y152.091 E3.38631
G1 X132.37 Y152.857 E3.42153
G1 X131.914 Y153.246 E3.44047
G1 X131.673 Y153.446 E3.45037
G1 X131.432 Y153.64 E3.46014
G1 X130.891 Y154.048 E3.48155
G1 X130.593 Y154.259 E3.49309
G1 X129.736 Y154.808 E3.52525
G1 X129.542 Y154.92 E3.53233
G1 X129.269 Y155.073 E3.54222
G1 X129.078 Y155.175 E3.54906
G1 X128.482 Y155.486 E3.5703
G1 X127.759 Y155.83 E3.5956
G1 X127.574 Y155.91 E3.60197
G1 X126.576 Y156.286 E3.63566
G1 X126.262 Y156.387 E3.64609
G1 X125.959 Y156.479 E3.65609
G1 X125.249 Y156.685 E3.67945
G1 X124.338 Y156.908 E3.70909
G1 X123.652 Y157.023 E3.73106
G1 X123.321 Y157.065 E3.74161
G1 X122.916 Y157.111 E3.75448
G1 X122.622 Y157.14 E3.76382
G1 X121.939 Y157.199 E3.78548
G1 X121.326 Y157.235 E3.80488
G1 X121.03 Y157.244 E3.81424
G1 X120.698 Y157.249 E3.82473
G1 X114.549 Y157.249 E4.01902
G1 X113.851 Y157.239 E4.04108
G1 X113.223 Y157.212 E4.06094
G1 X112.846 Y157.185 E4.07288
G1 X112.546 Y157.159 E4.0824
G1 X112.274 Y157.131 E4.09104
G1 X111.673 Y157.063 E4.11015
G1 X110.34 Y156.829 E4.15291
G1 X110.186 Y156.792 E4.15792
G1 X109.771 Y156.683 E4.17147
G1 X109.058 Y156.482 E4.19488
G1 X108.736 Y156.386 E4.2055
G1 X108.46 Y156.299 E4.21464
G1 X107.155 Y155.794 E4.25886
G1 X106.932 Y155.691 E4.26662
G1 X106.516 Y155.489 E4.28123
G1 X106.265 Y155.36 E4.29015
G1 X106.027 Y155.234 E4.29865
G1 X105.497 Y154.945 E4.31773
G1 X104.973 Y154.64 E4.33689
G1 X104.931 Y154.614 E4.33845
G1 X103.976 Y153.95 E4.3752
G1 X103.471 Y153.558 E4.3954
G1 X103.217 Y153.355 E4.40567
G1 X102.869 Y153.068 E4.41993
G1 X102.172 Y152.441 E4.44955
G1 X101.549 Y151.779 E4.47827
G1 X100.914 Y151.045 E4.50894
G1 X100.64 Y150.715 E4.52249
G1 X100.445 Y150.471 E4.53236
G1 X99.815 Y149.599 E4.56635
G1 X99.776 Y149.539 E4.56861
G1 X99.4 Y148.916 E4.59161
G1 X99.156 Y148.48 E4.60739
G1 X98.999 Y148.189 E4.61784
G1 X98.874 Y147.949 E4.62639
G1 X98.712 Y147.625 E4.63784
G1 X98.559 Y147.306 E4.64902
G1 X98.045 Y146.037 E4.69228
G1 X97.833 Y145.403 E4.7134
G1 X97.725 Y145.063 E4.72467
G1 X97.613 Y144.688 E4.73704
G1 X97.383 Y143.779 E4.76666
G1 X97.236 Y142.888 E4.7952
G1 X97.116 Y141.916 E4.82614
G1 X97.062 Y141.372 E4.84342
G1 X97.042 Y141.099 E4.85207
G1 X97.014 Y140.47 E4.87196
G1 X97.001 Y139.653 E4.89778
G1 X97 Y95.457 E6.29425
G1 X97.01 Y94.652 E6.31968
G1 X97.039 Y93.986 E6.34075
G1 X97.061 Y93.691 E6.35009
G1 X97.086 Y93.412 E6.35894
G1 X97.127 Y93.003 E6.37193
G1 X97.16 Y92.711 E6.38122
G1 X97.245 Y92.043 E6.40249
G1 X97.403 Y91.119 E6.43211
G1 X97.742 Y89.893 E6.47231
G1 X98.024 Y89.063 E6.5
G1 X98.137 Y88.747 E6.51061
G1 X98.311 Y88.282 E6.5263
G1 X98.676 Y87.418 E6.55593
G1 X99.253 Y86.358 E6.59406
G1 X99.75 Y85.553 E6.62396
G1 X99.974 Y85.205 E6.63703
G1 X100.2 Y84.868 E6.64986
G1 X100.441 Y84.549 E6.66249
G0 F1350 X100.922 Y83.91
G0 F7500 X101.228 Y84.167
G1 F1500 X101.276 Y84.11 E6.66484
G1 X101.873 Y83.458 E6.69278
G1 X102.363 Y82.966 E6.71472
G1 X102.57 Y82.764 E6.72385
G1 X102.895 Y82.455 E6.73802
G1 X103.465 Y81.951 E6.76207
G1 X103.606 Y81.835 E6.76783
G1 X104.595 Y81.113 E6.80653
G1 X105.313 Y80.65 E6.83352
G1 X105.655 Y80.438 E6.84623
G1 X105.974 Y80.249 E6.85795
G1 X106.725 Y79.844 E6.88491
G1 X106.811 Y79.802 E6.88793
G1 X107.584 Y79.462 E6.91462
G1 X107.818 Y79.37 E6.92256
G1 X108.207 Y79.225 E6.93568
G1 X108.464 Y79.134 E6.94429
G1 X109.173 Y78.895 E6.96793
G1 X109.91 Y78.676 E6.99223
G1 X110.003 Y78.652 E6.99526
G1 X111.274 Y78.406 E7.03617
G1 X111.747 Y78.344 E7.05124
G1 X112.231 Y78.287 E7.06664
G1 X112.863 Y78.221 E7.08672
G1 X113.792 Y78.165 E7.11612
G1 X114.656 Y78.151 E7.14343
G1 X120.293 Y78.15 E7.32154
G1 X121.015 Y78.159 E7.34436
G1 X121.663 Y78.188 E7.36485
G1 X122.328 Y78.238 E7.38592
G1 X122.733 Y78.276 E7.39878
G1 X123.33 Y78.344 E7.41776
G1 X124.239 Y78.488 E7.44684
G1 X124.918 Y78.649 E7.46889
G1 X125.659 Y78.851 E7.49316
G1 X125.999 Y78.95 E7.50435
G1 X126.326 Y79.051 E7.51516
G1 X127.374 Y79.436 E7.55044
G1 X127.409 Y79.451 E7.55164
G1 X127.96 Y79.706 E7.57083
G1 X128.53 Y79.99 E7.59095
G1 X128.839 Y80.151 E7.60196
G1 X129.252 Y80.374 E7.61679
G1 X130.083 Y80.873 E7.64742
G1 X130.241 Y80.978 E7.65341
G1 X130.884 Y81.44 E7.67843
G1 X131.213 Y81.696 E7.6916
G1 X131.459 Y81.894 E7.70158
G1 X131.812 Y82.186 E7.71605
G1 X132.269 Y82.586 E7.73524
G1 X132.437 Y82.742 E7.74249
G1 X133.069 Y83.382 E7.77091
G1 X133.228 Y83.557 E7.77838
G1 X133.471 Y83.833 E7.79
G1 X133.649 Y84.043 E7.79869
G1 X133.968 Y84.431 E7.81457
G1 X134.376 Y84.961 E7.8357
G1 X134.604 Y85.277 E7.84801
G1 X135.165 Y86.14 E7.88054
G1 X135.309 Y86.387 E7.88957
G1 X135.501 Y86.73 E7.90199
G1 X135.75 Y87.196 E7.91868
G1 X136.053 Y87.81 E7.94032
G1 X136.211 Y88.158 E7.95239
G1 X136.555 Y89.012 E7.98149
G1 X136.671 Y89.356 E7.99296
G1 X136.779 Y89.695 E8.0042
G1 X136.855 Y89.946 E8.01248
G1 X137.034 Y90.56 E8.03269
G1 X137.306 Y91.737 E8.07086
G1 X137.343 Y91.953 E8.07779
G1 X137.432 Y92.585 E8.09795
G1 X137.481 Y93.031 E8.11213
G1 X137.508 Y93.319 E8.12127
G1 X137.542 Y93.732 E8.13436
G1 X137.576 Y94.397 E8.1554
G1 X137.598 Y95.537 E8.19143
G1 X137.6 Y95.742 E8.19791
G1 X137.599 Y139.662 E9.58566
G1 X137.592 Y140.189 E9.60231
G1 X137.561 Y140.87 E9.62385
G1 X137.484 Y141.86 E9.65522
G1 X137.447 Y142.243 E9.66738
G1 X137.405 Y142.61 E9.67905
G1 X137.36 Y142.953 E9.68998
G1 X137.191 Y143.858 E9.71907
G1 X137.047 Y144.407 E9.73701
G1 X136.875 Y145 E9.75652
G1 X136.785 Y145.295 E9.76626
G1 X136.644 Y145.733 E9.7808
G1 X136.324 Y146.596 E9.80988
G1 X135.99 Y147.315 E9.83493
G1 X135.58 Y148.116 E9.86337
G1 X135.393 Y148.465 E9.87588
G1 X135.351 Y148.54 E9.87859
G1 X135.016 Y149.097 E9.89913
G1 X134.821 Y149.4 E9.91052
G1 X134.233 Y150.224 E9.9425
G1 X133.854 Y150.705 E9.96185
G1 X133.632 Y150.977 E9.97294
G1 X133.401 Y151.251 E9.98427
G1 X132.957 Y151.746 E10.00528
G1 X132.891 Y151.815 E10.00829
G1 X132.11 Y152.552 E10.04223
G1 X131.654 Y152.941 E10.06116
G1 X131.422 Y153.134 E10.0707
G1 X131.181 Y153.328 E10.08047
G1 X130.659 Y153.722 E10.10114
G1 X130.361 Y153.933 E10.11268
G1 X129.536 Y154.462 E10.14364
G1 X129.342 Y154.574 E10.15072
G1 X129.077 Y154.722 E10.16031
G1 X128.893 Y154.821 E10.16691
G1 X128.297 Y155.132 E10.18816
G1 X127.6 Y155.463 E10.21254
G1 X127.415 Y155.543 E10.2189
G1 X126.454 Y155.905 E10.25135
G1 X126.14 Y156.006 E10.26177
G1 X125.848 Y156.095 E10.27142
G1 X125.138 Y156.301 E10.29478
G1 X124.243 Y156.519 E10.32388
G1 X123.598 Y156.626 E10.34454
G1 X123.276 Y156.667 E10.3548
G1 X122.871 Y156.713 E10.36768
G1 X122.587 Y156.742 E10.3767
G1 X121.904 Y156.801 E10.39836
G1 X121.314 Y156.835 E10.41703
G1 X121.018 Y156.844 E10.42639
G1 X120.698 Y156.849 E10.4365
G1 X114.555 Y156.849 E10.6306
G1 X113.857 Y156.839 E10.65266
G1 X113.252 Y156.813 E10.6718
G1 X112.875 Y156.786 E10.68374
G1 X112.586 Y156.761 E10.6929
G1 X112.319 Y156.734 E10.70138
G1 X111.718 Y156.666 E10.72049
G1 X110.434 Y156.44 E10.76169
G1 X110.28 Y156.403 E10.76669
G1 X109.88 Y156.298 E10.77976
G1 X109.167 Y156.097 E10.80317
G1 X108.856 Y156.005 E10.81341
G1 X108.58 Y155.918 E10.82256
G1 X107.322 Y155.431 E10.86518
G1 X107.099 Y155.328 E10.87294
G1 X106.699 Y155.133 E10.887
G1 X106.448 Y155.004 E10.89592
G1 X106.218 Y154.882 E10.90415
G1 X105.688 Y154.593 E10.92322
G1 X105.184 Y154.3 E10.94164
G1 X105.142 Y154.274 E10.9432
G1 X104.221 Y153.634 E10.97864
G1 X103.716 Y153.242 E10.99884
G1 X103.472 Y153.047 E11.00871
G1 X103.124 Y152.76 E11.02296
G1 X102.44 Y152.144 E11.05205
G1 X101.852 Y151.517 E11.07921
G1 X101.217 Y150.783 E11.10987
G1 X100.952 Y150.466 E11.12293
G1 X100.757 Y150.222 E11.1328
G1 X100.15 Y149.381 E11.16557
G1 X100.111 Y149.321 E11.16783
G1 X99.749 Y148.721 E11.18997
G1 X99.505 Y148.285 E11.20576
G1 X99.354 Y148.005 E11.21581
G1 X99.229 Y147.765 E11.22436
G1 X99.072 Y147.452 E11.23543
G1 X98.919 Y147.133 E11.24661
G1 X98.424 Y145.911 E11.28826
G1 X98.212 Y145.277 E11.30939
G1 X98.108 Y144.948 E11.32029
G1 X97.996 Y144.573 E11.33266
G1 X97.771 Y143.681 E11.36172
G1 X97.633 Y142.839 E11.38868
G1 X97.513 Y141.867 E11.41963
G1 X97.461 Y141.342 E11.4363
G1 X97.441 Y141.069 E11.44495
G1 X97.414 Y140.464 E11.46408
G1 X97.401 Y139.647 E11.4899
G1 X97.4 Y95.457 E12.88618
G1 X97.41 Y94.658 E12.91143
G1 X97.438 Y94.016 E12.93173
G1 X97.46 Y93.721 E12.94108
G1 X97.484 Y93.452 E12.94961
G1 X97.525 Y93.043 E12.9626
G1 X97.557 Y92.762 E12.97154
G1 X97.642 Y92.094 E12.99281
G1 X97.798 Y91.187 E13.02189
G1 X98.12 Y90.022 E13.06008
G1 X98.402 Y89.192 E13.08778
G1 X98.511 Y88.887 E13.09801
G1 X98.685 Y88.422 E13.1137
G1 X99.045 Y87.575 E13.14278
G1 X99.594 Y86.568 E13.17902
G1 X100.091 Y85.763 E13.20891
G1 X100.306 Y85.428 E13.22149
G1 X100.532 Y85.091 E13.23431
G1 X100.747 Y84.806 E13.24559
G0 F1350 X101.228 Y84.167
G0 F7500 X101.534 Y84.425
G1 F1500 X101.582 Y84.368 E13.24795
G1 X102.157 Y83.74 E13.27485
G1 X102.647 Y83.248 E13.29679
G1 X102.846 Y83.054 E13.30557
G1 X103.171 Y82.745 E13.31974
G1 X103.719 Y82.26 E13.34287
G1 X103.86 Y82.144 E13.34864
G1 X104.812 Y81.449 E13.38588
G1 X105.53 Y80.986 E13.41287
G1 X105.859 Y80.783 E13.42509
G1 X106.178 Y80.594 E13.4368
G1 X106.901 Y80.204 E13.46276
G1 X106.987 Y80.162 E13.46578
G1 X107.731 Y79.834 E13.49148
G1 X107.965 Y79.742 E13.49942
G1 X108.191 Y79.656 E13.50706
G1 X108.344 Y79.6 E13.51221
G1 X108.592 Y79.513 E13.52051
G1 X109.301 Y79.274 E13.54415
G1 X110.01 Y79.064 E13.56752
G1 X110.103 Y79.04 E13.57055
G1 X111.326 Y78.803 E13.60992
G1 X111.95 Y78.722 E13.6298
G1 X112.273 Y78.685 E13.64007
G1 X112.905 Y78.619 E13.66015
G1 X113.799 Y78.565 E13.68845
G1 X114.663 Y78.551 E13.71575
G1 X120.293 Y78.55 E13.89364
G1 X121.01 Y78.559 E13.9163
G1 X121.633 Y78.587 E13.936
G1 X122.298 Y78.637 E13.95708
G1 X122.687 Y78.674 E13.96942
G1 X123.284 Y78.742 E13.98841
G1 X124.176 Y78.883 E14.01694
G1 X124.813 Y79.035 E14.03764
G1 X125.554 Y79.237 E14.0619
G1 X125.881 Y79.332 E14.07266
G1 X126.208 Y79.433 E14.08348
G1 X127.216 Y79.804 E14.11742
G1 X127.782 Y80.064 E14.1371
G1 X128.352 Y80.348 E14.15722
G1 X128.649 Y80.503 E14.1678
G1 X129.062 Y80.726 E14.18263
G1 X129.862 Y81.206 E14.21211
G1 X130.02 Y81.311 E14.21811
G1 X130.638 Y81.756 E14.24217
G1 X130.967 Y82.012 E14.25534
G1 X131.204 Y82.202 E14.26494
G1 X131.557 Y82.494 E14.27941
G1 X131.997 Y82.88 E14.29791
G1 X132.165 Y83.036 E14.30515
G1 X132.773 Y83.651 E14.33248
G1 X132.932 Y83.826 E14.33995
G1 X133.169 Y84.095 E14.35128
G1 X133.34 Y84.297 E14.35964
G1 X133.659 Y84.685 E14.37551
G1 X134.052 Y85.195 E14.39585
G1 X134.28 Y85.511 E14.40817
G1 X134.82 Y86.342 E14.43948
G1 X134.964 Y86.589 E14.44851
G1 X135.148 Y86.919 E14.46045
G1 X135.397 Y87.385 E14.47715
G1 X135.689 Y87.975 E14.49795
G1 X135.847 Y88.323 E14.51002
G1 X136.178 Y89.145 E14.53802
G1 X136.29 Y89.478 E14.54912
G1 X136.398 Y89.817 E14.56037
G1 X136.471 Y90.058 E14.56832
G1 X136.65 Y90.672 E14.58853
G1 X136.912 Y91.805 E14.62528
G1 X136.949 Y92.021 E14.6322
G1 X137.034 Y92.629 E14.6516
G1 X137.083 Y93.075 E14.66578
G1 X137.11 Y93.352 E14.67457
G1 X137.144 Y93.765 E14.68766
G1 X137.176 Y94.405 E14.70791
G1 X137.198 Y95.545 E14.74394
G1 X137.2 Y95.742 E14.75016
G1 X137.199 Y139.656 E16.13772
G1 X137.192 Y140.183 E16.15437
G1 X137.162 Y140.839 E16.17512
G1 X137.085 Y141.829 E16.2065
G1 X137.05 Y142.198 E16.21821
G1 X137.008 Y142.565 E16.22988
G1 X136.964 Y142.896 E16.24043
G1 X136.797 Y143.784 E16.26898
G1 X136.663 Y144.295 E16.28567
G1 X136.491 Y144.888 E16.30518
G1 X136.404 Y145.173 E16.3146
G1 X136.263 Y145.611 E16.32914
G1 X135.949 Y146.457 E16.35765
G1 X135.634 Y147.133 E16.38121
G1 X135.224 Y147.934 E16.40965
G1 X135.044 Y148.27 E16.42169
G1 X135.002 Y148.345 E16.42441
G1 X134.679 Y148.881 E16.44418
G1 X134.484 Y149.184 E16.45557
G1 X133.919 Y149.977 E16.48633
