;FLAVOR:Marlin
M117 Time Left 0h40m31s
;TIME:2431
;Filament used: 1.12045m
;Layer height: 0.12
;MINX:97
;MINY:77.75
;MINZ:0.2
;MAXX:138
;MAXY:157.25
;MAXZ:5.2
;POSTPROCESSED
;Generated with Cura_SteamEngine 4.7.1
M140 S60
M105
M190 S60
M104 S205
M105
M109 S205
M82 ;absolute extrusion mode
; Ender 3 Custom Start G-code
G92 E0 ; Reset Extruder
G28 ; Home all axes
; ***SET NEW E STEP *** (93 is factory value - 95 mine - start)
G90                          ; Force coordinates to be absolute relative to the origin
M92 E95 ;					 ; ***SET NEW E STEP *** (93 is factory value - 95 mine - end)
G90                          ; Force coordinates to be absolute relative to the origin
G28                          ; Home X/Y/Z axis
G92 E0 ; Reset Extruder								
G28 ; Home all axes		
G1 Z2.0 F3000 ; Move Z Axis up little to prevent scratching of Heat Bed
G1 X0.1 Y20 Z0.3 F5000.0 ; Move to start position
G1 X0.1 Y200.0 Z0.3 F1500.0 E15 ; Draw the first line
G1 X0.4 Y200.0 Z0.3 F5000.0 ; Move to side a little
G1 X0.4 Y20 Z0.3 F1500.0 E30 ; Draw the second line
G92 E0 ; Reset Extruder
G1 Z2.0 F3000 ; Move Z Axis up little to prevent scratching of Heat Bed
G1 X5 Y20 Z0.3 F5000.0 ; Move over to prevent blob squish
G92 E0
G92 E0
G1 F3000 E-4
;LAYER_COUNT:41
;LAYER:0
M107
M204 S500
M205 X8 Y8
G1 F300 Z0.4
G0 F7500 X100.847 Y84.023 Z0.4
;TYPE:SKIRT
G1 F300 Z0.2
G1 F3000 E0
G1 F1500 X101.141 Y83.68 E0.01427
G1 X101.337 Y83.458 E0.02363
G1 X101.775 Y82.974 E0.04426
G1 X102.433 Y82.306 E0.07388
G1 X103.166 Y81.681 E0.10432
G1 X103.743 Y81.231 E0.12744
G1 X104.03 Y81.015 E0.13879
G1 X104.369 Y80.768 E0.15204
G1 X105.15 Y80.248 E0.18169
G1 X105.558 Y80.013 E0.19657
G1 X105.775 Y79.894 E0.20439
G1 X106.145 Y79.7 E0.21759
G1 X106.361 Y79.592 E0.22522
G1 X106.566 Y79.492 E0.23243
G1 X107.11 Y79.234 E0.25145
G1 X107.665 Y78.99 E0.27061
G1 X107.736 Y78.961 E0.27303
G1 X108.814 Y78.584 E0.30911
G1 X109.383 Y78.418 E0.32784
G1 X109.694 Y78.332 E0.33804
G1 X110.136 Y78.217 E0.35247
G1 X111.053 Y78.02 E0.3821
G1 X111.883 Y77.911 E0.40856
G1 X112.418 Y77.861 E0.42553
G1 X112.653 Y77.836 E0.433
G1 X112.956 Y77.808 E0.44262
G1 X113.096 Y77.797 E0.44705
G1 X113.785 Y77.764 E0.46885
G1 X114.613 Y77.751 E0.49501
G1 X120.293 Y77.75 E0.67449
G1 X120.457 Y77.751 E0.67967
G1 X121.061 Y77.76 E0.69875
G1 X121.71 Y77.789 E0.71928
G1 X122.493 Y77.847 E0.74409
G1 X122.866 Y77.881 E0.75592
G1 X123.281 Y77.926 E0.76911
G1 X124.559 Y78.142 E0.81007
G1 X124.733 Y78.182 E0.81571
G1 X125.163 Y78.29 E0.82972
G1 X125.471 Y78.374 E0.83981
G1 X125.75 Y78.454 E0.84898
G1 X126.301 Y78.62 E0.86716
G1 X127.37 Y79.003 E0.90304
G1 X127.437 Y79.031 E0.90533
G1 X127.994 Y79.282 E0.92464
G1 X128.487 Y79.521 E0.94195
G1 X128.759 Y79.658 E0.95157
G1 X129.246 Y79.911 E0.96891
G1 X130.164 Y80.445 E1.00247
G1 X130.221 Y80.482 E1.00462
G1 X130.847 Y80.92 E1.02876
G1 X131.312 Y81.27 E1.04715
G1 X131.569 Y81.469 E1.05742
G1 X131.884 Y81.721 E1.07016
G1 X132.401 Y82.162 E1.09163
G1 X132.551 Y82.298 E1.09803
G1 X133.22 Y82.959 E1.12775
G1 X133.443 Y83.199 E1.1381
G1 X133.779 Y83.578 E1.1541
G1 X134.238 Y84.12 E1.17654
G1 X134.813 Y84.861 E1.20618
G1 X135.285 Y85.584 E1.23346
G1 X135.679 Y86.243 E1.25772
G1 X135.849 Y86.537 E1.26845
G1 X136.055 Y86.907 E1.28183
G1 X136.476 Y87.745 E1.31147
G1 X136.668 Y88.199 E1.32704
G1 X136.747 Y88.398 E1.33381
G1 X136.946 Y88.94 E1.35205
G1 X137.084 Y89.349 E1.36569
G1 X137.173 Y89.627 E1.37491
G1 X137.364 Y90.247 E1.39541
G1 X137.56 Y90.967 E1.41899
G1 X137.568 Y91.001 E1.42009
G1 X137.764 Y92.066 E1.45431
G1 X137.818 Y92.471 E1.46722
G1 X137.847 Y92.711 E1.47486
G1 X137.882 Y93.044 E1.48544
G1 X137.947 Y93.776 E1.50866
G1 X137.984 Y94.378 E1.52771
G1 X137.992 Y94.615 E1.53521
G1 X137.998 Y94.89 E1.5439
G1 X138 Y95.119 E1.55113
G1 X137.999 Y139.69 E2.95945
G1 X137.992 Y140.212 E2.97595
G1 X137.961 Y140.9 E2.99771
G1 X137.888 Y141.859 E3.0281
G1 X137.852 Y142.25 E3.0405
G1 X137.815 Y142.58 E3.05099
G1 X137.747 Y143.076 E3.06681
G1 X137.734 Y143.158 E3.06944
G1 X137.443 Y144.47 E3.1119
G1 X137.274 Y145.059 E3.13126
G1 X137.169 Y145.405 E3.14269
G1 X137.107 Y145.597 E3.14906
G1 X137 Y145.912 E3.15957
G1 X136.857 Y146.313 E3.17302
G1 X136.365 Y147.476 E3.21293
G1 X136.238 Y147.734 E3.22201
G1 X135.995 Y148.2 E3.23862
G1 X135.62 Y148.878 E3.2631
G1 X134.89 Y150.024 E3.30603
G1 X134.584 Y150.428 E3.32205
G1 X134.166 Y150.953 E3.34325
G1 X133.923 Y151.247 E3.3553
G1 X133.688 Y151.522 E3.36673
G1 X133.271 Y151.983 E3.38637
G1 X133.069 Y152.194 E3.3956
G1 X132.348 Y152.882 E3.42709
G1 X132.255 Y152.963 E3.43099
G1 X132.05 Y153.136 E3.43946
G1 X131.857 Y153.296 E3.44739
G1 X131.621 Y153.487 E3.45698
G1 X131.21 Y153.809 E3.47348
G1 X130.695 Y154.189 E3.4937
G1 X130.447 Y154.361 E3.50323
G1 X129.452 Y154.975 E3.54018
G1 X129.15 Y155.14 E3.55105
G1 X128.825 Y155.311 E3.56266
G1 X128.287 Y155.582 E3.58169
G1 X127.744 Y155.837 E3.60064
G1 X127.593 Y155.903 E3.60585
G1 X126.635 Y156.27 E3.63827
G1 X126.429 Y156.338 E3.64512
G1 X126.048 Y156.457 E3.65773
G1 X125.753 Y156.544 E3.66745
G1 X125.123 Y156.719 E3.68811
G1 X124.453 Y156.882 E3.7099
G1 X124.382 Y156.897 E3.71219
G1 X123.27 Y157.073 E3.74777
G1 X122.724 Y157.131 E3.76511
G1 X122.467 Y157.156 E3.77327
G1 X122.055 Y157.19 E3.78634
G1 X121.372 Y157.225 E3.80794
G1 X120.234 Y157.248 E3.84391
G1 X120.012 Y157.25 E3.85092
G1 X114.556 Y157.249 E4.02332
G1 X113.902 Y157.24 E4.04398
G1 X113.249 Y157.212 E4.06464
G1 X112.594 Y157.164 E4.08539
G1 X112.276 Y157.136 E4.09547
G1 X111.886 Y157.096 E4.10786
G1 X111.028 Y156.973 E4.13525
G1 X110.875 Y156.945 E4.14016
G1 X110.109 Y156.777 E4.16494
G1 X109.628 Y156.653 E4.18064
G1 X109.352 Y156.578 E4.18968
G1 X108.96 Y156.466 E4.20256
G1 X108.199 Y156.218 E4.22785
G1 X108.128 Y156.192 E4.23024
G1 X107.404 Y155.897 E4.25494
G1 X107.022 Y155.724 E4.26819
G1 X106.728 Y155.585 E4.27846
G1 X106.452 Y155.449 E4.28819
G1 X105.918 Y155.178 E4.30711
G1 X105.052 Y154.688 E4.33855
G1 X104.934 Y154.614 E4.34295
G1 X104.302 Y154.187 E4.36705
G1 X104.129 Y154.061 E4.37381
G1 X103.892 Y153.883 E4.38318
G1 X103.67 Y153.712 E4.39203
G1 X103.47 Y153.554 E4.40008
G1 X102.939 Y153.125 E4.42165
G1 X102.235 Y152.505 E4.45129
G1 X101.89 Y152.159 E4.46673
G1 X101.706 Y151.966 E4.47516
G1 X101.319 Y151.538 E4.49339
G1 X101.144 Y151.334 E4.50188
G1 X100.964 Y151.119 E4.51074
G1 X100.573 Y150.639 E4.5303
G1 X100.011 Y149.885 E4.56002
G1 X99.917 Y149.747 E4.56529
G1 X99.446 Y148.992 E4.59341
G1 X99.239 Y148.628 E4.60664
G1 X99.091 Y148.358 E4.61637
G1 X98.827 Y147.862 E4.63413
G1 X98.564 Y147.335 E4.65274
G1 X98.517 Y147.234 E4.65626
G1 X98.039 Y146.026 E4.6973
G1 X97.835 Y145.405 E4.71796
G1 X97.733 Y145.075 E4.72887
G1 X97.581 Y144.558 E4.7459
G1 X97.355 Y143.647 E4.77556
G1 X97.206 Y142.714 E4.80541
G1 X97.107 Y141.855 E4.83273
G1 X97.063 Y141.382 E4.84774
G1 X97.038 Y141.033 E4.8588
G1 X97.011 Y140.404 E4.87869
G1 X97.001 Y139.703 E4.90084
G1 X97 Y95.457 E6.29889
G1 X97.001 Y95.299 E6.30388
G1 X97.011 Y94.601 E6.32594
G1 X97.036 Y93.998 E6.34501
G1 X97.057 Y93.695 E6.3546
G1 X97.109 Y93.15 E6.3719
G1 X97.225 Y92.18 E6.40277
G1 X97.376 Y91.254 E6.43242
G1 X97.618 Y90.303 E6.46342
G1 X97.777 Y89.777 E6.48079
G1 X97.875 Y89.468 E6.49103
G1 X97.95 Y89.244 E6.49849
G1 X98.078 Y88.883 E6.51059
G1 X98.256 Y88.407 E6.52665
G1 X98.753 Y87.276 E6.56569
G1 X98.941 Y86.917 E6.57849
G1 X99.097 Y86.632 E6.58876
G1 X99.232 Y86.394 E6.5974
G1 X99.572 Y85.808 E6.61881
G1 X100.076 Y85.017 E6.64845
G1 X100.348 Y84.648 E6.66293
G0 F1350 X100.387 Y84.595
G0 X100.5 Y84.449
G0 X100.847 Y84.023
G0 F7500 X101.151 Y84.284
G1 F1500 X101.445 Y83.941 E6.6772
G1 X101.633 Y83.726 E6.68623
G1 X102.071 Y83.242 E6.70685
G1 X102.718 Y82.587 E6.73594
G1 X103.412 Y81.996 E6.76475
G1 X103.989 Y81.546 E6.78787
G1 X104.266 Y81.338 E6.79881
G1 X104.605 Y81.091 E6.81207
G1 X105.75 Y80.364 E6.85492
G1 X105.967 Y80.245 E6.86274
G1 X106.324 Y80.058 E6.87547
G1 X106.54 Y79.95 E6.88311
G1 X106.738 Y79.854 E6.89006
G1 X107.282 Y79.596 E6.90908
G1 X107.816 Y79.36 E6.92753
G1 X107.887 Y79.331 E6.92995
G1 X108.926 Y78.968 E6.96473
G1 X109.495 Y78.802 E6.98346
G1 X109.795 Y78.72 E6.99328
G1 X110.237 Y78.605 E7.00771
G1 X111.137 Y78.412 E7.0368
G1 X111.92 Y78.309 E7.06175
G1 X112.496 Y78.255 E7.08003
G1 X112.695 Y78.234 E7.08635
G1 X112.988 Y78.207 E7.09565
G1 X113.128 Y78.196 E7.10009
G1 X113.792 Y78.164 E7.12109
G1 X114.62 Y78.151 E7.14726
G1 X120.293 Y78.15 E7.32651
G1 X120.451 Y78.151 E7.3315
G1 X121.055 Y78.16 E7.35059
G1 X121.68 Y78.188 E7.37036
G1 X122.463 Y78.246 E7.39517
G1 X122.823 Y78.279 E7.40659
G1 X123.238 Y78.324 E7.41978
G1 X124.47 Y78.531 E7.45925
G1 X124.644 Y78.571 E7.46489
G1 X125.058 Y78.676 E7.47839
G1 X125.366 Y78.76 E7.48847
G1 X125.635 Y78.837 E7.49732
G1 X126.186 Y79.003 E7.5155
G1 X127.215 Y79.372 E7.55004
G1 X127.282 Y79.4 E7.55233
G1 X127.819 Y79.642 E7.57095
G1 X128.312 Y79.881 E7.58826
G1 X128.575 Y80.013 E7.59755
G1 X129.062 Y80.266 E7.61489
G1 X129.946 Y80.781 E7.64722
G1 X130.003 Y80.818 E7.64937
G1 X130.607 Y81.24 E7.67265
G1 X131.072 Y81.59 E7.69104
G1 X131.319 Y81.782 E7.70092
G1 X131.634 Y82.034 E7.71367
G1 X132.132 Y82.458 E7.73434
G1 X132.282 Y82.594 E7.74073
G1 X132.927 Y83.232 E7.7694
G1 X133.15 Y83.472 E7.77975
G1 X133.474 Y83.837 E7.79517
G1 X133.933 Y84.379 E7.81761
G1 X134.497 Y85.106 E7.84669
G1 X134.942 Y85.79 E7.87247
G1 X135.336 Y86.449 E7.89673
G1 X135.499 Y86.732 E7.90705
G1 X135.705 Y87.102 E7.92043
G1 X136.296 Y88.347 E7.96398
G1 X136.375 Y88.546 E7.97074
G1 X136.567 Y89.068 E7.98832
G1 X136.705 Y89.477 E8.00196
G1 X136.791 Y89.745 E8.01085
G1 X136.982 Y90.365 E8.03135
G1 X137.17 Y91.058 E8.05404
G1 X137.178 Y91.092 E8.05514
G1 X137.367 Y92.119 E8.08813
G1 X137.439 Y92.667 E8.1056
G1 X137.45 Y92.759 E8.10853
G1 X137.483 Y93.079 E8.11869
G1 X137.548 Y93.811 E8.14191
G1 X137.584 Y94.391 E8.16027
G1 X137.592 Y94.628 E8.16777
G1 X137.598 Y94.893 E8.17614
G1 X137.6 Y95.122 E8.18338
G1 X137.599 Y139.685 E9.59144
G1 X137.592 Y140.207 E9.60793
G1 X137.562 Y140.87 E9.62891
G1 X137.489 Y141.829 E9.65929
G1 X137.454 Y142.205 E9.67123
G1 X137.417 Y142.535 E9.68172
G1 X137.352 Y143.014 E9.69699
G1 X137.339 Y143.096 E9.69962
G1 X137.059 Y144.359 E9.74049
G1 X136.89 Y144.948 E9.75985
G1 X136.788 Y145.282 E9.77089
G1 X136.726 Y145.474 E9.77726
G1 X136.623 Y145.777 E9.78738
G1 X136.48 Y146.178 E9.80083
G1 X136.006 Y147.299 E9.83928
G1 X135.879 Y147.557 E9.84837
G1 X135.645 Y148.006 E9.86437
G1 X135.27 Y148.684 E9.88885
G1 X134.567 Y149.789 E9.93023
G1 X134.271 Y150.178 E9.94568
G1 X133.853 Y150.703 E9.96688
G1 X133.618 Y150.987 E9.97853
G1 X133.383 Y151.262 E9.98996
G1 X132.982 Y151.706 E10.00886
G1 X132.78 Y151.917 E10.01809
G1 X132.085 Y152.58 E10.04844
G1 X131.992 Y152.661 E10.05234
G1 X131.795 Y152.828 E10.0605
G1 X131.602 Y152.988 E10.06842
G1 X131.374 Y153.172 E10.07768
G1 X130.963 Y153.494 E10.09417
G1 X130.467 Y153.86 E10.11365
G1 X130.219 Y154.032 E10.12319
G1 X129.26 Y154.624 E10.1588
G1 X128.958 Y154.789 E10.16967
G1 X128.645 Y154.954 E10.18085
G1 X128.107 Y155.225 E10.19989
G1 X127.583 Y155.471 E10.21818
G1 X127.432 Y155.537 E10.22338
G1 X126.51 Y155.89 E10.25458
G1 X126.304 Y155.958 E10.26143
G1 X125.93 Y156.075 E10.27381
G1 X125.646 Y156.158 E10.28316
G1 X125.016 Y156.333 E10.30382
G1 X124.37 Y156.491 E10.32484
G1 X124.299 Y156.506 E10.32713
G1 X123.228 Y156.676 E10.36139
G1 X122.682 Y156.734 E10.37874
G1 X122.434 Y156.757 E10.38661
G1 X122.022 Y156.791 E10.39967
G1 X121.364 Y156.825 E10.42049
G1 X120.226 Y156.848 E10.45646
G1 X120.012 Y156.85 E10.46322
G1 X114.561 Y156.849 E10.63546
G1 X113.907 Y156.84 E10.65612
G1 X113.278 Y156.813 E10.67602
G1 X112.623 Y156.765 E10.69677
G1 X112.316 Y156.738 E10.70651
G1 X111.926 Y156.698 E10.71889
G1 X111.1 Y156.58 E10.74526
G1 X110.947 Y156.552 E10.75017
G1 X110.209 Y156.389 E10.77405
G1 X109.728 Y156.265 E10.78975
G1 X109.462 Y156.193 E10.79845
G1 X109.07 Y156.081 E10.81134
G1 X108.337 Y155.843 E10.83569
G1 X108.266 Y155.817 E10.83808
G1 X107.568 Y155.532 E10.8619
G1 X107.193 Y155.362 E10.87491
G1 X106.899 Y155.223 E10.88518
G1 X106.633 Y155.092 E10.89455
G1 X106.099 Y154.821 E10.91347
G1 X105.264 Y154.349 E10.94378
G1 X105.146 Y154.275 E10.94818
G1 X104.537 Y153.863 E10.97141
G1 X104.364 Y153.737 E10.97818
G1 X104.137 Y153.567 E10.98714
G1 X103.915 Y153.396 E10.99599
G1 X103.722 Y153.243 E11.00377
G1 X103.191 Y152.814 E11.02534
G1 X102.18 Y151.883 E11.06877
G1 X101.996 Y151.69 E11.0772
G1 X101.623 Y151.278 E11.09476
G1 X101.448 Y151.074 E11.10325
G1 X101.275 Y150.867 E11.11177
G1 X100.884 Y150.387 E11.13133
G1 X100.341 Y149.659 E11.16003
G1 X100.247 Y149.521 E11.16531
G1 X99.794 Y148.794 E11.19237
G1 X99.587 Y148.43 E11.2056
G1 X99.444 Y148.17 E11.21498
G1 X99.18 Y147.674 E11.23273
G1 X98.927 Y147.166 E11.25066
G1 X98.88 Y147.065 E11.25418
G1 X98.419 Y145.901 E11.29374
G1 X98.215 Y145.28 E11.3144
G1 X98.116 Y144.962 E11.32492
G1 X97.964 Y144.445 E11.34195
G1 X97.743 Y143.551 E11.37105
G1 X97.604 Y142.669 E11.39926
G1 X97.505 Y141.81 E11.42658
G1 X97.462 Y141.353 E11.44108
G1 X97.437 Y141.004 E11.45214
G1 X97.411 Y140.398 E11.4713
G1 X97.4 Y139.546 E11.49823
G1 X97.401 Y95.305 E12.89612
G1 X97.411 Y94.607 E12.91817
G1 X97.435 Y94.026 E12.93655
G1 X97.456 Y93.723 E12.94614
G1 X97.506 Y93.197 E12.96284
G1 X97.622 Y92.227 E12.99371
G1 X97.771 Y91.319 E13.02278
G1 X98 Y90.419 E13.05212
G1 X98.159 Y89.893 E13.06949
G1 X98.254 Y89.595 E13.07937
G1 X98.329 Y89.371 E13.08683
G1 X98.452 Y89.023 E13.0985
G1 X98.63 Y88.547 E13.11455
G1 X99.109 Y87.458 E13.15214
G1 X99.292 Y87.109 E13.1646
G1 X99.448 Y86.824 E13.17486
G1 X99.577 Y86.594 E13.18319
G1 X99.917 Y86.008 E13.2046
G1 X100.414 Y85.233 E13.23369
G1 X100.652 Y84.91 E13.24637
G0 F1350 X100.703 Y84.84
G0 X100.816 Y84.694
G0 X101.151 Y84.284
G0 F7500 X101.455 Y84.544
G1 F1500 X101.749 Y84.201 E13.26064
G1 X101.93 Y83.995 E13.26931
G1 X102.368 Y83.511 E13.28993
G1 X103.003 Y82.869 E13.31846
G1 X103.658 Y82.312 E13.34563
G1 X104.235 Y81.862 E13.36875
G1 X104.501 Y81.661 E13.37929
G1 X104.84 Y81.414 E13.39254
G1 X105.943 Y80.715 E13.4338
G1 X106.16 Y80.596 E13.44162
G1 X106.502 Y80.416 E13.45383
G1 X106.718 Y80.308 E13.46146
G1 X106.909 Y80.215 E13.46818
G1 X107.453 Y79.957 E13.4872
G1 X107.967 Y79.73 E13.50495
G1 X108.038 Y79.701 E13.50738
G1 X109.038 Y79.352 E13.54084
G1 X109.607 Y79.186 E13.55957
G1 X109.896 Y79.107 E13.56904
G1 X110.338 Y78.992 E13.58347
G1 X111.221 Y78.803 E13.612
G1 X111.957 Y78.707 E13.63545
G1 X112.505 Y78.656 E13.65284
G1 X112.738 Y78.631 E13.66025
G1 X113.019 Y78.605 E13.66916
G1 X113.159 Y78.594 E13.6736
G1 X113.798 Y78.564 E13.69381
G1 X114.626 Y78.551 E13.71998
G1 X120.293 Y78.55 E13.89904
G1 X120.445 Y78.551 E13.90384
G1 X121.049 Y78.56 E13.92293
G1 X121.65 Y78.587 E13.94194
G1 X122.433 Y78.645 E13.96675
G1 X122.78 Y78.676 E13.97776
G1 X123.195 Y78.721 E13.99095
G1 X124.38 Y78.921 E14.02892
G1 X124.554 Y78.961 E14.03456
G1 X124.953 Y79.061 E14.04756
G1 X125.261 Y79.145 E14.05764
G1 X125.519 Y79.22 E14.06613
G1 X126.07 Y79.386 E14.08432
G1 X127.061 Y79.741 E14.11758
G1 X127.128 Y79.769 E14.11987
G1 X127.645 Y80.002 E14.13779
G1 X128.138 Y80.241 E14.1551
G1 X128.39 Y80.368 E14.16402
G1 X128.877 Y80.621 E14.18136
G1 X129.729 Y81.116 E14.21249
G1 X129.786 Y81.153 E14.21464
G1 X130.366 Y81.56 E14.23703
G1 X130.831 Y81.91 E14.25542
G1 X131.069 Y82.094 E14.26492
G1 X131.384 Y82.346 E14.27767
G1 X131.863 Y82.754 E14.29755
G1 X132.013 Y82.89 E14.30395
G1 X132.634 Y83.504 E14.33154
G1 X132.857 Y83.744 E14.34189
G1 X133.169 Y84.095 E14.35673
G1 X133.628 Y84.637 E14.37917
G1 X134.18 Y85.352 E14.40771
G1 X134.599 Y85.995 E14.43196
G1 X134.993 Y86.654 E14.45622
G1 X135.15 Y86.926 E14.46615
G1 X135.356 Y87.296 E14.47953
G1 X135.924 Y88.494 E14.52142
G1 X136.003 Y88.693 E14.52819
G1 X136.188 Y89.196 E14.54512
G1 X136.326 Y89.605 E14.55876
G1 X136.409 Y89.863 E14.56732
G1 X136.6 Y90.483 E14.58782
G1 X136.781 Y91.15 E14.60966
G1 X136.789 Y91.184 E14.61076
G1 X136.971 Y92.172 E14.64251
G1 X137.042 Y92.714 E14.65978
G1 X137.053 Y92.806 E14.66271
G1 X137.085 Y93.115 E14.67252
