;FLAVOR:Marlin
M117 Time Left 0h18m26s
;TIME:1106
;Filament used: 0.566914m
;Layer height: 0.2
;MINX:96.8
;MINY:97.818
;MINZ:0.2
;MAXX:138.2
;MAXY:137.176
;MAXZ:7.4
;POSTPROCESSED
;Generated with Cura_SteamEngine 4.7.1
M140 S60
M105
M190 S60
M104 S205
M105
M109 S205
M82 ;absolute extrusion mode
; Ender 3 Custom Start G-code
G92 E0 ; Reset Extruder
G28 ; Home all axes
; ***SET NEW E STEP *** (93 is factory value - 95 mine - start)
G90                          ; Force coordinates to be absolute relative to the origin
M92 E95 ;					 ; ***SET NEW E STEP *** (93 is factory value - 95 mine - end)
G90                          ; Force coordinates to be absolute relative to the origin
G28                          ; Home X/Y/Z axis
G92 E0 ; Reset Extruder								
G28 ; Home all axes		
G1 Z2.0 F3000 ; Move Z Axis up little to prevent scratching of Heat Bed
G1 X0.1 Y20 Z0.3 F5000.0 ; Move to start position
G1 X0.1 Y200.0 Z0.3 F1500.0 E15 ; Draw the first line
G1 X0.4 Y200.0 Z0.3 F5000.0 ; Move to side a little
G1 X0.4 Y20 Z0.3 F1500.0 E30 ; Draw the second line
G92 E0 ; Reset Extruder
G1 Z2.0 F3000 ; Move Z Axis up little to prevent scratching of Heat Bed
G1 X5 Y20 Z0.3 F5000.0 ; Move over to prevent blob squish
G92 E0
G92 E0
G1 F3000 E-4
;LAYER_COUNT:36
;LAYER:0
M107
M204 S500
M205 X8 Y8
G1 F300 Z0.4
G0 F7500 X101.134 Y105.524 Z0.4
;TYPE:SKIRT
G1 F300 Z0.2
G1 F3000 E0
G1 F1500 X101.85 Y104.89 E0.03022
G1 X102.801 Y104.12 E0.06888
G1 X104.54 Y102.677 E0.14028
G1 X104.621 Y102.608 E0.14364
G1 X104.921 Y102.362 E0.1559
G1 X105.472 Y101.926 E0.1781
G1 X105.82 Y101.662 E0.19191
G1 X106.067 Y101.482 E0.20156
G1 X106.42 Y101.235 E0.21518
G1 X106.693 Y101.052 E0.22556
G1 X107.075 Y100.807 E0.2399
G1 X107.57 Y100.504 E0.25824
G1 X108.287 Y100.101 E0.28423
G1 X108.579 Y99.951 E0.2946
G1 X109.218 Y99.649 E0.31693
G1 X110.055 Y99.285 E0.34577
G1 X110.535 Y99.089 E0.36215
G1 X110.764 Y99.002 E0.36989
G1 X111.453 Y98.766 E0.39291
G1 X111.806 Y98.658 E0.40457
G1 X112.245 Y98.534 E0.41898
G1 X112.854 Y98.375 E0.43887
G1 X114.037 Y98.134 E0.47702
G1 X115.019 Y97.99 E0.50838
G1 X115.442 Y97.937 E0.52185
G1 X115.964 Y97.881 E0.53844
G1 X117.137 Y97.818 E0.57555
G1 X117.391 Y97.818 E0.58358
G1 X117.672 Y97.822 E0.59246
G1 X118.176 Y97.836 E0.60839
G1 X118.804 Y97.863 E0.62825
G1 X119.356 Y97.901 E0.64573
G1 X119.495 Y97.914 E0.65015
G1 X120.378 Y98.033 E0.6783
G1 X121.003 Y98.143 E0.69835
G1 X121.304 Y98.2 E0.70803
G1 X121.714 Y98.284 E0.72125
G1 X122.085 Y98.367 E0.73327
G1 X122.537 Y98.476 E0.74796
G1 X123.233 Y98.668 E0.77077
G1 X123.419 Y98.726 E0.77693
G1 X123.834 Y98.864 E0.79075
G1 X124.39 Y99.062 E0.80939
G1 X124.68 Y99.17 E0.81917
G1 X124.814 Y99.222 E0.82371
G1 X125.448 Y99.491 E0.84547
G1 X125.922 Y99.71 E0.86197
G1 X126.217 Y99.852 E0.87232
G1 X126.6 Y100.043 E0.88584
G1 X127.172 Y100.35 E0.90635
G1 X127.455 Y100.515 E0.9167
G1 X127.762 Y100.7 E0.92803
G1 X128.001 Y100.848 E0.93691
G1 X128.244 Y101.003 E0.94602
G1 X128.8 Y101.383 E0.9673
G1 X129.281 Y101.733 E0.98609
G1 X129.516 Y101.908 E0.99535
G1 X129.594 Y101.968 E0.99846
G1 X129.964 Y102.266 E1.01347
G1 X130.906 Y103.058 E1.05236
G1 X132.483 Y104.352 E1.11682
G1 X132.986 Y104.755 E1.13718
G1 X133.381 Y105.087 E1.15348
G1 X133.6 Y105.28 E1.16271
G1 X134.258 Y105.911 E1.19151
G1 X134.48 Y106.142 E1.20164
G1 X134.999 Y106.722 E1.22623
G1 X135.024 Y106.752 E1.22746
G1 X135.589 Y107.491 E1.25686
G1 X135.768 Y107.747 E1.26673
G1 X136.173 Y108.371 E1.29023
G1 X136.299 Y108.58 E1.29794
G1 X136.804 Y109.516 E1.33155
G1 X136.901 Y109.719 E1.33866
G1 X137.276 Y110.6 E1.36891
G1 X137.306 Y110.68 E1.37161
G1 X137.456 Y111.108 E1.38594
G1 X137.549 Y111.391 E1.39535
G1 X137.885 Y112.668 E1.43708
G1 X137.932 Y112.903 E1.44465
G1 X138.09 Y113.955 E1.47826
G1 X138.131 Y114.361 E1.49115
G1 X138.171 Y114.873 E1.50738
G1 X138.188 Y115.339 E1.52212
G1 X138.199 Y116.085 E1.54569
G1 X138.2 Y118.762 E1.63028
G1 X138.189 Y119.638 E1.65796
G1 X138.177 Y120.034 E1.67047
G1 X138.117 Y120.842 E1.69608
G1 X138.075 Y121.217 E1.708
G1 X137.931 Y122.144 E1.73764
G1 X137.72 Y123.015 E1.76596
G1 X137.582 Y123.498 E1.78183
G1 X137.286 Y124.388 E1.81147
G1 X136.913 Y125.254 E1.84126
G1 X136.777 Y125.536 E1.85115
G1 X136.494 Y126.083 E1.87061
G1 X136.416 Y126.224 E1.8757
G1 X135.928 Y127.024 E1.90531
G1 X135.617 Y127.465 E1.92236
G1 X135.309 Y127.879 E1.93867
G1 X134.717 Y128.607 E1.96832
G1 X134.324 Y129.028 E1.98651
G1 X134.202 Y129.152 E1.99201
G1 X133.586 Y129.731 E2.01872
G1 X133.33 Y129.954 E2.02945
G1 X133.06 Y130.182 E2.04062
G1 X132.18 Y130.9 E2.0765
G1 X132.086 Y130.984 E2.08048
G1 X131.199 Y131.717 E2.11684
G1 X129.795 Y132.868 E2.17421
G1 X129.478 Y133.118 E2.18696
G1 X129.182 Y133.343 E2.19871
G1 X128.882 Y133.564 E2.21049
G1 X128.378 Y133.904 E2.22969
G1 X127.795 Y134.275 E2.25153
G1 X127.44 Y134.492 E2.26468
G1 X127.298 Y134.575 E2.26987
G1 X126.721 Y134.889 E2.29063
G1 X126.147 Y135.18 E2.31096
G1 X125.483 Y135.489 E2.33411
G1 X124.903 Y135.736 E2.35402
G1 X124.319 Y135.966 E2.37386
G1 X124.046 Y136.061 E2.38299
G1 X123.418 Y136.272 E2.40392
G1 X122.288 Y136.586 E2.44098
G1 X121.514 Y136.757 E2.46603
G1 X121.167 Y136.828 E2.47722
G1 X120.628 Y136.929 E2.49454
G1 X120.037 Y137.023 E2.51345
G1 X119.961 Y137.033 E2.51588
G1 X119.085 Y137.113 E2.54367
G1 X118.358 Y137.15 E2.56667
G1 X118.045 Y137.161 E2.57657
G1 X117.375 Y137.176 E2.59774
G1 X116.438 Y137.157 E2.62735
G1 X115.902 Y137.11 E2.64436
G1 X115.002 Y137.009 E2.67297
G1 X114.632 Y136.961 E2.68476
G1 X114.114 Y136.885 E2.7013
G1 X113.353 Y136.746 E2.72575
G1 X112.858 Y136.627 E2.74183
G1 X112.321 Y136.485 E2.75938
G1 X112.047 Y136.409 E2.76837
G1 X111.828 Y136.345 E2.77558
G1 X111.435 Y136.223 E2.78858
G1 X110.955 Y136.063 E2.80457
G1 X110.349 Y135.84 E2.82497
G1 X110.174 Y135.77 E2.83092
G1 X109.87 Y135.643 E2.84133
G1 X109.546 Y135.502 E2.8525
G1 X109.258 Y135.372 E2.86248
G1 X108.828 Y135.17 E2.8775
G1 X108.412 Y134.964 E2.89216
G1 X108.345 Y134.929 E2.89455
G1 X108.008 Y134.745 E2.90668
G1 X107.557 Y134.489 E2.92307
G1 X107.019 Y134.163 E2.94295
G1 X106.618 Y133.904 E2.95803
G1 X106.346 Y133.723 E2.96835
G1 X106.121 Y133.568 E2.97699
G1 X105.777 Y133.321 E2.99037
G1 X105.686 Y133.253 E2.99396
G1 X105.359 Y132.999 E3.00704
G1 X104.863 Y132.597 E3.02721
G1 X102.779 Y130.862 E3.11289
G1 X102.583 Y130.706 E3.12081
G1 X101.989 Y130.224 E3.14498
G1 X101.784 Y130.053 E3.15342
G1 X101.513 Y129.822 E3.16467
G1 X100.871 Y129.229 E3.19228
G1 X100.822 Y129.18 E3.19447
G1 X100.387 Y128.719 E3.2145
G1 X100.24 Y128.554 E3.22148
G1 X99.845 Y128.086 E3.24083
G1 X99.697 Y127.9 E3.24834
G1 X99.145 Y127.142 E3.27797
G1 X98.857 Y126.684 E3.29507
G1 X98.764 Y126.528 E3.3008
G1 X98.433 Y125.933 E3.32232
G1 X98.229 Y125.537 E3.33639
G1 X97.836 Y124.685 E3.36604
G1 X97.594 Y124.042 E3.38775
G1 X97.561 Y123.945 E3.39098
G1 X97.47 Y123.665 E3.40029
G1 X97.379 Y123.372 E3.40998
G1 X97.139 Y122.465 E3.43963
G1 X97.048 Y122.004 E3.45447
G1 X97.009 Y121.781 E3.46163
G1 X96.888 Y120.856 E3.4911
G1 X96.854 Y120.472 E3.50328
G1 X96.812 Y119.665 E3.52882
G1 X96.801 Y118.925 E3.5522
G1 X96.8 Y116.2 E3.6383
G1 X96.801 Y116.034 E3.64355
G1 X96.809 Y115.504 E3.6603
G1 X96.841 Y114.814 E3.68212
G1 X96.89 Y114.186 E3.70203
G1 X97.003 Y113.255 E3.73166
G1 X97.092 Y112.78 E3.74693
G1 X97.142 Y112.542 E3.75461
G1 X97.407 Y111.525 E3.78782
G1 X97.491 Y111.256 E3.79673
G1 X97.808 Y110.374 E3.82634
G1 X98.177 Y109.567 E3.85438
G1 X98.379 Y109.168 E3.86851
G1 X99.045 Y108.027 E3.91025
G1 X99.236 Y107.741 E3.92112
G1 X99.826 Y106.94 E3.95255
G1 X99.956 Y106.779 E3.95909
G1 X100.874 Y105.775 E4.00208
G1 X101.134 Y105.524 E4.0135
G0 F7500 X101.412 Y105.812
G1 F1500 X102.102 Y105.201 E4.04262
G1 X103.069 Y104.418 E4.08193
G1 X104.775 Y103.003 E4.15197
G1 X104.88 Y102.913 E4.15634
G1 X105.169 Y102.676 E4.16814
G1 X105.72 Y102.24 E4.19035
G1 X106.055 Y101.985 E4.20365
G1 X106.302 Y101.805 E4.21331
G1 X106.643 Y101.567 E4.22645
G1 X106.916 Y101.384 E4.23683
G1 X107.284 Y101.148 E4.25064
G1 X107.779 Y100.845 E4.26898
G1 X108.469 Y100.457 E4.29399
G1 X108.761 Y100.307 E4.30437
G1 X109.378 Y100.015 E4.32593
G1 X110.215 Y99.651 E4.35477
G1 X110.677 Y99.463 E4.37053
G1 X110.906 Y99.376 E4.37828
G1 X111.57 Y99.149 E4.40045
G1 X111.923 Y99.041 E4.41211
G1 X112.346 Y98.921 E4.426
G1 X112.955 Y98.762 E4.44589
G1 X114.095 Y98.53 E4.48265
G1 X115.077 Y98.386 E4.51401
G1 X115.484 Y98.334 E4.52698
G1 X116.006 Y98.278 E4.54356
G1 X117.137 Y98.218 E4.57935
G1 X117.391 Y98.218 E4.58738
G1 X117.662 Y98.221 E4.59594
G1 X117.975 Y98.229 E4.60583
G1 X118.787 Y98.263 E4.63151
G1 X119.319 Y98.299 E4.64836
G1 X119.458 Y98.312 E4.65277
G1 X120.308 Y98.426 E4.67987
G1 X120.933 Y98.536 E4.69992
G1 X121.224 Y98.592 E4.70929
G1 X121.634 Y98.676 E4.72251
G1 X121.991 Y98.755 E4.73406
G1 X122.443 Y98.864 E4.74875
G1 X123.114 Y99.05 E4.77075
G1 X123.3 Y99.108 E4.77691
G1 X123.7 Y99.241 E4.79023
G1 X124.256 Y99.439 E4.80888
G1 X124.535 Y99.543 E4.81829
G1 X124.669 Y99.595 E4.82283
G1 X125.28 Y99.854 E4.8438
G1 X125.754 Y100.073 E4.8603
G1 X126.039 Y100.21 E4.87029
G1 X126.422 Y100.401 E4.88381
G1 X126.973 Y100.697 E4.90357
G1 X127.249 Y100.858 E4.91367
G1 X127.556 Y101.043 E4.925
G1 X127.785 Y101.185 E4.93351
G1 X128.028 Y101.34 E4.94262
G1 X128.565 Y101.706 E4.96315
G1 X129.046 Y102.056 E4.98195
G1 X129.35 Y102.285 E4.99397
G1 X129.707 Y102.572 E5.00845
G1 X130.677 Y103.387 E5.04848
G1 X132.265 Y104.69 E5.11338
G1 X132.736 Y105.068 E5.13246
G1 X133.116 Y105.387 E5.14814
G1 X133.335 Y105.58 E5.15736
G1 X133.97 Y106.188 E5.18514
G1 X134.192 Y106.419 E5.19527
G1 X134.692 Y106.978 E5.21896
G1 X134.717 Y107.008 E5.2202
G1 X135.261 Y107.72 E5.24851
G1 X135.44 Y107.976 E5.25838
G1 X135.831 Y108.577 E5.28103
G1 X135.957 Y108.786 E5.28875
G1 X136.443 Y109.689 E5.32115
G1 X136.54 Y109.892 E5.32826
G1 X136.901 Y110.74 E5.35738
G1 X136.931 Y110.82 E5.36008
G1 X137.076 Y111.233 E5.37391
G1 X137.169 Y111.516 E5.38332
G1 X137.493 Y112.746 E5.42351
G1 X137.54 Y112.981 E5.43108
G1 X137.692 Y113.995 E5.46348
G1 X137.733 Y114.401 E5.47637
G1 X137.772 Y114.896 E5.49206
G1 X137.788 Y115.345 E5.50626
G1 X137.799 Y116.091 E5.52983
G1 X137.8 Y118.762 E5.61423
G1 X137.789 Y119.632 E5.64172
G1 X137.777 Y120.019 E5.65396
G1 X137.719 Y120.798 E5.67864
G1 X137.677 Y121.173 E5.69056
G1 X137.535 Y122.082 E5.71963
G1 X137.335 Y122.905 E5.74639
G1 X137.197 Y123.388 E5.76226
G1 X136.906 Y124.261 E5.79134
G1 X136.553 Y125.081 E5.81955
G1 X136.417 Y125.363 E5.82944
G1 X136.144 Y125.889 E5.84817
G1 X136.066 Y126.03 E5.85326
G1 X135.586 Y126.816 E5.88236
G1 X135.296 Y127.226 E5.89823
G1 X134.988 Y127.64 E5.91453
G1 X134.406 Y128.354 E5.94364
G1 X134.039 Y128.747 E5.96063
G1 X133.917 Y128.871 E5.96612
G1 X133.323 Y129.43 E5.9919
G1 X133.067 Y129.653 E6.00262
G1 X132.807 Y129.872 E6.01336
G1 X131.958 Y130.565 E6.04799
G1 X131.831 Y130.675 E6.0533
G1 X130.945 Y131.407 E6.08961
G1 X129.541 Y132.558 E6.14698
G1 X129.236 Y132.8 E6.15928
G1 X128.94 Y133.025 E6.17103
G1 X128.648 Y133.239 E6.18247
G1 X128.163 Y133.567 E6.20097
G1 X127.58 Y133.938 E6.2228
G1 X127.238 Y134.146 E6.23545
G1 X127.096 Y134.229 E6.24065
G1 X126.54 Y134.532 E6.26066
G1 X125.966 Y134.823 E6.28099
G1 X125.326 Y135.121 E6.3033
G1 X124.746 Y135.368 E6.32322
G1 X124.183 Y135.589 E6.34233
G1 X123.919 Y135.682 E6.35117
G1 X123.291 Y135.893 E6.3721
G1 X122.202 Y136.195 E6.40781
G1 X121.428 Y136.366 E6.43286
G1 X121.093 Y136.435 E6.44366
G1 X120.554 Y136.536 E6.46099
G1 X119.985 Y136.626 E6.47919
G1 X119.909 Y136.636 E6.48162
G1 X119.065 Y136.713 E6.50839
G1 X118.338 Y136.75 E6.5314
G1 X118.036 Y136.761 E6.54094
G1 X117.366 Y136.776 E6.56212
G1 X116.446 Y136.757 E6.5912
G1 X115.947 Y136.713 E6.60702
G1 X115.047 Y136.612 E6.63564
G1 X114.69 Y136.566 E6.64701
G1 X114.172 Y136.49 E6.66356
G1 X113.438 Y136.355 E6.68714
G1 X112.96 Y136.241 E6.70266
G1 X112.423 Y136.099 E6.72021
G1 X112.16 Y136.025 E6.72885
G1 X111.941 Y135.961 E6.73606
G1 X111.562 Y135.843 E6.7486
G1 X111.082 Y135.683 E6.76459
G1 X110.497 Y135.469 E6.78427
G1 X110.322 Y135.399 E6.79022
G1 X110.029 Y135.277 E6.80025
G1 X109.705 Y135.136 E6.81142
G1 X109.428 Y135.01 E6.82103
G1 X108.998 Y134.808 E6.83604
G1 X108.597 Y134.609 E6.85019
G1 X108.53 Y134.574 E6.85258
G1 X108.205 Y134.397 E6.86427
G1 X107.754 Y134.141 E6.88066
G1 X107.236 Y133.827 E6.8998
G1 X106.835 Y133.568 E6.91488
G1 X106.573 Y133.393 E6.92483
G1 X106.348 Y133.238 E6.93347
G1 X106.016 Y133 E6.94637
G1 X105.925 Y132.932 E6.94996
G1 X105.61 Y132.688 E6.96255
G1 X105.241 Y132.39 E6.97754
G1 X103.049 Y130.566 E7.06764
G1 X102.835 Y130.395 E7.0763
G1 X102.241 Y129.913 E7.10047
G1 X102.044 Y129.749 E7.10857
G1 X101.773 Y129.518 E7.11982
G1 X101.154 Y128.946 E7.14645
G1 X101.105 Y128.897 E7.14864
G1 X100.685 Y128.453 E7.16795
G1 X100.538 Y128.288 E7.17493
G1 X100.158 Y127.837 E7.19357
G1 X100.01 Y127.651 E7.20108
G1 X99.469 Y126.906 E7.23017
G1 X99.2 Y126.479 E7.24612
G1 X99.107 Y126.323 E7.25186
G1 X98.789 Y125.749 E7.27259
G1 X98.585 Y125.353 E7.28667
G1 X98.199 Y124.517 E7.31576
G1 X97.973 Y123.913 E7.33614
G1 X97.852 Y123.546 E7.34835
G1 X97.761 Y123.253 E7.35804
G1 X97.442 Y121.935 E7.40089
G1 X97.403 Y121.712 E7.40804
G1 X97.286 Y120.821 E7.43644
G1 X97.252 Y120.437 E7.44862
G1 X97.212 Y119.66 E7.4732
G1 X97.201 Y118.92 E7.49659
G1 X97.2 Y116.2 E7.58253
G1 X97.201 Y116.04 E7.58759
G1 X97.209 Y115.51 E7.60433
G1 X97.24 Y114.845 E7.62537
G1 X97.289 Y114.217 E7.64527
G1 X97.483 Y112.863 E7.68849
G1 X97.533 Y112.625 E7.69618
G1 X97.789 Y111.644 E7.72821
G1 X97.873 Y111.375 E7.73711
G1 X98.185 Y110.509 E7.7662
G1 X98.534 Y109.747 E7.79268
G1 X98.736 Y109.348 E7.80681
G1 X99.378 Y108.249 E7.84703
G1 X99.569 Y107.963 E7.8579
G1 X100.137 Y107.191 E7.88818
G1 X100.267 Y107.03 E7.89472
G1 X101.152 Y106.063 E7.93614
G1 X101.412 Y105.812 E7.94756
G0 F7500 X101.69 Y106.1
G1 F1500 X102.354 Y105.512 E7.97558
G1 X103.295 Y104.75 E8.01384
G1 X105.139 Y103.218 E8.08959
G1 X105.418 Y102.989 E8.10099
G1 X105.969 Y102.553 E8.12319
G1 X106.291 Y102.309 E8.13596
G1 X106.538 Y102.129 E8.14562
G1 X106.866 Y101.899 E8.15828
G1 X107.139 Y101.716 E8.16866
G1 X107.493 Y101.489 E8.18195
G1 X107.988 Y101.186 E8.20029
G1 X108.652 Y100.813 E8.22435
G1 X108.944 Y100.663 E8.23472
G1 X109.537 Y100.382 E8.25546
G1 X110.374 Y100.018 E8.2843
G1 X110.82 Y99.837 E8.2995
G1 X111.049 Y99.75 E8.30725
G1 X111.687 Y99.531 E8.32856
G1 X112.04 Y99.423 E8.34022
G1 X112.447 Y99.308 E8.35359
G1 X113.056 Y99.149 E8.37347
G1 X114.153 Y98.926 E8.40884
G1 X115.135 Y98.782 E8.44021
G1 X115.527 Y98.732 E8.45269
G1 X116.049 Y98.676 E8.46928
G1 X117.137 Y98.618 E8.50371
G1 X117.391 Y98.618 E8.51173
G1 X117.652 Y98.621 E8.51998
G1 X118.142 Y98.635 E8.53547
G1 X118.77 Y98.662 E8.55533
G1 X119.282 Y98.697 E8.57155
G1 X119.421 Y98.71 E8.57596
G1 X120.239 Y98.82 E8.60204
G1 X120.864 Y98.93 E8.62209
G1 X121.143 Y98.984 E8.63107
G1 X121.553 Y99.068 E8.64429
G1 X121.897 Y99.144 E8.65542
G1 X122.349 Y99.253 E8.67011
G1 X122.994 Y99.431 E8.69126
G1 X123.18 Y99.489 E8.69741
G1 X123.566 Y99.618 E8.71027
G1 X124.122 Y99.816 E8.72892
G1 X124.39 Y99.916 E8.73796
G1 X124.524 Y99.968 E8.7425
G1 X125.112 Y100.218 E8.76269
G1 X125.586 Y100.437 E8.77919
G1 X125.86 Y100.568 E8.78878
G1 X126.243 Y100.759 E8.80231
G1 X126.773 Y101.043 E8.82131
G1 X127.043 Y101.201 E8.83119
G1 X127.35 Y101.386 E8.84252
G1 X127.57 Y101.522 E8.85069
G1 X127.813 Y101.677 E8.85979
G1 X128.329 Y102.029 E8.87953
G1 X128.81 Y102.379 E8.89833
G1 X129.106 Y102.602 E8.91004
G1 X129.449 Y102.878 E8.92395
G1 X130.362 Y103.646 E8.96164
G1 X132.042 Y105.024 E9.0303
G1 X132.486 Y105.38 E9.04828
G1 X132.852 Y105.688 E9.0634
G1 X133.071 Y105.881 E9.07262
G1 X133.681 Y106.465 E9.0993
G1 X133.903 Y106.696 E9.10943
G1 X134.385 Y107.234 E9.13225
G1 X134.41 Y107.264 E9.13348
G1 X134.933 Y107.949 E9.16072
G1 X135.112 Y108.205 E9.17059
G1 X135.488 Y108.784 E9.1924
G1 X135.614 Y108.993 E9.20011
G1 X136.082 Y109.861 E9.23127
G1 X136.179 Y110.064 E9.23838
G1 X136.527 Y110.881 E9.26644
G1 X136.557 Y110.961 E9.26914
G1 X136.696 Y111.358 E9.28243
G1 X136.789 Y111.641 E9.29184
